/* XPM */
static char * pac_open_down_xpm[] = {
"32 32 2 1",
" 	c none",
".	c #FFF100",
"                                ",
"                                ",
"                                ",
"                                ",
"                                ",
"            ........            ",
"           ..........           ",
"           ..........           ",
"        ................        ",
"      ....................      ",
"      ....................      ",
"      ....................      ",
"     .....................      ",
"    ........... ............    ",
"    ........... ............    ",
"    .........     ..........    ",
"    .......          .......    ",
"    .......          .......    ",
"    .....             ......    ",
"    .....             ......    ",
"    ....                ....    ",
"    ....                ....    ",
"                                ",
"                                ",
"                                ",
"                                ",
"                                ",
"                                ",
"                                ",
"                                ",
"                                ",
"                                "};
