/* XPM */
static char * pac_semi_left_xpm[] = {
"32 32 2 1",
" 	c none",
".	c #FFF100",
"                                ",
"                                ",
"                                ",
"                                ",
"           .........            ",
"           .........            ",
"       .................        ",
"       .................        ",
"      ...................       ",
"      ...................       ",
"      ...................       ",
"         ..................     ",
"         ..................     ",
"              .............     ",
"              .............     ",
"                    .......     ",
"              .............     ",
"              .............     ",
"          .................     ",
"         ..................     ",
"         ..................     ",
"      ...................       ",
"      ...................       ",
"      ...................       ",
"       .................        ",
"       ................         ",
"           .........            ",
"           .........            ",
"                                ",
"                                ",
"                                ",
"                                "};
