/* XPM */
static char * pacman_dying2_xpm[] = {
"32 32 2 1",
" 	c none",
".	c #FFF100",
"                                ",
"                                ",
"                                ",
"                                ",
"                                ",
"                                ",
"                                ",
"                                ",
"                                ",
"    ..                    ..    ",
"    ...                  ...    ",
"   .......            .......   ",
"   .......            .......   ",
"   ........          ........   ",
"   ........         .........   ",
"   ............  ............   ",
"    ........................    ",
"    ........................    ",
"    ........................    ",
"    ........................    ",
"      ....................      ",
"      ....................      ",
"          .....  .....          ",
"                                ",
"                                ",
"                                ",
"                                ",
"                                ",
"                                ",
"                                ",
"                                ",
"                                "};
