/* XPM */
static char *_8614be487464e20cac8fa94779a9578tHpA8Vsjea3iXT6o[] = {
/* columns rows colors chars-per-pixel */
"256 256 177 2 ",
"   c #010200",
".  c #090601",
"X  c #060900",
"o  c #0B0C02",
"O  c #0C0C0A",
"+  c #110E02",
"@  c #100F0C",
"#  c #0E1105",
"$  c #0F110A",
"%  c #121206",
"&  c #191407",
"*  c #13150A",
"=  c #19160A",
"-  c #16190C",
";  c #1A1B0E",
":  c #131411",
">  c #161910",
",  c #1C1E11",
"<  c #211C0E",
"1  c #211F11",
"2  c #1E2113",
"3  c #222415",
"4  c #292616",
"5  c #262817",
"6  c #242618",
"7  c #292718",
"8  c #26291A",
"9  c #2A2C1D",
"0  c #312E1E",
"q  c #2E301F",
"w  c #32301F",
"e  c #2C2F20",
"r  c #312F20",
"t  c #2E3122",
"y  c #323524",
"u  c #393625",
"i  c #353827",
"p  c #3A3927",
"a  c #343728",
"s  c #3A3728",
"d  c #363A29",
"f  c #3A3D2B",
"g  c #3C3F30",
"h  c #403927",
"j  c #413E2B",
"k  c #413F30",
"l  c #3D412E",
"z  c #3E4231",
"x  c #42412E",
"c  c #49422F",
"v  c #424532",
"b  c #494633",
"n  c #454936",
"m  c #4A4A36",
"M  c #464738",
"N  c #474B38",
"B  c #4A4D3A",
"V  c #514B36",
"C  c #524E3A",
"Z  c #4D513D",
"A  c #52533E",
"S  c #52533E",
"D  c #59543E",
"F  c #4F5440",
"G  c #525641",
"H  c #545741",
"J  c #525644",
"K  c #535641",
"L  c #595641",
"P  c #555943",
"I  c #575943",
"U  c #555A46",
"Y  c #565C47",
"T  c #555944",
"R  c #5A5942",
"E  c #5D5A44",
"W  c #5B5E47",
"Q  c #5D5D47",
"!  c #5A5B45",
"~  c #575C48",
"^  c #575C48",
"/  c #595F48",
"(  c #5A5E48",
")  c #5B5E49",
"_  c #615D46",
"`  c #615F48",
"'  c #685F48",
"]  c #5B6049",
"[  c #5C614C",
"{  c #5F654F",
"}  c #5D624B",
"|  c #5F6550",
" . c #61624B",
".. c #63644D",
"X. c #60654F",
"o. c #62644D",
"O. c #6A674E",
"+. c #6A654E",
"@. c #66684F",
"#. c #6A684F",
"$. c #626650",
"%. c #6B6750",
"&. c #646951",
"*. c #676C55",
"=. c #656A52",
"-. c #6A6B52",
";. c #696E57",
":. c #6A6D55",
">. c #6D6F56",
",. c #6D6E55",
"<. c #6B6C54",
"1. c #6A6F58",
"2. c #6B6E59",
"3. c #726D55",
"4. c #756F58",
"5. c #6D7057",
"6. c #6D725B",
"7. c #6D725A",
"8. c #727057",
"9. c #717359",
"0. c #77755B",
"q. c #73755B",
"w. c #7B755B",
"e. c #79765C",
"r. c #7A755B",
"t. c #72785F",
"y. c #767A5F",
"u. c #75785E",
"i. c #79795E",
"p. c #7B795E",
"a. c #737760",
"s. c #767B61",
"d. c #7B7D63",
"f. c #81795F",
"g. c #827D63",
"h. c #7C8167",
"j. c #7D8166",
"k. c #7E8369",
"l. c #828166",
"z. c #898266",
"x. c #83856A",
"c. c #8A856A",
"v. c #85896D",
"b. c #8A896D",
"n. c #918C6F",
"m. c #828770",
"M. c #868B70",
"N. c #8B8E72",
"B. c #938E71",
"V. c #8D9175",
"C. c #8E947A",
"Z. c #939375",
"A. c #9A9375",
"S. c #939679",
"D. c #9B9678",
"F. c #969A7C",
"G. c #9C9B7C",
"H. c #A29C7D",
"J. c #9A9F81",
"K. c #A19D80",
"L. c #9DA283",
"P. c #A4A383",
"I. c #AAA484",
"U. c #A4A789",
"Y. c #A6A98A",
"T. c #ABAD8C",
"R. c #B3AE8C",
"E. c #AEB08E",
"W. c #ABB293",
"Q. c #B3B291",
"!. c #B7BC99",
"~. c #BDBB99",
"^. c #C2BA98",
"/. c #CDC39F",
"(. c #CBC7A2",
"). c #CACBA5",
"_. c #DBD0AC",
/* pixels */
"5   N y Z y 6 3 y   S 9 v f a ,   m 1 x 7 3 8 ; o y n ; 9 f 3 9 f f y v ; 9 N n X i l f 9 9 8 a 9 9 d d X a 9 6 y 2 f 9 v ; y ; ; , f 8 -.  8 6 y , 6 9 3 v + 3 Q j = v = y   X v     8 8 Z 5 Z t f a y N ] :.d 8 9 y 8 v 8 * t * t I l o d 2 8 2 v X N - q y l o f d t 9 ( ,   f v o   9 -.E P *.Z {   8 i       * y o y ,   % v   ; ; 3 o y 9 e.7 5 l.;   9 v # #   o f o % 6 f ; a   u t 3 % 7 4 . =     R 7 b f 0. .v # 6 l # t f f 9 2 o.N } o * ; y ; 7.7.6 , B N n J 3 O O M 6 v 9 a d . v Z . . y v - , y a >.y t t o X ",
"; Z % 2 l h.3   a a = f 2 l N 6 t o.C u S 2 f N o v v l f H 9 o   f A Z y Z } 8 n t 3 t  .t - 9 t 6 8 f l f * f 6 # n v t N % n >.o d v N X v i n n y E v 9 , 4 d   % 0 9 R i.3 f v -   G x N f * l v n o v t.f n t 9 , 8 ; f f d 2 N 9 2 f ( f q l o 9 N 9 2 X ~ 8 n o.v :.:.% % ; %   o 9.S =.9 % 1.    y # * v y d d % Y o 3   e 5 9 9 9 f   f   % u.i.5 x 9 v d X 9 - * o N o a ; % f   #   3 O r.2     b *   :.% R P # f 3 8 W l l n   P G ( , t y i z ~ Z O 3 v I Z > a f 3 O O N f f t 8 v d * 2 *   +.8 m @.W >.o = ; a ",
"f , - d G u.% %   Q z.3.f n v i y 5.9 R 9 6 2 ;   9 l ; v a N o , v a N n a 2 X v y o v W 9 9 d a N y y 8 y S 3 S   6 5 9 f v ; 9   * d * o 3 I 8 n   u 9 % m x @.!   f % % 8 y # l 9 f o 3   y v t 9 y y q.P *.$.6.t z y 8 2 d , f 8 l l t o.l y f , S v * l e X 8 n y i a -.f t 8   #   ; Z 9 9 n *.;   o X - % N ; t 3 3   9 t 8 X 3 ; *   a o o S c.A ; , Q l 8 Z o d m   a f N S 6 f N   z g.p.. m 9   ; 9 y =., :.A 2 l   d 5 7.P 9   B =.B 8 Y N t y d 7.s.} 1.v G 8 z * y t , a 2 , 9 * B 3 O o o f l f y d G )   # , t ",
"l 2 l y 2 u.3 4 o k.L L m , ( S   m p o.8 , , % o . 3 v ; Z a f y n l f f f y 9 9 v # 3 R * 8 n d ; o   9   o 3 , x H 3 ,   6 a 2 * % 2     y v Z t f 5 i 9   g.  a   v     9 9 9 } u.d , y N X R n   @.o.G 5.I 5.z ] 2 a y t 9 o t 8 8 t z y t 8 2 3 i n v d d O 6 8 2 =.* ; 6 * X d o   % H n 8 t G d -     * 3 2 I v Z % X   3   ; t 9 H n y 9   j 9 y # 5 o n W n f n 3   3 -.m 2 t o   , b 7 7 x f = x Q 4  .B Q f d o ] o.n X o.} n 2 ! Z =.d v y 2 y d d.=.$.M.a $.F z 3 e t y O f N $ 2 N z , I   a y 8 v p f o v ] X 9 ",
"  m , f o Z.% *   :.    x H 3 o.X f n v ; 9   y o 3   a ; l Z A z - t y l 8 9 n Z.t 2 l 3 d t , i f o X o -     e.v a 9 x , d o 2 3 3 n #   9   , 9 l u d ; y * v X % 2 ; a % d.t y ! - 3 v y S a }   R -.Q G } Z } $.z d f y 8 6   3 l v v s.f { t ; - e 3 v y 9 $.l a % 9 2 y v * e       3 t t o o -     X ; 2   o o 5 N 6   3 8 v v v ; P N ; ( *     y   8 8.R e - Y *   * o 3 y * o 8 j a . L 3.n.# -.%   v v   5.o 9 ( d.Z 9 = Z v d 9 9 =.3 y -.o n n R ~.v.$.d.} v 8 ( v > O O * e e v U f 6 , 8 n d v f A - % 9 * 9 8 ",
"-   o o   d.  ).2 Z N   =.f l  .y * S -.z o ; % ; % 3 % * P y B n 9 y W f N f W n n t f o 6 9 { Z I   o , o %   o C d.S 3 2 n   # f 2 i v 2 6 - N v ; f S f a a o o % W 9 ) @.; ; a 9   a 9 a v t Q   o f S m Z z } o.v Z t N 9 ; N f * 9 9 , Z v y { t Z z 9 g v 8 9 t =.N G d #   6 % X ; ; 2   , 2 , X o o 3 -   - 9 8 3 y ; # o - )   W N n 9 v     a d 3 , f , y X ; ; t 9 2 d z y 2 4 m d.* q.0 0.u v a   ; i.  -.S t f o Z =.f d 9 t W 2 - 3 , y l 8 -.9.d.v v.6.*.P N 8 3 N O z 8 t O : * N 6 d e a.f v G ; Q v , y f y ",
"      2 v e 2 # , n o   a x a s.l 9 d N y ; ; a o ; 2  .-.i m 9 d     y l v 8 3 y v z - y o - N e s.8 # %       o Q   I S % 3 3 * d 3   , t v t o * a 3 5 7 5 9   u E o.X ; % =   =.d.d % b c.c.g.9 - ;   S f I G A N H o 3 y - f 2 t 6 2 9 X N d n N Z n d F 7.y a % Z m # } G d 2 y - #   2 3   2 Z t X t X W   3 t d i A d   ;   v 9 d , Z X I v o       y o x B 6 o 9 * * 5 Z f ,   C f f c.o 9.S B H u z % - o * 3 e.3 } 8 N o.o a   9 v o 6.f o v G f n 9.v ) t N a.d e :.B F O m.a a P t O n n v O 8 Z N d , j - ; d % 9 ",
"t 9 X n ;   o   d N y   u   b v ( d f P f ; x o p p 9 f v y 5 l * X f 0 n v t 9 d n q l 9 9 v , % 2 o % X , ; x   9   n d d 9 X Z v y f * v 9 9 - n S m 3 a l f % @.@.*   ` N C 9   3 H S v   u  .m * % 5 ; = n l l I d e t t u.G , t 3 y d   l 8 y , *.F F G P I t - 8 9 X I H 9 2 G e   y o v * 2 ; n t y , Z % o X * l 2 9 l z   d f   J * 3 6 Y t 6 o   % v p f , * n ,   ; 8 3 * y u + * & o S u  .~ f - *.  B     3 * v N * 9 N 7.F 9 } 8 :.l n - t 9 S d.*.$.f , 9 =.y - =.9 : v.v B J C.: I > e ) O O o l f m , t   X o ",
"- X o     9 @.y 9 z 6.  5   D n y * d Z B * 5 o % % 9 5 P m 9 9 3 * X 9 3 y 9 t 3 v * Z v a H y   8 v , *   , %   X 3 * n a 8 y 9 9 8 9 d z z X o d v 9 i 9 i X 3.p.4 7 f m f   X u   o     y 9   y g.* f t   A ; v v v 2 d a n N i 6 f o y d z v 8 G - G F ( Z 6.9 6 9   * v ( 2 o.# t d ,   t d d a ( 6 ( o y   3 3 * f m d   % l y X Z 9 * X o N f y y     3 i , 8 5   9 6 v v   o % 7 9 b , . b d b ) o @.F   g.! 9 2 % o Z ; 9 Z ,   y v 3 2 H v - 3 u b.z a e f f v ! s.^ U F ^ $.>.B z Z 8 6 $.f N N 9 . N * d * -   % 3 ",
"X *     o % 3 d ;   N * j   u H 6 y l d t N   i a %   a y l 9 X 3 3 o 3 o v m 3 d n } t 3 8 ; e * I G p , b I f 9   % ; 6 y l y d 8 - o 2 y o   X   l Q d.o.-    .S Q m   3.S `   %   N Y S a d % w a Q S Z d v y d n y 9 v f N ( v 3 G y y 8 i f t l I 8 N B I ^ d v d 2 # Z Z f (   l 2 f o y * # 2 Z   G 5 9 1 9.9 3 ; :.d y   -.7 % % a 9 5 6 3 n d d ,       X ; -.v   $.o f 9 9 9 Q u u o.* o.S Q S u.  +.o ; e.; X i   ( B 8 y } 7.- 5 N , o d.t d C d F v P $.n $ q.G d.d.B f d M.k.e [ t z a d d 8 O N y d l z 9 o     ",
", 9 X 9   9 6 H   Z     f    .Z ] z z d f l   ; y d 8 9 y =   v 8 f   3 # l t 3 - k.v.o 9 6 f n ; ;     a j o a d   f t X * ; 8 5 t t n t 8 - o     9.u S N.3 o f 8 p 5 j 9  .Z.f . d v B ! m Z B 9 o ,.p $.N F y v 3 t d n i v I l } P o.e l v 9 t N I f B $.*.y B =.3 9 % t f s.d Z G 9 d.  a * z * I d.; y   6 )   8 ; , 9 - = f S 5 y # v a n 2 :.*   6 -   % 3 , v 9 A ,   * o +   H j a v 3 R Q u.j S o u A   8.8 ; 9   9 B R ) ,.q.n ;   v % x.f 9 B N.G y d.n N f y a F.d.M.M 1.*.5.a.$.d J t > 9 y $ 9 v 8 ; N f z X   ",
"y I 8 * 3 o o x   R e * ;   v P B t f N z i :.- y o.v 2 a q.f # P   n X o W o @.f u.k.9 8 d 8 y   , v     a d * a 3 H z o X 2 o t z G n X G z 2 3     j ` o 3 V f a d   5 9   S Q   o Q % o   v y % % Z.b N i 9 n t 2 % n   f # $.f 9 f 9 ( z v , t # - - t N v ; v F t ;   9 n } n 9 f   N y v d.8   I 9 z t # 3 S , , B X y 9 9 j S 5   n - m   X l 3 #     -   3 , 9 * 3 d G t   9 % 3 % k.f 9 . H l.y >.%   S * m 2 d o     % 5 * >.( B k.N . B v * ) G I , a.G > *.a ! s.d.G n B o.S =.s.G $.z f 3 d 6 G t % Z 6 o ] z X   ",
"  8 * t a *   o z  .F I o # X - G y v 6 3 F v $.* % 3 8 f G f y 8 v i i , 2 9 ! 7.i >.z X t i 9     R       v   a ) i % , * #   N t n X   = d n , ;     w ;   a 5 L q.-.  f   l.} a m :.7 u #   f 5 1 l.m I v t y - 2 X o   9 2 ; =.d n v f n z 6 y d n . v d a f P 9 l N 8 2 n W N a N v y v - H N 3 S Z 9 y #     = w 4 3 x o v % y 9 * , - 3 f 9       I *.v   3 7 3 3 ; o y   * X % - a n ( , ) 5 S v B   % 0.e.  F I X   f N d a m N q.v q.I :.d.$.(  .6., v.d q.Q 3 k.7.Z q.0.O S s.Z.N s.a.6 g e * 6 d d ( . I   v , z   ",
"  X   n   - , t   ! 0., I - o - y N 9 y o Z t t N 9 , 9 n o.=.o 6 8 n i # l # y 6 q.! Z # 2 f 9           9 o 5   v l z t 2 ,   * N ;   , % 5 m p S v a o 5 H 9.; 3.g.a f 9 4 ! -.u B l 9 N f 8 m f l x i.5.N d Z t Y o ; *   y 9 f t t a d 3 9 Z # n . . 2 } d . n 9 I , a o f z 2   v Z   y 2 x Z X p Y.9 o , 3 v ( ; m 7 y o B 9 p ; 9 d y   v >.e v.y 6 y 9   o * = % I   B f   X   o e 9 ) N . H m d n %.= S 3 G G t # 8 A   W f >.B v @.d.W.* } d n m 1.} y 3 o.$.o.n t o.$.y G a m d.d.} B G 3 Z y , t f *.- - # f t N   ",
"# o t f # 3 3 3 %   n =.e 9 * % 8 k.l 2 n - 3 ( d d Z % 3 ; y =.6 2 , i 6 G P 9 5 y 2 N 9 X z %   8 *   v 3 ; - o o Z # m - # 2 3 d 9 v 9 ; 3 * = ; < 6 2   R   S x  .9 >.  j H   0 B @.o h.N Z } v 9 p b @.G f f N v * y y   f l 9 , i y n t 6 G 3 I . v 8 G 8 - d N G f Y z a n o.  N 6 v 9 ; = A t 3   *.I 7.- 8 -.o 3 f 3 ; + p ; ; a a 9 % 2 n   =.t a o 6       o o   9 0   3 o o X n N v l E 0.B f n y L b 8.H f f * 2 1 m d V.3 O H G $.J d H 0.a B , d.L K B n $.>. .I >.s.6.O n , x l f y N J B f y v ( % . F e   , - ",
"v Z X a # * f ,   3 *   6 v   * H 9 :.z o.8 G P t N } o 3   q q., 9 # # N * 5 n ; G 9 o 2   ; 6 n X , 3   u X , ; % ) 3 I t X 8 3 3 z y d * 7 u 5 ; + 3 2   Z.* i v H m % C x ;   = 4 f x X } Z P i -.3 A Y 9 y ;   6 3 % l   o * t y y f v a 9 { 9 I a N v z y z y ] t 3 z 9 n =.t   % ( 3   9    .G z   o.s.* 3 m x 3 ; * l =.7 f ; ; 3 * i 8 i o % N   1.f           5 o 6 1     l o   . % O f u v m B v v * o m v   , S z       f v * O G P v 9 B t G G e o.3.G P ! 8 , Z o.! 8 v N H o d , d I v v J > 9 t F G 3 9   z * y ",
"y - d N y y 8 9   * B d   - v 8   9 o.v } l W N G l 9 } 3 8 9 v v f o 6 3 o B N 8 9 2   *   , W , ;   X   y p 3 o 9 = , f 8 2 #   I f y 6 t 6 2 9 S 1 u p u   m 3 . q.; Q c.N c.d.y * ; 4   7 ; N m A S o.o.l Y F t - z o # v 8 I $.P v t G y f N v o n v I 7.2 } y n d v v n Z l n Z o * =.o y d ; $.G 9 N z ; ; o 9 f 9 ! f y 9 n ; 9 9 , a 6 (   X 8 %   G       , ;     ,     5 o ;   . O O ; b x L y S f 5 9 7  .B 5 F.y n ( O @ = >.- 9 9.7.f d e B ! g Z 7 $.v -. .C S a b , O - } ; - 9 ; v . O N . v f 8 f f f - G v t ",
"z l , 3 8 6 9 y 9 , # ; ( 3 * 6 y   n a H a * z l B - , v t z B d 9 z v 3 3 y v v - a , Z X ; y 9 % % 9 6   o , 5 9 e 5 d Z v , y S m v o   # ; 3 3 o   E y . >.4 . 9 ` >.d.$.N 6.6.} t d j   % p     9 v o Z v N   , X 6     ) m B N f l m y 2 s.d B G d 9 I 2 f 2 t t 6 y P P q.y y 8 X t ; - y f o.v # - v Z 2 % + 5 a o f ; - 9   f ; y   8 f 6 , % f { ; o     o o *   x :.i o 3 9 # - . . y v m <.a f - , y 9 b.i.B O ) ) ( v q.O @ : n K.@ v N B N , a G a O , @.O H } m 3.G v , } I , N t d N   t F - $., z N 8 ;   2 , ",
"d d   Z y , 3 - X N o   i.2 z   ; -   l G =.a t 9 f % Z y e % f H :.f y * * 8 n 9   * t 8 v 2 - N   6 # y 3       3 , 3   9 A a - 8 v y p 9 ; y u 7 9 . R a Q 7 E 3 . +.u Z.s.J.3 y 0.x  .-.8.S v l  .u y , 2 # - 9 * 8 d   P @.Z n 5.S @.d f n l 3 8 I - X *.8 o   y z - d v l o.% B Z o % o   f 9   N 6 X S n * % * =   * % 3 -   o x X f   9 c.  - # 5 ! , ,   %     * } t 5 %   8 3 * i 6 . y B 3 B.L M N - m y 3 L ! b , o.N s.9 O a.@ : b z v n H 9 :.) 9 O g.~ m m f n +.B l q.d $.y v * t t ,   d t 8 W G } 3 s.G y     ",
"8 d t   d I N 8   ; B % S y ; B   d o N v y , t 9 f   - 3 * v 9 f o.f 2     , y i 9 6 l t y o ; 9   y   8 8 2 X * o     X     % d a 9 y = = 3 X   ; j %  .* A X , . 9 O <.k 7.7., O s.v.* 3.-.-.m 9 o a *.e v t f z   t n :.f -.W v o.5.Z 9 v y H y 3 { t l 5 f 8   d s.* 8 v v Z k.N - , Z 3   y o ; N N 8 f H t - * % # % X o 2   y Z 7.% 8   H a 2 % # l 6   - %   9 9 B   * ;     o , 9 y . E f , G f m y u d B E C v B _ K 3 T.N.N N.: * f v B a y G $.! Q . , %.@.. 0 E Q v * a X v 3 3 3 y R.6 9 9.  y Z 9 9 v B $.f d 9 ",
"t t X , Z =.d , .   x y H n X - * - 9   2 - Z 8 3 ] , 2 d 2 2 y f n S , n y y f y 3 N d e o v # y o     a.t ; , o - X   o o X   o % p o * % ; 7 o   m A i.w 9 4 , y 9 o.<.o.v.* a v O 9 - u u B  .d n C 9 , I - 3 o   @.G o.,. .P a v n l v v N H N y Z f F y v 8 6 d.Z d 9 9 9   7.6 X   n t   9   N y 9 2   N z o % e v o ;   ; = 5 * 9 7 - f E 3 S a 2 9 o ,   6 ,   w y = 3   5 ; 3 o 5 ! 7 9 9 b G @ 9 d 7 a 7 $.> v d r m B , c.;.v O S y B d y N e H m  .. s.  v N v f B f f o 2 i P -.,   9 X Z.* ; % 2 3 q i 2 y f e 9 ",
"; B o . ; t y d.e * z i G o t 9 v t 9 t f X 9.t   n t G i 3 f f d v n f f 9 9 % A t 9 v - 3 2 v v o d t o v v 6 3 * o o * 2           %   v 2 3   9 o o % =   * S e 6 ; b d.O O f O v v S 8   0   u   * 3 7 m H u 9 -.L u 8   -. .9 d l n m 9 S P 3 t f Z 8   t P f 9.s.v d o.* 9 m *.  % 8 9 # o     7.Z 6 ; o.z o ; 3 v a , o 4 m 9 6 ,.0.t   X -.X s.I *   # ; 7     f 5 8 , ,   f     a e.e.y a m 3 3 >.r a 9 y a e a H K ` ) * C v S O - ; =.G v e 9 P a ,   L.  d.l * ) R Z Z f X 3 l v 9 A # _ Q 9 - - 3 t 3 y 9 # n d , ",
"t * o y =.9 *.N 6 * y 9 8 - 8 d z l y - X v , B r y t l z i   o t l l o N 8 l d G o - t y , o * i t l   9 -   X 6 ,     o 2 - #           ; 3 v 3   4 u     N   Q p     c.9 O u d.S u 6.7.f   % o v ; ; * ; x a u v j 5 y - x f S =.i n W 3 B m f d t d y * i 8 N   9 N d.X v.n   f o.* 8   N X *     o a 8 f 3 2 t 3 Z l.G -   C = } ) @.B >.X   9 * y i 9 e d d ; 0   p u       * 3 = o j S 9 S = y ; - Q 1 9 5 7 y 9 y 9 9 ) N 6 y z. .| * v } $ H f N O a v 1 P   ; n 2 y A o.Z ;   - 2 H z p.9 p.f 9 t 9 W 6 N ; f t y f t ",
"# 8 y d d t d i d f d X ; 8 l v v 2 8 ,   9 8 l d o f y y z N v y f n 8   3 f d y t Z ; , 6 d z   :.t 3 8 o F   o   o 6 , v 8   $         4 d , 9 5 5   u u t t % 3 H   Z.. $ . O -.H.. -.; 8     9 +.3 5 ; X #   p A o 8   p x -.l m ( o.N o.A t n n l y -.= 8 i X X 8 5.o ,   ; o I y 8 -   ; 9   f   d * 6 t   3 = f 8 @.a i X   =    .f @.a x x f 9 d - - X , ; 9 o 3 y f       % # o 7 E = x v 3 O 5 9 j 5 7 , 9 6 , 3 O y 9 l % . *.% y ( , N O d O d 6 9 9.Q X % I + f R 7.f z 9 n n { * y D -.! l     v f 2 3 , 3 d t e ",
"- - 9 } } I t v 8 k.v 2 t i Z 9 f t 2 S % o.v ; z - - y f v 3 N 3   y X G 3 , X 8 X } n - 9 ; v % y N , ,   * $   z # * X   -   o         , 3 ; 3   ; _ v 3 y   + ; Q  .f * t 1.O d.y 9 } o ; X 3 ; f W Z y a 3 v 8 % - v a , = v p y :.N y @.H } z v N   B H 5 d o y a Z $.d $.  v I 6 6 o   o t o %     I , d   3 9 Z (   X i o 8 0 * % y R Z i.3 o 9 m # 6 8   3 0 3 , % 4       % o ; +   9 9 1 S O y , % ) v a f % 3 * 3 . j p t 8 t  . .n S O ( o.v n d o B >.R ) * % f v.6.] X f N G o n 9 C y v 8 3 y a 2 2 * y 2 # * t ",
"% ! $.N t.I y t d :.7.7.f o Z Y 8 l f Z y 7.t ; a t 9 f d N 3 o z i   d N 3 ] 8 - t q.I 9 X H d % f f n z     X v o.  - , -   X -     X   o o 3 3 o N ;   d 8   %   v * Z # s.<.Q.4.e 0 0   :.9 f   i o.v b ; , 8 9 m H 9 - v   N f @.9 p d r.W n 3 v 9 o >.d h.y 3 H i t Z 8 y 6 d # f - 2   X 9 % X   3   v d X * X d F 2 Z 2 u v s.a m a 3 X  .R >.= = 2 d   ,   o +   + o       y     5 9 7 3 7 u =.=.f d 6 8 d 8 a o % , x 9 p 9 o c.m %.=.a -.v.a.N 7.! * ; 1 y v ,   0.} ( *.9 z v 9 m 6 ; 9 5 Z 6 2 y d Z , t 9 t o 2 * ",
"* f t N I 3 , G g f >.N :.I , o.9 t Z d 3 S.6 o :.* e , * v d   N 7.; v e , W 3 -   G y o.n y n t * i S %   -   * v.N G   X X v   5 o o   o     * L e 6 a y 2   ; E Z.*.z 2 0.O , O c.j L 2 v X . - d   =.B 8 n   L x -.  m 9      .H ; } n I P z 6 t ; * f L A a w a l :.z W N d d * , 8 d * 6 o     8   2 n 9 , ; 2 3 - 6 o u.A }   9   f f B 9 f -.S +., # o y 3 6 2 -     X # o * d ; 5 f . 3 *   u x B f 9 9 o 5 A =     ` p B 3 f B 9 P.t a a 0.d.d.$.  d o f , a     -.] } f l l y 8 a 3 x 6 N 9 , l v G n v d z o * 6 * ",
"8 , n q t N ; d s.( 9.P ! Z N I o l N.3 y q.8 o.-.X 3 Z G z f l - y   Z y *.# ;   - , f *.y I f ,     9 - d z * z - N 6 6   f 3 , * o     . ; 7 o % ; y N 2 z   u p -.= j 0 . . . ` w.G - a ; , o o 2 *.  m 6 6.  6 9 # * -.P.f - m 8   ,.S A Z G N 8   z.g.R ;   y ` B G y v v n 9 8 d f d     * v t * =.a x.l - , o q.6 3 X   o 5 o.; p a 0 m S m c.#.t o - o * % B d   a i   X X   +.  a 9 9 - 9 * f u 8 H = 9 a y 3   =   9 C 5 j   v x ! i * $.3 d *.d o N 8 j ; h.o * 3 ] 3 f % X y 3 8 S +.f N n 5 z a Z 3 f d , n # % 8 ",
"o v A 9 d.Z t . ) > f 6.f d.9 f v 3 x.N % q 5 Z @.d f g t 8 n f o f 9 # F y f - d * 2 y Z Y ] o   t   } o }   9 3 9 ; 2 ; X     *.* o *   # *   = L } - %   d % % 3 ; 4 % ; . . % O x.O * % X t   b X m , G.  N % 3 o 5 m 8 9 d 3 * v ; #.d.v n v n a 8 q.q._ S v   g.B 7.# d 8 2 f 8 2 , 6 - %     o   ; d o i N 3 n :.3 3 o   #   , , d m B u 1 3 c.S * - , *   8 } 6 9 N N     + - a   o v i N S 9   Z B S ! l.Y.X i ;   o ; B x j o d.j 0.=.y d ! 6 t   9 0., , 9 * Q , o ( d y n N f t a j - v f X t 8 2 v * a y 9   R X o ",
"# y y A 8 5.8 2 v 6 } B I v y v S :.z } 9 5 9 t v.z ; N 6 8 d G y d 8 8 - 3 8 X 8 X   8 8 l *.- y 9 y G n Z o 9 N f #   2 % o   n e # ; v +.o     b.R   #   5 = ; x u m G f , . h.u L k.m x     f p b z.P ; o 2 m Z t ; z D.$.} 8 8 t ,  ., 9 d f v y b R p v v +.9 o.F.f # i , - f * n o *     8 ; v ,   A 2 f n N 8 d 6 i f X #   9 * N x j 3 o * H t 3 6 , y 5 t d y ; , * 6 ,     * * u % l.2 l v 8   >.-.m Q c.f - 2   a 9  .= X   H o S L N Z o S   C o 9 { = v 5 9 # } y d I % 5 # % S % Z o d v y 9 y N y d , y s.-.    ",
"f Q W n t Z 3 f m I H n ( G N n 9 l o V.* 8 o * H :.3 2 f 3 I N d 2 v , 3 X t 6 o *   t d 3 N f n f a v d d y f   v 3 e   2   ; x - 9 d f   9 v   t E   6 ; ; 3 ; x   ; v.f .   ^.B u $.a x o H L :.f H v B ;   f } , v o f G a 2 q 3 v x 9 f , - , A 0 v 9 9 9  .p E y f :.I a , 9 * d 8 * # o   X H 3 3 j X S f 0.8 Z * , y o ; 6 a 3 % 9 >.S A   q.P b 8 ; z a t y e 3 o 9 - d 3     . 3 . f % y l ; m v j y 7 0.8 9 * o f 8 + p     5 = B 3.i.e } 9   >.3 d 9 , o >.t n f d 9   3 d   L N y 9 n d 7.  - 8 v d % 8 3 ~ * y X ",
", W *.v t 6 d i , a G B s.y d 2 W A } o.A * v y s.o.Z d z v 2 P N y f t 9 9 * d 9 8 n , - - G I Z # -   - 9 d y * Z F   8 -     % X B o 2       5 R * , o 1 1 X C   # 8 v   X 7 O @ N . x   3 ; C C ; N f 9 8.; L.n % = p % v t t - f f v n 8 , X D f f d v S 5 _ v E a 3 % G f 8 v e t 2 ; 3 *   a f z y o   9 5   f h.v f =.9 8 2 3 ,   = 7 B = m 5 1 3 * 9 3 x 9 v d N a . . I * , . . y d f y y ; # ! o.  9.m L f y , X   w     9 X   S v   >.s.8 5 y n * = 1 9 G B 9 9 f y n 8 6 = *   N y ; x X y e d o f f { y :.a *   6 ",
"* 2 m 9.6 3 9 G 3 8 y o.N 3 z i m 6 8 o { i *     P ( 6.6 o   Z d N d f f N 2 , N 2 l 9 Z 8 a I I z * 2 e   t v * o   :.* n   , 9     o   o X   H.+.u o , 3 u $.9 d ;   o   8   . H.= b f   9 * v   % s.d d t o :.  d         * o f 4 -.l z o N 2 u i m l t l B j m g.L :.N q., z > f * B o ; 3   e f * f ; n f   o   q.=.G v B 6 y   y ; 9 y m a ! 5 o X a ; 2 O 9 3 e 9 f 7.O B e O O O y 9 3 9 5 3   f f   x 0 } ; %   v + ` w.u S y     a S  .=.* =.9 9 ! 5 % X 0.W 3.G 9 * ; o )   9   % v # W I p 2 o ; q Z v 2 % n t f u ",
"N *.v.@.W 8 n G i t * Z O v N 8 v ; 3 o X W t ,   a n ( n N   N I y n 2 , Z 9 f 3 y   y G 2 ; n 7.f   f 6   e , 3 f y z o v > q.- * X X   o   C E q.  ; X S o :.8 t % # j o 3     9   p - 2 X D   #     B 8 v l q., a % v   I ,   v u A z y a ; n f w d v A S v a 4.q.S o.K ! P F.F t N N y %   ; ! f , X B - o a B q 9 % 9   Z N ; P   1 % W o.9 p B 7 ; t y 8 > 7 z r 9 9 3 f F G e : O , 9 5 u ; 9 9 o X 1 a S S Z % 5 x 1   ; 4 + 6     j 7 d.e.A 6 9 9 s.d 5 9 v 2 A ,   d i H % 9 n 6 9 t 3 o N o 9 P X % w d 9 B 9 $.z o ",
"z , l.9 N l % y t a O f y N d y v a W v a Z e l o   j n d.N f t q I n i 9 n l t ! ; n f % l 9 v P v ; y 6 ; *     6 N W d - ( f X v o *   B v H v S o o   %   y 3 9 a ; p   n     o ; , 8   N   , *   ; = 9 }   ).o -     9   o 5 v h.2 t d 2 2 t.v i v P N - 8 Q  .! 7 o.-.^ ( y ( d e  .>.z % y ; 8   o d   Z I   a % f o ; * t o W ;  .)   v d.x ! 5 e 9 , - 6 6 a S a = d u e J : O f j v * ; 1 9 % % % 0 % 3 ! L   -.b n 8 0 % ; C p   1 u p x q.f -.6 , X = x 5 R W N t , 9 N #   m 3 % 8 * 8 8 $.y n 9   = v a G 9 9 6 X ",
"  3 s.9 i v t v v 9 , O 3 v m a m v n d S 8 t v d 9 ; f $.n 9 N f ~ ] t l f v t t 3 o Z I * v 8 G t 8 y f   3 3 # o f     f $.2 l *.- X X   X _ u 9 o X , 3 u * e   3 o   v z o       X N *   v e z l   X   * $.l   h.  y % #     x * 3 G = v H ( :.( Z 3 y i Z v S , 3.m b s.G :.3 y O P F 9 8 l 3 2 8   z * } Z 2 6 % 6     9 d 3 o l , 9 p v S X y , 3 * e 8 3 * 9 y a y P O a 6 > > u = v . 5 3 A H o f 4 3 3 6 b = m f   t u 7 5 u 9   o `  .p #.=.9 y =.$.- w   6 3 -   d.d , d f , S , 9 Y 3 3 t ! v 9 9 d 9 m v v % f   ",
"9 f v W d.% G 8 I * N B f G d 8 P l N y v i v v 9 t f } W Z t N z N o.G N l y d 8 G 8 y 8 * t z a N 8 y   3 9 o * * f $.8 N f o 2 Z e y f } v   f   v     f H.= % 6   N ;   - * Q B Z + W.  + n F.t.  X   8   b 9   G o 3 N ,     f o  .  v I S Z  .A 5 @.3 3 d *.o.S 3.C ) ( , 6 t 6 * B B 6 y x ; G y y , d   o 9 9 3 3     X (   f a S ,   3 y B ; - e O 3 2 , O 0 9 y 9 6 ; * 9 k.8 1 O ; - 3 % % p j 3 g # n o 0 Q f #     7 9 x = a 8.= 5 m , u o x Z >.f 2 B 8 x c.9   A y u z f , 8 N d 9 y -.N Z v o l o y y - v y y # ",
",   y X n X 3 G P 8 :.z I a I v 8 i 3 5.v l 9 f 9 v d S - I $.d y f F.Z ; v d - % i y 9 Z * , v f W t t     N W - -   Z 9 Z 9 -   8 3 -   S f         -     D d y - Z v.+ 0 -   ; 0 j v o   7 j 3   t t :.9 # w f 5 9 # 2 5.o.G n   8 * 3 = u   u @., %   9 f ! f 9 o.! o.e <.O v 2 ; e a B s.Z 3 >.l 9 2 y   2 3 d n N Z # 9   3 t , v P   W 3 5 5 , 9 8 > y z e d 9 , 8 3 $ > g O a L y d - O %   o 9 g.b * - b   = X 4 ; 2 E . 3 c S 9 5 _ 4 0 R (.` m 3 3 m 9 H v m l 8 ( = X   9 B 3 v * v X ; n o   9 t 3 6 - 6 9 d l n 9 ",
"=   a i 3 X y 9 z *.9 d B 9 O f ) v l n H n d 9 8 v 9 H d - >.} d S q.i l v t 9 9 9 y 8 f t t N Z n ( 9 t ; y 3 6     Z   n y t 9 F , 9     ( 9     o     * o 3 v z 9 h.v 7 d   v o a S       g.= 3     m G o ;   X d R v.P P y s.l ; o   x   v X * x =   n P % ( I % ^ $.e I $ - 2 ; 8 O 3 Z 3 v O z 3 9 6 8 2 o   z 9 2 n - n o   3 * % d.* f 3 , o.3 n 5 1 v O y 3 6 - e , a O 6 3 % 3 z * O o - 4 9 b.*.o   3   ; 4 + a x   f   R S 7 9 R 0 Q u 9 R m a 2 f f 9 t 8 % 3 m   a a l m z d d   y t l m * y 7.f d , * ;   S 8 $.",
"n     - ; N y d f o G :.n I G G f Z y * 9 n Z Z z m 9 y B - >.5.f ; o.y F - 9 z y 9 G - X * 8 Z I d 5.Z   y 3 Z I 3 y   d o.t 8 I 9 v       X , % 3     3 %   ; I.Z N $.  - t 3 X   H     W * 3 t 2 -.N   9 ).o 9       y 2  .x :.t , f o d p   y -.3 9   X v . a ( d., ) v d 2 a O O , $ e Z f B 5 . y t d d o 9   N y 8 X 3 ; % d t ; ; l f q.3 o ` t  .v s B y , * , t 6 * , a * , f d   2 # . ; o o f z 9 A , o l 9 t X 2 u ; o S 3 6 i f 9 f u v 7 v f 2 y ; ; s.3 f X , y   y X f q.X v f ; * n X - G 9 m ( o 9 a 2 y x , ",
"m y N 9 X v , o.G y y s.9 B N n ! m a ! , q.  * Z N   l }   i % 9 - y n } f 8 d # t 2 9 2 o 3 2 z N d =.(   I * 9 z N   9 v m , ( l =.X     v n d q o i o * *   E @. .v 2 o y 9 -           X + # 9 ) L * z  .; o X *   7   o.} y 3 f v } ; , ; % # , Z   , . d . =.n B o ; . 9 G O * . . y ( G N 9 * o y 9 , * e X ; a S x   S 3 a ;     :.:.G N d d H ) a , 7 y >   *   t   f . #   X t 8 d 8 z - o 5 d l ; 3   3 G.a 9   o o u   B y ) X ; f N n v ; - 8 - * , 3 t , 2 9 ; 9 % , G S )   t , d d N 2 9 x a y y 2 t 5 S d y 9 ",
"8 o 5.9   n X ; v 8 d   h.y i f G d , P H @.3 ; d y f d o 9 3 ; t ; ; 2 o.N y f * n 9 2 o f t t 8 9 t N n 3 3 ; 3 d G   9 3 6 y 9 t - H y o I v l X X ; ;   P u < u 3.% o e B X 1 9   = S z d f   + 4 E   -.  o % f 3 0 v   a - 7.s.* 9 i.l 6.o f     9 o p O . N X l d n v ( - % O * O # t a H v 2 o # q 9 9 o   9 * y a = v t f , 9   9   q.t.  h.9.O N f 7 1 9 o   f 7.*   o %   X   z o n , 2 l Z (   ,   B 5 u  .3 5 X 2 8 , y o   -.m a - - 8 ; o Z 8 t f f # ; 9 i I ; # N o c.y h.o Z i 8 ; X H f f v 3 d , , 3   y 9 f ",
"Z n H o   5.y 9 v y 3   5 t $.f ) S 3 3 a n 3 P Z 8 i x 9 - 2 8 A d d 6 , f l t % - v 6 * t * v B f f 8 N 2 2       N N N n * t o n 8 N d , Y 9 l v X y 3 y       u = X 2 b X , 8 # 3 8   #     z       B 3 + X # , o f 3 z.;   =.:.m =.y   * o       t X - O   3   8 , f Z *.3 - , o * * t ( G d - ; X %   3 9     l 9 9 y ; t , 8 # *     o Z I ; } , t t a 9 8 -   f @.d f   5 6 ; o * o I X 9 m y   - %   b y v u 3   m p t , 5 6 d f 6 9 y 9 y N   X l d 9 f y 9 3 3 n   % n N d.l o.N     Z 3 Z 8 v X 7.8 y ; ; 9 8   o.i ",
"n u.9 @.m ] -.I , 5 9 9 # v v B N } 9.9 e.3 A W I % o N 2 2 l ; y z N , f W d N d , G f # f     2 a f i G o   } 3 8 , f t Z X } n z 8 N v W 8 6.- t v M.G f * * 2   N   - e 2 L     z 8 n   e 9 9   % 2 W , n 7 d   o S o.x o -.% Z.H.  3 X o , y 2 8 X 2 v 5   * i f t Z o.f o v d ; , z y O v 9 8 8 o X 2 o * 2 o v X d = o 9 W * 3 - X   o f P d S N ; o o.o t   * A l   t ; 3 8 = ; %   0 L X P N e X - 3 , b -   B X * f y 9   o n   9 X 8 9 y ; I # d f ; y 2 d y 3 t 9   X f n , l $.t S N   n e ( 6 6 v a 3   6 8 # % 9 ",
"o 3 f   5 9 v x.G X 3 W   i o.v c.-.-.p n * m I 7.  * v n , , N o t n y y m $.l y v I - 2 6 9   9 Z f f d d Z l ( o * 2 8 d   Z B l t Z z d G *.  B f 9 9 t.l f 3 9 9 * , S f S 2 f 8   Z o 9 #     =   S 3  .i , = X   o o Q o % * o   X     u.v - - # w   ; X     * v G Z Z ( I l   ; ) J.o N n 2 # d y   f ; - x 9 % % 9 3 o N., Z   ; X , o * % Z Z 9   2 - 5 3 o H ( 9 Z 6 %   ; * X     l.  i o 9 t %   x i ]   m 2 % N f t * o v y N v z Z 2 d o 9 a q 3 9 o y f - d y l 2 f y 8 i =.n B Z a   9 * - l 2 o % ,   6 # % y ",
"( ) Z ; o   9   ( 3 o o 9 ; G.u l.>.S b d p B , } 6 G P % o I 9 9 n 3 d Z X N f a ; d N f 6 %   3 8 f d n d N y d 7.2 z d v.  o t 3 N 2 f n I Z t o     z     , S #   8     ; 5 S   o * - o X 0   ;         3 2 9 * , a % o a 9 ; o o 2 9     6   X 9 . X 2 d %   2 9 3 2 d d # G 8   n } =.o v N , ; # N   t d , ; o   % 8 9   Z t * d o   % 8 f 6 P ( { 9 o o   m o.v u d u 3   3   * *   ; 3 % y , o       o , G   o y 9 2 8 , 9 y #   9 ;   f f v o 9 X % f 8 o o 9 9 f f o ; 3 3 ; - o d =.v l 2 - 9 f % o G e o 2 # % ; 8 ",
"* f $.N + y 9 9 8 v P a 9 , g.m B.f g.>.m Q n 9 y d z y t 3 f n # ; 3 3 y n v v 9 ; 9 8 v N 2   X 9 n , Z n =.N o n ]   ; 8 t t t d y s.y ; l N ; y z o 8 v 8 $.9 Z N 5 o X f *     , 2 e 3 H u 5 - e   o c.u   Z N * 5 l 9   9 9 o 8 o - d     * I v o X o % o     F 6 d y f t - N y 9 9 v     n , 3 y d o   ; 2 ; 9 ;   6 + ; u.y     d ,   # ! x 7.Z Y y ,     ,.v m ; Q @.x o     , =   9 5 t o o ,   y B ;   9 z   y d     ; t t   n   % ,   9 d n y t ; y t t } Z t v n H   * f * z 9 t :.n 3 3 N o z   v o H v f # y n t ",
"X G 7.* o y 9 3 B 3 m 9 B 9 6 . , K.z 9.S Q =.y i Z l t o o t 3 d n 3 l v 6 v 8 N d y t v - - t o 2 N ; 3 l 9 f 8 Z l 3 ( G - * - y d N f l Z t ; N q.  Z   9 f 7.8 a X 3 8 z f y % -   8 d 9   8   L     o     %   9   v - :.    f 3 2   } o X 7 o # X % , - , * o N t i 8 z X 2 6.a 9 9 I N d Z G i ;     * ; ; ; * ; 3 * = 9 5 9     Z d 2 f } ; l =.P.} , o     # * v x :.X S , ; %   9 ,   * - X X v   l 2 B   G X v } X 3 ; y v 2 y   d 2   ; 2 y 9 a f l N Z 6 y # d , , 8 e 2 - t X   Y 5.8 d d 6 t y N W N f @.7.  X t ",
"o.6 - ( G - 9 m N 3 N ; H 2 9 % O ; d.<.P ) S G X N [ 8 ; 2 o y # # 3 % f d ; t N 9 y ; B N   N   6 Z 6 o v d f 9 3 6.a =.z t 2 W v 9 ; 9 m 3 y v m v z   8 o   H e 8 9   ; , y o , - , 9   B {     Z.    ) 3   o     l ! Z n d u.m s.e 9 , n 8 o y 6   X   3 2 f o 8 n 8 n d 6 X t , o , 3 s., 8 X y z 3   2 * 5 9 2 3 9 ; 3   9 # 6 o a l l l 3 6   y d.P - *   a 3 a 9 B A 3 ; 6 * o   o 2 o 9 Z X , 8   y 3     3 f f t )   n a n #   t 6 ,   t   y f l d , y Z G N n 2 Z 3 8 3   3 f 3   ( } o 6 v i * N - B o X y y * 3 l ",
"n * 9 5., * Z   N 5 a c f f 2 3 9 S , o.@.! } *.y 6 z N y % f 6 ; y 3 d f t t N l d 6 y f v # 9 N ; 2 2 ! 9 y t t X o * d , 8 7.a G N # * y n G t d.% 8 :.  - =.  :.v } o X       o # 9 X n   { 7.# k.t   S._   =.9 ; ; ; o d o     X ! w y ; 6 o , * 2 2 n %   6 6 ; f I i o o 2 N - Z d n 3 v 2 l y F d * 9 o - ; o * 8 8 %   ; o 3   N 6 f v 9     N P 9 y t   p X   A m   6 ; % *   o o       B *   F   3 ,   ; 6 , * N 2   a 9 G o   , - - 8 2 ( o 9 f a 6 6 n Y # v d 9 d X f * t ; 8     :.2 9 3   3 9 - y   , - 9 ; 2 v ",
"d.f d v (   y y * 9 * =   N e o u 0 } S m } I n P } G d H t o 3 8 Z y i N y d a N d o.y 3   8 N t f o p B f N 5 , n * G N 9 v d.d ; W 9 %   ] 9 v 5 q.-.o.N   3 2 8 f d Z 2 X 3 o 9   6 f 8 X l     2         o.6.- f f y , # 2 5 , . 9 N S ; 3 y 2 3 v t 9 - o * S # ! d 8 8 8 f   2 N :.~ z G z 9 t N d Z f t   , 2     ; * o * o   t $ 2 8 i , * X X d 9 l 3 5 p f   l i 9   N - v 8 o 3     9 } ; # ,   2 9   o o   ; t 6 - y 9 3 N 3 * 3 * d l v   v 8 y y 6 N t l { I ; v z I 2 6 9 6 i X N o   i 9 9 -   2 o 9 ( t 9 6 P ",
"W d - ) y % * = 7 I W @.f N o - d 7 -.D.-.! x.7.l 9 d 9 d y y # d - y % l N 8 l.d z ( # 2 l x f A i N q H d I d N t ; 9 8 6 ; o 3 8 f   t ;     t   Z d y G } ; * q.H 3 l n # 2 3   3 * 3 d - 9 2 t ; o f o o - o   6     N n B % m :.o ; ( q.I ; 8 A 8 3 i 9 2 # 9 a m I 5.8 - ,     2 m t f z   v v y { y n i ; 6 3 # ; * 3 3 o 2 o , # - 6 N y z X 3 Z   v 2 * 3 y a d a 2 y 3 2 * *     f   o 9 i   9   o , f o   9 , y z 9 S v 9 v l t Z   9 d % *   *.5.d 8 - y N ( G , 8 * l ( l 2 t i - n 8   6 n n f y % 9 t   v t t - ",
"o.G o X f e X 6 y x X 8 v t N +.z G * O S f W =.W o   d e Z t * 2 * t ! v d 9 2 0.{ l.Z o t t f B v A y t N t N l 3 y % Z m a s.y   o * 5 3 :.  % - y Z i   o   y d y y 9 Z 2 n X f 6 o o 2 Z l N , z   v %   * 6   f # * f F 9   m s.N   A m f d G v m S S f n y l ) f A W 6., o 2   3 :.9 n y , % 2 f d z 3 y 8 d 2 , y 9 t o X 9 2 d 2 * * o d 8 t G i   N   ; - y i a d 9 I ; y % ; 3 ; , % n d G     f y 2 2 X   , % v i G v i , I Z 9 W G l 6 a # v l 9 d , 9 l I ( N t   t d e d - * 8         3 % 9 y z 6 B   * ; 9 d d ",
"; t * d d V.N 2 9 X   6 , 6 6 z 6 d d - 9 y d A 7.$.y Z 5.G 9 8 o   C n ` 3 ; p f @.I 5.* - 8 H 3 l 9 l Z 3 f N y - 9 i # % f v o N G   f l d a 7.8 h.o 9 * l :.N y n f G t 2 X ( 8 # d *   X W o.#   f o X X   d o.  . * e x p * :.v P I o } t N   9 v l x m S 8.8 Z n x 9.v - 9 # # 8 G v *.t ; t *   t ( 2 t o 9 t 8 X d 9 8 6 e 8 o 6   z   y d i G - d z 5 i t 3 8 , B * n n ; A v 6 e o X o y a 3   B } a   2 i % , * d l n l a d } f H * 9 6 Z t m y n t 6 l 8 ) h.k.y 3 ; y , 9 9 , * t -   % * Z   2 v   c.9 y 8 2 8   ",
"3 # - -.t y 9 l f y 3 N 9 t S * 3 O $.n t # * l f ( 2 y 9 Z - ; # ; x n Z y @.S  .0.3 # 3   y v 9 f a t y 7.6 2 ; - # 9 # n % d * } z Z - ! =.m 8 Z y $.- n   i f # z v Y G e X G y 8 2 8 - X 3 G - ; e $ X   # 0 q.N y . l f 2 v G t S o.X 9 l d ; 3   o.P a 9.V.9 9 G ! a.f 3 3 d 3 2 ; f f 3 6 , -   7.*.8 X ; 9 2 * o   v * 8 o y N ; 6 o t o ; t z X d t *   z a v t o.d 3 v ; m o y 3 - G   v l n   Z v Z y a %   n ; X Z f d y n } I , 9 9 f l d G y f q.; f 6 ; G ; d   l t t y l 9 l         8 z y * l X       o 5   5 ",
"  9 X Q -.I Q +.:.Z 3 a 9 % o ; 6 ; 6 N ; y y 9 n Z N , t 9 y 9 8 ; * z 9 Z d f d.b.T.y   i t o X - S m l R * i 3 Z N n v Z v n % I P v - 8   8 W   n 8 v l 8 N v P H 3   9 z v v i z H ; f t , , o 6 } > - * o . f o o X 3 8 t n N # + l a f 3 6.v y , 3 ) H A H B l  .q.S *.f 3 * ; 3 o 9 9 2 # * 8     ,   Z 6 f 6 - 3 # 9 8 o t   6 6 6 , 3 2 * % * ; ; % 9 3 - 9 v   P x 9 a t n 2 3 y y 2 o - 3 o L     @., 9 t -   9 v d n l f l x d.n - 8 v 8 f W v n =.9 f d 9 n 9 , z N o { P y   d I #   % 3 X , , Y y 3     I   # 9 ",
"  ; , 0 -.a { I f 6 y 8 6 9 d w.# 3 F f Z 3 z v d ; f G i y e 8 6 m ; o A = S p d.n y e * 6   o i   i m } d 3 9 q t 8 :.# G d v v 3 i d   d.d 5 S ; n X * N 9 N   * Y       v y o v ; 9 9 N 9 - , Z O f d 6 2 2 *   * 3 9   * y 2 6 f 8 9 f z X   :.*.9   % * @.+.y f @.0. .P F #   y 3 , 3   % % 2 # %   2 X X X l t 3 - , # , 6   t 9 2 y 9   F - # o o X * 5 y y 8 X f i y 3 m G y 3 o 8 d   H 6 3 #  .t   G 6 y - *     9 y n n f N f -.=.l 8 l 3 i d I d N v v 9 I 6 l l 8 6 8 y 6 { f ; Z f *   n   t   d ; , *   9 f o   ",
"3 8 y   0.% =.#   7 y o 5 < 0 9 } z 9 6 G 8 z I F l y 9 v z 6 N * ! d y Q # w N I P.Z v 9 d   * a l , G o v ; X - d l =.i W % , , =.a d n P y d 5 H - 5 n 3 ( Z d N , # y   ( n Y f 8 y t ; - * d f 8 P f 8 - , X 6 i o 5   P y * t 8 I 8 ; y v - v Z 8 Z 3 m S  .Z l 0.o.:. .I 6 f l y 2 9 n   * v , * f 3   t # , % * , - - # X t 2 t 8 # t 9 ] 8 X , * o 3 o i 3 2 ; 3 % * , , *.8   y 3 t l v t ; f o 8 0 f , v % y t   t , ; v v a v A W v 2 2 , t v 9 5 i n 9 W B , G 3 n , 3 , o 9 6 > t d G   - 9 t d   #   m     d 2 Z ",
"  ,     9 A =.I X 9 e -.+.n # 8 6 e *.a t ; 9 } l 7.y z 9 * 3 I G N X P N v P m A 0.Z 9 3 ; - n n ; *   l 2 e # t S t f N ; 2 ; * d I * >.v 8 y m 6.y 6 o 8 W W 9 - N   y   n d 9 v t f e 2 , - d 2 N , S . o   * , 8   - * X N t , * A v z l n   f   d.7 v v t y f 9 E u.=.W *.6 - ; ; n f I       6   8 ; z   f d - 9 , 3 2 ; # 6 e 9 2 o d t =.2 8 Z d 2 y ; 8 , 2 3 X W 8 f ; f N f 9 # 6 l q.9 ; 2 t H v G d d f % l 2 9 X   ; a y t G Z A v d 8 2 d W x v 3 9 n l f z z H f d 9 I e z o v 6   I X o e *   ; Q f 3 8 G B l ",
"* # X % & =     d z G W v v z t 6 9 C z d 2 @.b. .=.2 -   *   B f 3 % P X % # y  .f I t f , y N   y 3 8 X v o * , d d n d t n o d n I y Q 8 T.R R @.o v ! n } $.n 8 } ( l t d y P 3 o i X 9 8 y f 8 G z O 1.X % X 2 ; * 8   2 o d N 3   :.9 8 q 3 6 X 9.G.P v N f v v  .Q @.9 3 Z f n 9 N n z , 2 X X o - % 2 9 d o t N 5.t , 9 9 t l d N # f z o.( t 6 6 8 d v o 8 X % - y ) 9 G A 3 3 X 8 2   v f f 9 9 E 6.Z 9 y o - o d 9 9 d } s.y 9 -.f =.=.8 i y 9 Z v l   i y 3 z y d d t     Z , 8 8 n 6   f q.o o     ,   9 v   y y 8 ",
"N N 8   $.@.*   . ,  .8.>.G ( 7.N.v.f.O l d @.P 8 , X 9 $.3 9 a y o # d 5 9 9 d m v o v N n - , X 2 y 2 8 Z 8 8 9 8 9 i 8 n z f t  .=.v i 2 y f v X # ; ;   S =.y   I   z d d =.G d a 9 9 * ( N *.d y N *.  - , *   6 3   d # 9 , o 3 7.v 3 v o o u.  m   8 0.$.) r.B.l.G z * y 6 f 9 W Z 2 f * f -   3 X # v B t l 3 G t f P y d W ; n 8 v 9 :.3 o ] # e d 8 ; X N y   3 9 v f i 9 I d 8 X f   2 v f f u x A } 8 l n * v l % z y d 8 =.f f l G 7.N f 8 d Z H X X t v t 3   o o * *   X # o   8 ; 6 o ( - n % *   -   B v   :.e ",
"i F   4 v   9   t I.B W $.f   f b G.L O ; ; j C G * - y f t 9 o % X H G o 9 3 v Z 2 l ; } G 9 n y 3 2 Z d v * % ; 9 y Z n f N Z 6 y =.v., A P 6 N o * * 9   o :.f   9 y N X N ] v f t n t ; 3 ; z f z 6 3 %     3 * 2 #   - - 9 } * , 3 y H I   , n ; R @.,.8.C   b L n k., d d y N * ; i t * 2 z t o   9   * n d v , d Z 3 f I o y I X i y - 3 9 v h.2 6 l 8 % X ; o   o , 6 % 9 v * y * - d t y 9 3 i n # f Q :.2 z 8 i f Z t N z G v =.f a v } n y n i v f t o t d X f z , , 3 f n 8 - * t #       - 2 N B # n 9 = -   2 o f ",
"; *.o o.W     + Z b g.v 7.   .d. .3.6 y R 3.A S t   d :.y t y * 5 8 - Z 8 5 a a *.9 f q I N f t 3 6 d   y z , , , , d N a 5 N v 9 a f N A v ; a -.  8 d z ; m 9 N , *   o.# =.* z 8 X y   n N O W d y d 3 # o 6 6 d 3 X o t 3 X 5   t y 3 v I l Z l   ) v A % - 3 x l =.t t - d 8 v * 3 z d o   - # f n   % X v n v 3 y t y W 3 t o *.9 9 Z v d.l N s.2 , 6 -   ; 2 ; - *   o , o.z a 8 t 3 9 A 9 9 ; o Z 3 + 9 h.2 Z l l 9 v f P n q.=.Y ] d a :.( f - 8 e l n 8 ; X n ; z y l t 9 z y 9 l e ,   2   3 n N 2   , 5 3 - 2 X o o ",
"% P a b 3 7 3 z # p g.=.o . I n m O v O 1 b u H Z 2 >.t.s.y Z % 2 3 6 o ; f # v =.n 8 v 8 N 6 # v * N d d z z   2 d ; t 9 t f t - t u v d.W f 9 >.3 $.! t t   X 3 I d 6 y 2 % * 3 , o Z , N 2 J ( 9 z n - 3 X l 3 8   8 % o #   , N   v 3 % Z X ! f * 9 t >.  G.l H N ( z 7.y 9 e y 9 9 2 - d o 9 * n P % Z f Z z Z y 8 i n y X # t 2 3 9 y ; % l - v G 2 o z t ; d - f X ; ; % 9 W 3 v 5 S 8 Z 9 # t f ; t % @.v.y f y 2 , d d v d y 6 t A y i n $.W z 3 - P o y o l 8 * N 6 o , ; n X # f F -   # l * f v ( f 9 l ; ) v l , u ",
"# , N f m P R , f 0.v f . . x , O O O B.j b C B >.N m N 7.}   Z % ; % 6  .P ;  .H ] z z # B ;   N   9 t f   d 9 2 , % q ; 9 l t X n 5 1 9 q h.G f N 8 H v   - H ! z z z # 9 t -   v e 8 t 9 3 - O N .   H ` 9   6 o y 9 o l   N * *     3 ; 9 y     f d 2 G.B % * m v.N A I } - v v o t ( 2 8 t Z %   *.e   I 9 =.N l N y 9 N o   y 2 9 - 5 n S z G 9 d f n 8 * % I N y * # 3 % 8 8 d I 9 9 3 t f   * 9 y a 9 a * >.N l d , 9 ( d y a d 0.7.y f y ] ( W 8 9 9 * #   2 i # d z 6 t f z X 3 N G v v   P   f 3 Z 9 v   o m >.2   9 ",
":.d q y y   =.f f h @ 8 . O g.B 8 * . g.g. .L m m >.a f 9 8 d Z * % #     S f 3 h.f n v.d N 3 y f * l 2 7.H l z * o o , ; t f l   p Z ; f N Z Z d Z Z m 6 N t f } y =.8 , n N , y N # 6 8 z , y B 9 d * y =.  * 2 y 6 f 2 X o *   * o o t , y - , # 9 f f  .  B Z.-.f i ~.0.{ o ,   % N n y 2 , - :.9 t a @.N e I N z d v N 6 G y Y - 9 , v 9 ; N Y o 9 y ; l 8   n y n t ; # a e 6 v Z f - f - m , 6 v d 9 ;   v P :.l 8 2 2 v ; 8 9 n h.] f q n P v f G - y ( 8 6 n N 3 ; y * # ( f * % f t 9 9   n t 3 9 3 t S       Z X   % ",
"    6 q W   4   B b y * O ` f : z.g.6 O . ; R f -.u.n ! * n # Z y i t 9 ; y 8 # Z W H s.v e } d 3   d 9 t l 9 ; X * X 9 d   v d d a d -   9 f P G i R a.d t X t 3 i f N 8 y t , a ] z 3 8 z 2 y y ( ( f N m z 2 d   - 9 o * o *   # f     3 3 o n ( I   9 8   W m 9 i 3  .W ( - , d o n t :.+.f.b + i ;   d.i.B I I Z N 5.8 Z G t *.X 5 d n 8 f n 9 n # 6 8 t - ; h.W , d t X 9 X - - v I d 9 ; H G   * 9 2 f 9 = * d 3 X y I * f 8 9 3 9 n =.9 i 2 d d o.  l n z n G n 2 - o 6 X 2 8 o t l y 8 f X 8 ; N ; o   G       9 v     ",
"    -.a   l.. c.= l.N G G z.s L L h s , O b % u 0 :.t 5 l   2 3 z t f Z l - % 9 e n v d G l ( u I 2 2 o o d y n d 6 G ; B y 9 f y t f 9   ; a 7.G v =.I $.y 2   % l v 3 d a z X y n f * F t f 2 n d y 8 - y y 9 X 8 8 z e * o 3   N - - % * - 3 * 3 2 9 # F 9 5 5.@.v  .z.S.f F.9 *   f l   -.R $.u 8 =     Z.N m f z A W n d } } o o 3 3 n - y Z d u.v N * 8 % 2   f f y 3 d -   d - a } f ; ; y 3 d y ] ; o * a ; { n n i l n f y 6 , a d P } m - y y t * n v N B d N N n , *   t 6 , z Z G N N o ,   3 d 2 A o o   , y   7.o ",
"# X   o.  q.V I.w.%.I f v.* S.S q.L g.O _ j 3 j E H B Q @.8 , G N y n ;   9 3 3 v d S d 2 v n Q q.8 H a - H v z 9 n t - v # 9 n 2 8 9 q 9   f Z @.P } =.} *.t % e   # # f l 3 9 6 o f z P ( N 8 Z y v n f t 8 X   f 9 t , 3 *   X Y   o   #   #   9 # 2   2   u o * p y 5.8.f *.o   @.B o   f +.9 % x d f S v q.P z l =.q A l o.H 8 q.$.a % 8 f v 6 * l d 6 9 X 3 % d z N 9 d * f 8 y 6 *.  e v ; ; * 3 a 3 % * 9 2   Z B v 3 y =.a   y t m ! *.~ 2 , o   8 y o n Q N } y - N 2 3 n v   l   v n 2 o a y , G G $., , t o *   * o ",
"% # % v x . ` F.4 } d 9 I B O b K 7 0 B.O r u   X m B 0.>.}   N 9 H f P   ! 9 a a 3   f R n S d 9 y v G a 3.z t 6 $.  t l = 5 , N , 7.N N   d v v Z v y ( G z { - 8 v o.l G Z % y ] l t G 9 d y d d 8 X (   X - 8 f , f 2 * *   X o o X   X X t   (   a =.O 8 ; o i x 6 f 0.! o.9   * 5 q v   h.9 9 t f y * u m f v y ( *.z N t ] W 3 ( n 2 9 i ( # v o.5 ; 6 y Z 9 ; d 9 t t * * * o ; 8   ;   t a m y , Y n - 6 y o   % B y v 3 * 9 8 % W Z } v s., 9 N 9 v i   y 5.N 9 e     3 3 9 N 9 2 X d t t d , - * =.v s.I     8 % G # ",
"  . S t N O u S ` v.} > ! G } o.@ ; g.* ; b 5   C < X @.m @.  y 8 * G Z % f   -   v f o 9 % * y  .x j %   >.5 f y P 9 3 d 8 o 3 n =.Q o ) L.X d f n :.N 3 k.6 I ; 3 t N f - l v , n n z N z 2 n * 3 Z I i v a v y t z 6 , e ; o * -   9     o d O . 2 . z , % 3 , % % f   B d v.9 u 3 p u A o ` 6 f N Q ; 3 N N f ! v N :.d z v } N d 2 :.9 * f 3 q.t   } n N o 3 6 N =., t 8 2 e # 8 2 l t t f   5 X f d o.i 3 3 I N i 9   N 9 f W y y y f } v   } Z t 8 v m 2 ; m I 5 o f , X % 8 9   ] Z 8 G a 9 z 8 z * - Z q.} h.o , % >.3 ",
"  O O >.7 O o.3 g.: N z o.8 * y v ; 0.u r $ :.< L ; 1 ; P.A * o   y P o.=.3 o , I 3 5 Q 2   S x % o R S 2 G 9 9 f 2 L s.9 ; % 9 ; v * m * d.- u.S f - l 9 P s.; z X d t a t 9 f N n P Z n * . B * n n Z * Z z N l 2   t d o X   2 2 , X X o     , O v 9 6 9 W f , 9 3 X   v 3 v ;   3 u o y C + d Z ! 9 P v B  .P - W G B P P :.v v 9 * y t I N I d d N y f d d 9 9 9 A z N d 9   N # X y N z v d % = = 3 B 3 - , f * d n t 3 Z G B 2 l   * t f y :.z n - Z N } l f f o.% f 6 9 * 2 2 B W z =.a l 8 9 6 l   n B n 0.y =.H y o   ",
"O z % ` b O @ 4.A.x :.O i.y o f 9.b.0.d y O 5 +.R 9 o j * S S   9 t v n y - ; x f W ; i s.6.x 5 < N o.6 l v m f I -.S j u 9 f t o x % p v   Y.Z v N W , d 9 G =.- ; * 9 2 l d ; l t z Z J y d t % 3 t v 9 v * v z 9 2 f d e * 8 6 y $.o y # 2 2 o t v O 2 - H v a t ; p d 7 ; % 3 X o x < f X 7 N a 9 l f 9 f l } 3 H y n n t I n z o.d t Z z , v.Z t O <.f J 9 6 - 3 ( G * v 6 y - o v d 6 8 9 3 v 6 , y 5 y G   t - - n 9 3 2 W 9 n - * 9 9 v e l $.t   o     W I i 3 9   , o t d i a X f ; o.X #   B I   x q.x.5.f !   ; f X ",
"f O 6 O L : 6 3 +.v . :.a d   v t v O m 7 O 9 . f W     0 4 *   f n ;  .  9 f 8   m m 3 n u i R ; Q >.j w.=.9 L 3 o x   * 0 m f  .T.a   f v o } Q 8 m f 6 9 i ( - t 3 $.9 t 8 t t G l n ( f 9 # f d 9 9 8 t d Z z ( 9 z e 2 - 2 2 , 9 , * d     O e t v } > n 9 O o.t 8 v = 7 = % 7 f = I 9 B v u x v 3 * 3 p =.d n 9 3 v z } 3 2 d Z t Z A n H } ( f e ( a a v 8 v l H N # z n d # % % 6 d o * * # 8 ,   * , 2 v t 3 , 2 l X u o.f y o.v Z Z B t t ] , I z 8   2   8 t - 2 3 , 9 v 2 3 3 3 * 8 * o X   f 8 =.X z m d I 3 2 N } ",
"- O O O a * 6 * t f * B   o.  v e M.B . o.4 h O         3 o   9   L u i.H Z l N i y y N 7 `   V p 9 -.R +.*   < * c., X = 3 x 3 7 o o r.3 ; R o.v l d } l y f d 2 N 3 Z y t 9 2 y 8 } d v H f n v l Z z 9 t , y N 8 9 8 v 9 - # $ * 2 8 o * f     y G 3 > e z S * >.* y   = . * %     u l 2 - 0 = - f A i 3 H  .N ( t l Q v 3 n } o % S i v G I q.:.:.*.P f 5.e X   } { :.2 n ] v , 8 - v 9 8 9 d *   n y - 9 y z 2 l 9 8 n ! o 3 S  .v ! X y *.z Z N ; x  .9 9 v F $.y d 5 I d l n t 2 9 i l ; 9     5 3 9 o   , } y y G * x.m ",
"q.* O 6.a % O a y f y 9 7   t o   9 e 3 0 0 % ,     i , 9 9 8 % X 4 ; -.P Z v v v 9 i t , n 9 f } u m b R o 9 7   ;   X %   1 9 v 7   -.a n ) v ( d y I y v l *.* - d 8 , d * t f f y Z y v f y 8 z d y 8 } 8 t f l 9 v v z - , -   N * =.y *   X * N O ( Z a 9 o.C 2 9 , ;   f W % 3 f N 9 Z = 4 7.E t Z , ; C S 8.@.o.q.9 v n d.; a v   0.l } R 7.d.v *.N v y - 6 W } Y 2 d v f P o o f 2 y d Z X v # 2 2   6 Y z - - 8 # 9 l 3 6 ; p i 9 9 9 d.9 9 ( N k.l o     *.t ; ; 9 X o N 8 2 3 y %   % , S % ; f   X 9   N  ., . 4 O ",
"S.) ( f $.N a %   d 3 9   n o , 3 <.. 3 v N B .   o   o   * * 9   ,   x  .f n n N 9 a 3 o 6 % S   S   j o S R   d , o f ; = % % 9 %   9 4 6 s.- y W - P 9 X :.e Z 8 Z e n 9 y * i 8 Z *.z z f d Z 3 % d 8 z y 3 Z z f t 9   8   , 2 v 9 ; -   t   2 9 - O N B f O x m o 6 3   * A Z H 7 N x   0.; o 3.d y S u.8 S m o.@.5.  :.y q y 9  .y p f d m 0.N Z n 9 G 3 # f ; P q.6 3 6 N 9 o   f - 2 d 8 t 8 d t 8 y 6 , l 2 X y , * 3 ; 9 3 l v l z N   N ) l -.=.G 8 X Z.=.N { 3 y % o 8 f y   6 y # ; ;     ;   * a   9   o a * 9 4 ",
"* S.f , O O   %   d 9 3 9 d   v 3 B v v v.- %   y ; * 6   5 = T.o   % m p 8 l n - Z d 9 ; v , o y ,   , 5 S 2 1 j 2 9 8 %   y 3 3 9 % u * o 8   ! y v o f d 8 6 y d 9 2 =.z G v N d f v } d v y f z d B z n f y ; i t 8 2 ; v X ; y - y f   v *.  t % y . O 9 B 3 9 u u p 9 * m 2 X S v ) 9 a L +.x N 5 8 a W 9 u f >.d.G  .f 3 m 3 v Q u b u E _ t q.n Z y f a 6 2 * d.I } 3 3 * d t d 9 6 * l 9 t - d a f 2 v t N 9 ; ; t - 2   = 9 y t n l 9 9 6   G A W n * y t.( ] 8 6 9 2 t v v a * y e   % y -   G   % 9     .     u O O ",
"O -.v 2   8 o       o i o x   b R 9 9 . H f 0.B   u 3 - X   p.v   f x   G 8 P n x d X z o 8 v y P ,     Z ; , 1 * 9 v e l   N Z f 3   0     9 2 X 5 v   j -.W 6 y 8 v Z H =.o.B N N ; 3 ( t ; a 2 9 z 8 l y t W 2 f - t 9 2 d 2 v , *   N - F   y   * . e d 3 O 9 - f + 9 ; y   3 6 9 5 9 o   W } 5 2 1 v f v y 9 ! N 3 o.f ; y R y u i Z q f ,.-.5 @.f f y * 7.3 d d Z 9 N l i ; f z l o t 2 , 2 , 3   X # d o   n X 3 l   v * v , t l 9 * #   9 u o f a 3 G - G # n z ( y   B * d $.d 8 W f N a 5   - d     6       * O O 3 s ",
". d B - * N 8 ; ; o X , o p     i.B E H 0.* S y 6 t y l t t   .   0 o ; :.v d n   9 - l 5 f x q.8 2   a 9 8 = c , d 3 d I t N z Z z 3 e     = = , f R +.S u ) d - l l 8 n ( =.d.v y t y t * 3 Z f l W 9 Z t G F n q.I Z H n n * o y 3 t f - e - - 2 . . . 3 O * 3 8 f S , ; o 9 u 3 o f 3 m v B S Z S v 9 a * 9 9 m Q m = o - 9 v f y S ,.A L j E  .-.0.8 G m v v t m ; P *.$.8 , y 8 d # Z z N 2 9 2 - % 6 # 3 t N     f A - o 2 3 8 y t N o ; * 3 Z B x 3 ; * 0.D.E.d.n - z 6.8 ( Z e S ! 5 a ; * o   * o   I *   . , 6 O @ j ",
"O O Z M 6 o   y n 3 ; n 3 y , 3 B   9 f  .c.m n :.X , N v e   *     3 H q.i Z l 9 9 l P ; * * f 6 ; 5   q = o 8 X 9 3 I H Y v - n N 7.  * f -.1 9 v 9 -.o. .s.5 d @.B } ( N.7.d *.y v t l y y N H H n v ( n I o.d ( I W H d , 3 8 t ; y t 2 - 2 - o . o . ; O . O 3 9 3 2 2 v m * 5 9 B %   i , x f m % 3 * } t t a H A q.9 n W B X S -. .) f 2 R h.R x m d o.N n y   o.d 9 6 6 - 2 d # o v y d y # , * * 2 6 8   y o * 9 =.9 y % Z m f t I ; , * a 3 ; 9 y o p 9 ; 3 A n , X v -.  G m _ @.a y ; 2 # ; o , y a   # - f , > @ O ",
". 5 -   Z o # 6 %   3   6 t i.9   % ,   ; = :.) t 9 X   t v , t o     X 9.9 d , H % Z f  .% 1 . S 9 X N d 3 * * X - o ; N N     Z Y G x   ; d * Q = 3 o p o.n S v m Q :.Z 5.I f k.f d -.o.i P 9 - , v f } G H Z I } q.Z =.Z , * 3 ; d o 9 l 8 8 , X - , . . . , 2 O O . e 2 * m S t   a 5 3   ; 0 y * H :.f ; ; ; 9 o # ; o C d u v u c.=.3 } 9.Q n D S - 9 d y t f * e l @.3 X } 9 9 -   o y d 2 z t t 9 y { e 8 ; 9 8 m   v o 9 * 6 2 n z 8 2 2 9 3 v x 9 9 f y 9 m 7 ;  .S m 9 d 9 p p m S y v ; , *       - 1., , N y n o., ",
"o       Z., - t     ,   y o Z 0 + f v 5 f 0 ; q.* G }   2 N R , o     u 2       3 B   v R X v 9 % ; 3 Z e.8 * t * 3 o ; 2 2 3 *.  y q.v 1 ; l v ,     G 9 f 9 m o u =.l.c.$.9 d n } , -.9.9 m w S., n y t y l.I =.A } m G 9 f % i 6 5 * , ; z a ; t o 2       $ * % * .   n , 5 R f 3   A ; ; m 1 y # Q * G q.:.* 9 b   m * u 0 9 D v r.d.* x 9.u s.W E d ( 6 n v d 3 * o -.P d y * d t 6 9 y n F d % y   $ ] F 6 - f o     3 n } # 2 z # Z 9 v o 9 S d n f A 3 p 3 % % f ; 3 v   f 7 d 3 { Q v B - z s.y , X . . =.- v 9 : n N.",
".       f G o o %   X   = u u u 0 = v 4   C ; %.H ! H * 2 t   H.,   %   X C o X = B B v d ; o   p 9 * u m , v y i n ; 3 d X d 6 9 # W o 3 * 7 % v t ; t y f } o.B * @.-.H o.y i v ; o P N ; t # R E ( , l 3 v :.7.7.W n n 2 Z z t 9 9 2 3 f e n -   8 8 * * o o . * 7 3   8 *   % X   d % % 9 0 m 2 y f   x } I # ;   9 -     ; C = 1 d  .3 X ; 8.f 9 b =.; G 3 n n d ; v d n d f t d y I d 6 t y t 7.6 2 e - - Z d - , % * t N t n f o 6.y y n 9 x v P X f ; d u 9 m y 9 =     *   - 8 a 3 o.N H h.n a G Z - - 9 1.O * O 9 v . ",
".   o      ., e o     5 . ; _ 3 3 f 9 b R u 5 f x H v y - % , 8 0.  p p N.N ; o H * Z B   S . 8   o 3 * ;   :.f t q.y   9 ; 8 ; t q.9   o % o   H f ; f F 9 3 >.y x a G g.S d 9 d y @.Z q.z 9 q P  .-.q - o >.) W P 9 v 7.G Z n y o 3 X - t y ( 8 3 e , > ,   8 . * , 9 2   Z f   , f x m X u * o .   =   7 S f * N X 9   = o     b 9 m l m y ! 4 t f B A l t f G G 6 3 f n l G 9 t 2 9 Z n y l f 6 v t t f 6 e } z t 6 o ;   y } 9   ; =.y m f 9 9 3 f P 8 o o = 7 f m n y 3 y 9 9   ! 5 f ; 5 f :.W f o $.F 9 - H e f O . O . ",
"  ; d n   i f 8 o - o 9   ;   . u 7 m f 3 = m X -.n * X z y I   q.8 % c.H :.P } - S Z 8   o       % u 9 R * * v l o e   9 * , * ~ * M.% - o o 2 I a 5 X d m a e n 6 u.-.} H N v t % 9 3 R o.I   3 t y % * 5 j f @.o.d l G S } 8 , y o X 6 * n B v 6 o # 2 - o * 6 . 9 O o 3 p   %   f y d   5 . * o o +   0..   , v d - - % % 2 * c.7 v 6 l } y u y N.G n y i P Z G 9 9 N 9 y Y 9 y o f % 9 i v i f n d N 2 I , N v * X   3 -   o f o.  s.y f 9 f S o l 9 f 9 5   o   o j p n v t * y 9 % 7 v p 9 9 y 0.e v z a O 3 N 6 d . O - ",
"o y   v R @.A 3 1.% y ; 3 %     B d ; *   5 D b f N v * o.H #   u.,   o.+.>.=.o.l , d I       +     5   Q X   o 3   3 6 % n $ 2 t H $.9 X * 8 2 0 o X 9     9 v Z 6 H c.v =.B N 2 = t a   E F.( ; P N N - ; 2 , B S 9 A f n d y Y   - #       S } 2 o e - 6 o , $ . . u + ;   o * X 3 ; y 3 + 7 o 4 0 %   9   X X y 7.  o 3 * x 2 v d y l v m S 3 7 F.8.2 f -.z i t n Z n { $.G d Z * N , I P v o 2     9   I a.6 l y , y - t     o i d 9 5 , 9 f 3 , ; * * 2     y * % u 3 a w u f ; 3   3 8 v 9 y B n G B G U a * , 2 H 9 6 8 ",
"      S Q S v 2 , B     y %       C , y = x u   3 R z 8   3 y *  .f   +.c.h.o.W o.t t n 6 # - *   3 ,   f ; , 9   9 n X 6 e 8 f 3 d 3 G 2 2 y 3 9 o 8 8 o   x ; 0.Z 9  .t -.o.d m v o 3 0.  X I f f v B Z 2 C y 9 n d * 3 n z 9 t 8 * %   * S B v d y , 2 e * # 8 %   7 .       3 9 o u w ; 9 9 d   y   - B ; 9   * } z , 9 3 y 9 f y 5 d = u A 9 R L t v f *.o.Z z i v q H G o.v *.f 9 y m N Z % 2 2 3 X   v.* y 2 , # 8 t % , ;   ; S 9 9 y y 6 8 o o ; - ,   o ; n l u f ; 7 3 y 3 , t %     * o.q.0.) d.> u G O % . 9 f 2 . ",
"y 3     v 3 # v z 3   _ u u R & - S * A % S E 7 . } v 2 o   N   L y . 9 A  .u < 3 z 6 Z f Z e   % v * X *       ; ; ; o X * t f n H X G ; o X X R ; p * 9 o . o   ) 2 v l o.=.* -. .8 - d l y g.I y y l ; n X i d f u l * v =.W N d ,   o     @.N f o 2 ,     X , . . 6 - -   % < o u 5 a ; d % X t o o v y ; + * t f * 9 * 3 t 9 d m ; N 7 u B B 9 7.d o p v N G v Z y f Y y } d P G f , A l y - , y y - % o.* z t z 9 2 o - , a % v f z 9 N   l t ; X y 8 8   =     # ; 4 7 u L 5 u u 2   * + X   ! B y n d * * . o * t X   , ",
"9 #     3     d d q.o f = +.5 o   8.X % 8 S b m 2 m d n   9 , o p _    .m  .Z i 9 S m f t y y   o N - * o   o * 9 t * 8 X t * a   l N   * 5 7 3 5 , - 1 7 3 3 o A X 9 P y S ) o u u y % % d - 9 t d v n N v y N P ` f Z v   ) } t v # *.    % 9 % N o 2 6 , , 8 # . O O d d 0 = % % % f o o v A         v 3 & . m   i o N 8 f y 8 * d 9 v u l N ; W n 8 B N , Z f 8 f N P   ; d 8 W 9 , a % Z f 9 %   * l   n d.# n t - - 9 3 N   n 3 9 % P 3.B n 3 a   ; o ; 3 f % * y 3 ; p 4 Q u 3 f 3 # 3 u X   . %.` d e , . . o #     ,   ",
"h.  o o ; o ; v m o 6.  4 + 2 2 o % y y 8 +.o x 9 l N v d o o 8 o.P.  0 j H Z ] ; 0.:.f y a   d o   X   ,       l % y , * * X y 9 d 8   z f 9 o 6 y   , # ; a   6 9 f d.Z -.v.  , o n b R f G d I n v , n 9 G t v y y v a ; y =.; f - N       f z d - 2 o 3 8 - , 6 $ 9 ; 3   , ; u * ;   H X P t     d   * + ; ;     a t } l   d 8 e   B d v % f f o n 9 H 9 - 2 f d ; n y N v A f 8 5 q % , q - X 6 ; -   , 8   y 6 t ; * , 3 2 # 3 o o 9 Q I ,     o.; l 3 * 8   9 8 y   y a u 3.  f     4 n 6 * 6 , y r O O O o X *       v ",
"H f o ;   # 3 v I ; ;   1 x   r.B 9.l ; 0 R S d 6 9 l o l o 8 N } h.Q Z 3 N b r.Q 9.y 9 f y f 8 * X 2 2 o , f 3 z y , , # %   #   6 - 3   n v y - y v d 3 % 9 y d H   H N y 8 o n t S o V.3 v x f y p 5 z i * =.f y ; y y l n z o 9 l f   } X 2   d t - y * - 2   v , 6 * S X   % 1 9 5       H , v Z d z 5 * P o   X o * a   8   2 Z z v y X N f   P } y N n l q y y t y } f Y A N n d i t 9 f a % - - t 9 z t 9 N 8 o v ; ; 2 % , 9   X 7 5 3 d %   o 2 9 2 X , 9   9 v   3 1 -.} b b 9 ; f m m y B G e f ! O . o , 2   X ;   ",
"  R e % o 9   9 G o   % _ +.  N 9 p d % 0 b A.# n o v 9 6 9 y   l 8 v I } w.9 S B y f n a z o y :.l t d =.#   W =.8 8 o %   , 8 # , 2   6 l 3 ; B o.N :.m N m P =.v 8  .a v v   n { x.o   f v R ; * 9 N W 9 t n Z m P N v t , - 6 A 9 ; 9 o f W X , o d ; n , f y y > @ v S * o 3 = 9 o o o 8 o     9 Z 9 9 n - 9 6 ,   8 % v # t   a 2 f v F N 3 v m I f n ( i d 8 9 i 9 m 9 f - t f 3 9 y 3 % 2 -   % 6 P t =., # f d 9 N t o o % 9 %   A Q o   S   9 9 ; =   * t , ; Z 9 7 0 L _ 3.L S 3.f Y.z z =.} N l.o.N   , - a o     9 ",
"m   9 >.9     =.5   . 9 = c ,   f S 3 ; x 0 L +.n d m v ; l y   z n y n u f w C x y t t f l 9 X { f n ( t 8   % 9   f 6 , X 2 6 9 9 9 f 9 X 9 6 2 - ) v W f ; B Z ) 8 3 v x.8 l 3 n 3 * %   H ( } } y l   G ; I :.*.n v e A f 2 n G f v ; 3 d m Z 3 -   l N 3 8 9 , , > 1 5 * S v a n d a ; - * 3       y 5 a z 9 o     8 - y 9 o l n f z l   2 t # i $.I 9 n o.v N d N v G y Z ; Z 9 y a y 9 3 - t , N 6 f } - 6 f 3 2 ; * t 5 2   3 o X v.6 m 3 X p ; - ; % % 3 6 v o ; m m b S u 9 1 5 x B C $.B $.3.o.o.9 =.Z d o.o 6 o o o ",
"3 9   * =.6 6 y } X = o   ; 9 f * y @.3 x x L 3 A v S S y , X p y 8 /.; m +.z.n.t 9 t z o - 3 ; 9 } d.6 7.x.        f t * X , 8 o d   t   * o f f S - x 5.  Z.- 9 ! } *   7.2 n   f   } , % 5 9 d.} 3 Z q f n l } Y N f v } ( y W P n Z 9 m 9 I A ; B # l y z n 3 y t f O . 6 # f t y 5 x 6 l 9   e   9 3 5 t e 2 2   Z   y o 6 % N   N i 9 * n , - n n N * 9 y G } d t v f d N ; f X v 9 9 , 9 y t t , 3 N F y 9 e v 3 2 * % * 2 2 ; *   f q y 9 ; x 2 * o * , * 8 e   9 3 7 = D 1 u 3 9 6 ; a , m N.0.v.S n q.8 - 9 i o 6 , f ",
";   f y 8 y     # %   u   C i.L Z.q.u.L S (.` v v f G I # y   Z #   j % H.S f W v z N 9 3 3 f d X x.a B n 7.8 W   % # ; y y N * t 9 l y ,   X y 6   5 d._ y 9 9 % 2 h.; 9 * f n v Z   o f , % d W H 9 8 N y v q v A I v a v } G a t N l 9 9 Z Z m x d 9 B f 3 , , * 2 k a B     o     , X o d N z v * p v ; a y z 9   f , ; # 8 - m X d 9 a d 8 * f * N z y d X n G ( i d y l l a t N B *.2 , 6 * d 6 o - # a F 8 9 , ( y 9 8 8 v X 8 o   o   o y 3 f * N a   o 3 # 2 9 9 f i d u 1 ; O v a Z.v 3 m O * v >.J.a d o.6 o l I 3 q.",
"=.f l - e 9 , a   X a v % R  .< h x  .c.D b z.P.l. .o.*.e o   # ( -     w I.b * a N 5.o - G - y #  .9     3 7.9 3 # o   z * 7.; d t z 3 % 2 B X 3 3   9 d m 6 * X >.S f ; 9 q.y W l f f 9 A   #   y G 9 a f u Z X n } Z a q , :.) W t q.2 t 3 m 5 6 v * 9 6 f 9 d 9 . N *.%     , o   X   ; f a @.=.N d * X % # N 2   *   d 9 - % o l d , N t n y G l n t 6 d o t v Z Z d m n f t - t B 9 d X 9   N t   3 2 3 f y f f G z 9 ; 9 2   ;     ;   . = d 3 t - t # t % 8   n 9 , v d d.v v f b ` m y 6 y - , y , H O . P ) n 9 o -.o.",
"  9 o 6   - n 5   % 0 3 w g.D .   ; S b m 3.  @.9 ; n ] y * Z ; d d   C 3 c._ # I # 6 y ; 8 5 m   b.w w 3.= Z %   G o 9 e o * - t 9 v t 9 9 6   y 6.y y . y a 3 9 ; o y a 8 I i * N * y B ( 2 9   G   q.2 9 Z z v 9 t I f o.N H t Z v n v N 2 v v 2 P t y 3 ; 6 9 N O > y O 5 G , 3 2   % ;   3   Z S o     ; a 9 d 6 # # o 8 3 # 6 y 9 d v n 8 X ; Z v v e n   Z ] f n 6 d ; f e 3 G Z I v G   v Z d * t - y 9 9 t } z v t f , 3 3 y   X 5 a 9.  ; f x N 9   9 N . . e 9 9 3 y F.6 N e v 3 v f ! N c.> B v v 9 x . 2   X ;   8 ",
"o 3 - 8 X v 9 3     , % S  .o % f +.0.o D  .y G.W ! +.s.f v f o o <.  % z._ t.v n   n Y % + .   = %   u 7 G.% v a i Z 6 2 6 , e - 2 N F 9 - l 3 3 f q.Z.t f ; t 3 y f n , 9 q.A l f 3 - 9 3 2 y X m   v %   l t a } f 9 * o Z m =.v n W Z N v N ; 3 9 X 6     9 N   } d * * H v 3 2 v       ,   a s.y 6     6 Z   *., 9 X #     d   ; z F e n f d n v l l y 9 - N y n y N v 3 N 8 , f 9 v 3 v , o f 3 y   8 , , 2 8 I t 6 , 9 - ; v f v X ; v f 3   7 a a 8 t   - 8 t e e n d , l.v v D., 3 y u % $ 3.O e - +.3 3 , y 6 m , m >.",
"y *   9 X %   - 3   3 7   u .   p u x f  .  j 4 S P p $.) S [ n y f ;   -.7., -   u.:.G * & 3   m 7 u %   +.  f m ; f o 2 - *   % o 2 f 9 a   2 1  .} d z o 5 y * d m 0.% i Z ( :.Z t - y 8 z 3 n - - f %   2 n n s.y l # o N o.y i -.d i N P n y l   A 8 2 , 5 v } a 6 - 3 *   9   3 - N       n d f v X A   a 8 * o X   d t #   d 8 8 d 6 z I z l v * Z d v y 9 v 9 9 f 9 d y * f 3 f f P X Z t - y 3 t v n f d ( d B t y l X ( v ; 5 o 1 p 6 X o   m , 2 % 2 6 O ( v > ) Z G l.y e s.9 ; 9 a 2 - 5 a H - d C 9 a O e v a   i ",
"m o v , %   3 o 9     = < S 3 o . 5 3 u + 4   S 4 b v   - N =.n Z f u   j o.=.f # 0 u >.9 f % 3.f.% +._ R -.; 3 o.f   v % , # o   9 o 8 3 t * a O 6 Z.; * 5 n x   p.@.q.9 Z  .i q.V.y Z 2 - 2 9 6 3 v % Z n 9 v :.n f 3 5 v - P 2 o.a f G t =.Z I o f *    .  N o y 6 >.; . o X *.t * o   X   % ; 9 y l y     9 y , * , o   y z   3 f f 8 8 t # 9 H 9 # y 3 # A # Z G Z t d N 8 n Z n f f v - # n *.) ,   y 9 6 Y } y G t l ; 8 % 6 A 3 f v S u 9 W   % 9 f 3 t , d z v G 3 e o.% 0.G ( B 2 n X 3 * n 6 a y 7 f ` O e # 9       ",
"X * , , 8 , , * X 2 o X ; b p 9   R R *       w c.3.%   =.! @.S m ; 1 o     =.f 2 j _ p u j 3 N .       = b.+.d.d } o 9 } # * - Z $.y , 6 8 m f 9 v %.V.9 o 7 B    .p.! q.H >.W f v y t y d N G 9 9 ; ;   3 f o t t Z N t o 2 a   H @.( v 9 M.o.y X   z   ;   o # a y [ Z 3 - - H y 3 2 e # ; 2 8 , # - 5 y f X N X o o 3   >.d   =.- v ,   t 6 d I - o 2 f f 2 9 ( o.-.} a G v.Z Z v f X N t   n u.l >   X a 9 i Y   9 f d 6 y d 2 v 6 n 6 ;   - , % o   9 G 3 e , O N N d z y d . f f * q   0.6 y f a v B f , O S.Z e 2 * o 6 ",
"a   =.o   o   e   o 3 9     Q   = m     3 < o     ; l.; m -.m S S C H N t f P o.c w t 9 0 c <   3 3 8.p   4 p 0.d z 2   y 6 f z d v.y N d 2 e 6 G * s.z.X d.3 3 p b j 3 } R m v d 9 N 9 X t 3 8 i v o S % 3 y f o f f y   2 ; 9 X :.W } v P I k.d 2   *       u y ( 6 v y 3   ; y   , 3 a v * * t d   9 % q.t 2 3 * , , t v n v v P G d ; a v 9 * , 9 f v f 8 , f l ] d.n 7.=.=.v Z 9 u.a I t o  .=.6.* *     o 2 o.  3 ; y y f Z z H f u * 9 # a d y % , , 8 * t f 2 f 2 f d , n 9 9 n o l = N N . m y 8 H f v f -.I 6 d - t o ",
"3     o * -   6 8 * X ; - % ;   h 1 3 X t 7 f f       m 3 . Z 9 m 3  .; a Q N P  .p B 4 < m Q y P n 8.X +.5 u E 9.N 2 e - f 8 2 f 6 f Z O } , O d , i , o.`   9 =.B v * H  .b.R  .v :.# o S u f 9 y m i } d d , ; # , d 2 t ; 3 t Z v B >.i Q $.X , I * 8 - d A 2 k.* ( - - * % 8 * f % W - ; 9 v % * n % v N v 9 v Z 6 v y f l y B v f t f l 2 y y ; * 8 9 8 S 2 v I m >.3 I ) n P } ; ( 8 9 9 a W I 8 2 # , 2 # 8 N Z y d v f i N u.S 9 y o.5   % + A } H ! - d d N F 6 8 9 o X X % n o ; = f , , f a O v v f 8 :.d t z 1.  N ",
"9 y   *   a   X 3 2 # d 2 ;   Q u 7     t B y X   X ;     p z.S o d 7 S @.l X h w.0.a ` c.0.+ y 9 X 9 < f w.7 8.o.s.  d ; 6 6 t 9 2 *.8 6 *.a C -.* u 2 W P L H =.y 9 9   3.g.B  .B P 2   R i X f l 3 i d l 5.2 f z   e - 3 9 # 9 9 Z d } l l t n 3 2 G   % 9 o S a o.t o t ; 3 G v 3 d l - t 8 t Z v X   y 3 y n n P i B v 2 2 Z # l t G G 9 v n y o ; 2 9 f 8 y # m   Z n o.P m l n A h.% o 3 p q.:.*.% X y i G 6 8 # , n l B v b d = y     o o ,   d m d n o , B A =.f X ,   f o t 9 v X v y 8 - Z B * y 9 , v 9 , . t , * G ",
"Z #   y G 8 l o     % f 3 2 v   9 b 3 -   y 2 d 6   t X X 3 q.! m C A  .3 m    .A  .C   3 7   3 3   2 o D u u 9 Q :.3 Z 6 * . - 3 e t y t 9 < t   d ' % +.9 R   l.  9   N >.m R u.a   G z d y a v 8 N 2 v v n 9 l 3 3 2 Z 9     8 o H m :.z v d f } v f   o % 6 H O 7.N * e 9 a y 8 y 9 N # * f Z   ; o     t , G f v 3 f 8 3 d o o Z n f n y y f z F 3 9 y o y 9 N o o o.m B l d 8 9 v 5 - 3   B v x.] , #   # * Z * * o., d d R 7 R 9 2   ; x 5 9 , 9 y y 9 I t } B d Z I , ; v X y X 9 i % o q.Z I v z i ; v 9 7 d ) f G v 8 ",
"  3 Z B :.8 , 8     ;   o 8 8 y y n 9   o   9   f o #   d   3 3.h 0 f c.0 R D b q.d.G.e.* 9   7 9   d.o 4 h C 4 6 v 5 f o 3 , . v n N * ( . j 9.i u D * c 3 y q @.9 o C i S j +.>.P m 6 9 y v d v } 8 y q n z N m 9 ( v l 5.* N ; t 9 ! N G z t v t 5 z n }       y q.* * X o   N l Z * 9 2 6 3 f o 9 y   * a o.! d G 3 9 3 6 6 ; 2 , 9 9 W 5 X Z ; Z 3 d y   v ! @.} , 8 f R y n     y a t d f Z @.Z v t - d G 9 t , H a ; ; 3 G v 5 ; t * ! n f 3 % n 3 ; 3 * 2 9 A y 8 y a * ; f y y   5 - - 3 N I , 6 n a 9 m v d y l.f * 6 ",
"  G 3   d   , # o   o   8 ; t.  N o     9 *   X o i   9 u 3   S @.u 5 u 3 M.7 C   1 w.D v 0 W v f   = D +.< +.. 9 o o o 6 o * 2 d e v $ v   0 6 y 3 r.; c.y } 9 Z m 8   x v v   o * 9 3 5 m n i l 9 f f f l v i t f N o   =.- z y 8 ; Z n N i z N 8 9 v ] v 8 o ; v $ W 3 8   5 L.# n a z 9 , v v t f ( v ; 9 P 3 v =.3 X y I S f 8 i v a m     v n S 5 y y 8 9 9 f y 8 d 9 3 o.l * 9   a G n v S a l.t { t 3 b @.f H f d 9 3 m N t Z y N f R % u 9 q   e 3 * l 2     y   x n z y N 8 6   8 % f 8.I o f v N f G n f f O } q.l ; ",
"- - *     3 f 2     3 o 8 9 d 3 #   o f o X     3 *   ; .   + C = S n S 6 # u   ( ,     N Z   ; t % 1   N   x 9.2 a f -   o X 3 e G 9 . H % x -.3 5 g.j S # H v v l n ; 9 v 3 a o n X Z ; f ; , Z n N q , o P f 9 f 9 } v G y l   f 9 * q n 2 n o.6 z v y N n - * 2 . y B z   l V.  o l o n y i G - l d t B % f 3 X d - X v X , m t * y d z v t o l - % - ! y a l y l x v H o N 9 o.3 3 % # 3 f 5.2 u.v n f v 3 u # S 9 0 n G P } X 9 9 S   B %     d f o 6 9 , 8 v 2 9   X 2 f t B a f # m   u a Z   u.$.( z A ; y y f f o.f o ",
",         9 * 8 n d # *   6   * n 8 - d 3 % o 5   I #   .   j m 9 & = v b.o = # t s.    n v t 6 x.N.  Z v     9.v 9 ,   t 2   * v o.F   8   4 y f v = b +.N i m o.d x j * , e ; 3 9 3 3   a N v 3 9 v 9 n ; f f 5 A l 2 3 v 3 o ; 6 y y d f 9 3 3 Z f ! N 6 l ; 9 v *   ; 8 3 v     F Z f H y N Z # ; 6 q 9 - N y 8 3 6 , v o.# 9 y 6 t W 3 } } t I - -   o 5 9 P n B N v y N v v o 9 # y } % m ! 9 f t N - y 5 5 3 5 * 9 m v v G o * u v 9 3 %   % e 9 9 3 5 f f d , 2 y , - 2 l }     S o o X Z N N I W y G y a 6 9 H % o., 3 ",
"n   8 2 ,     v ; Z 8 X o   - ; G e   ; ; 3 ; ; t z f G   X < h 5 b f a 5 9 @.Z 7 X 9 ! d 3 N X 3 f 3 o 3 v   9 Z   X t 9 t - G =.x v , X 3 % 3 x + v j D m n 5 v 7 ;   f f t y , 9   t ; 3 ; ; v l 9 N f y n a 3 A y A d % L.d v v f l 8 2 Z v 9 ; n 9 9 f } - d y 9 o 8 y q -.- I t d , v.9 W I - y a -.v % d N G v % y 8 3 2 3 # o * t 9 N n B z Z * 3   , m v o l 3 o H f f 3 a 6 9 t 3 l l u.P 8 N y d 2 6 9 3 9 3 , % 5 o y Z R S v n Z d t G n f 9 f 2   n d 9 - 9 X   t 2 y v , x ;   9 f   v G G } } { v - v y t l #   ",
"9     X   X   ; l ; 2 - 2 * 9 %   t * ; # # t 9 2 3 6   f l % 3.! o., , x l p b     B o.i f   N     y         9 # 8 * 6 6 %   2 o N 8   9 9 N t B o   0 t Z v X f 9 = y 9     X y 9 y - 9 *   u n ; f Z f d I o o 9 Z v 3 S , # d d n X f N t % } ; t 3 N 2 o n , 8 8 d o p v d   q.t y 2 :.l ] h.i t n d d o B y Z f 3 v v % 2 , o 6 # ( 8 3 o a 6 ] 3 9 v 3 a l 9 y n 3 d 3 b 8 * o G G *   o , o.v f a n 3 l - 3 * 3 , , % v v y % l H a   f v Z *.} ( f s., 3 6 ; 3 5   H v   v d 5 o ; 9 i l   % d.9 I o.9 N d N 8 N Z 8 * ",
"* p o o       s.8   ,   - % 8 8   N z e 2 3 f f 8   d       . c 3.d - ! m 0 * N N B v t 6   f f ~ %         ~ # Z l f # 2 X %.v y % N f 9 a f 3 i p - L # 2 B o v } ; N y * =.8 Z 6 5 ; 2 } l 3 2 H 9 f # Y 3 9 i y f % 9 v ; ;   q.z l 2 X % 9 n N n * t * f Z z y Z , ; Q Q 9 2 G 9   ; 9.5.{ y N 3 p * z 3 f ; 9 t 9 % N 8 - y - *   v l y N N n - { o a 9 9 d H 9 B l f N Z N f , n x - ; o v O d F n 2 - f d # S =.o , # 9 d , = Q i.,   Z f Z B l :.8 =.t 8 o # ; 9 o X y , o   =.n y p H v o i o.S W } =.t G I y G Z % z ",
"* -.;     N   ; n * $ t *   $ 8   f I * o 8       6   o     n f z % d x       o y $.o p ; o y P.G i o     3 o I     Y 3 y   * , v - 9 y   a y i * 9 n w., Z * f f a v S i :.*.y 9 9 d f a o 6 o P v y ;   ; * I 3 f 5 9 a 9 d 8 * - 3 9 Z }   9 x 2 y N o.* y } 8 9 n 9   3 6 8 n 8 X     9 f v t d 3 u ,   l f y - y f y a * 8 y d , 6 z Z Z G 8 Z y - 2 , i 3   d G # G P # v Y N n z S y y y v :.N.2 e } d.z P n v I $.z   9   9 9 ; f 3 ; N Z y Z d y d G *   e o 3 @.y 3   8 = 3 o y 9 Q v t 3 f S H ! Z 3 ] v Z U , 6 2 t ",
"  3 X       m  .:.s.#   9 o   8   9 N y X o t 9 X $ o -     b v F C u 8 %   ) n - f o R d 3 9 t  .{ N N 5.    N I 3 f v 8 I 9 o a n f v 3 3 y f - N ; 0 Z n 3 t 9 t 3 n G P 7.  9 } m ; 9 P , S X d t   , z y v ; 8 8 d 3 d v y y o   , W o z v 6 n v ) 3 f o., v , 9 - % m f f 8 t , #   3 9 2 d a 8 d z 6 2 S N * 3 8 - * t - e * ; - 2 9 v 8 N d a e * 3 *   f % ( l ;   n d a y t f p ; - v 8 t a O a x.N *.3 v l 3 t G :.t o 5 6 q.} 9.o 3 S v y y 8 5 d y - o   l f 9 f 6 f 8 9 X 9 l = l v o l A f d A G I v z 3 v z f o.",
"7 n v f   X 9 9.N N ( 6 2 X o , .   I y 2 X X       f     4 t y ; I , # v 8 3.s.G - a , , 2 m 6 l ; G X #   3 X 3 * % q o t * v 9 N N l z 6 9 - * } d 0 9 f 8 9 o ; N d % ! @.e % I d d ; o   n   Z 9 6 W y * # N X f - t P 7.5.N f 2 B Q N       3   9 3 i 3 $ o v , 9 ; * v   8 z o * 8 8 y 3 8 ; v * Z ,     9 t y N t 6 6 o X # X 2   y - 6 8 X % 3 8 2 ; 9 9 9 9 o 3 5 a f m N % 5 ; # y z z 9 } g d 9 l d v P ! N n * l ! 9 ; e A W -.d   S i i f H 9 f ; H 6 X * Z y l N 2 9 q y - 6 v f f n y ; v o 5 l y I I f y { Z v ",
"S   A %   -   7.z   6 d % X o   y . d *.- 2 -       - h     3 * % 9 , o . f a  .y       9 N 3 % 9 f ; f i i v H   3 9 o b f   9   o m N t ( P F I v I ; P t   N v * q Z l 9 h.Q R W a ; f ; Z Z   m 5 y z d I o n , f 9 3 o.l { 6., ; ; H H A . o.d   z 3 * t n y - d o ; n 2 2 f P 2 , 3 9 a n P o d 6 z z i 9 9 o % Z a 8 * 8   o y 9 - 2 *   o 8   X 3 y # 3 f 8 9 3 y t - , % f f y =.# Z t   v F N - 2 9 9 f Z y q.* 9 3 a ; z 9 ! A n Z N , Z Z ) G a n 2 2 $.3 t * t 3 v Z f t % i o 9 v 9 f n z t y d f - y o t z ) H R ",
"o P v , *   f R u q.z   Z   o #     a d y , a e o   2 S x X i   =.B 6     _ ; d       - , f f l y * % H ; o X X o   9 j # t   f   a -.S 9 W V.0.v.y 9 N } n 3 t v i X q.f y y u.a ; - y m o d.W o $.9 y v d y y Z d 2 y Z 8 2 I h.- u % y m 7.v :.y ; 9 - =.9 I f f 9 a 9 6 2 2 z F * - d I t y   % Z 8   d v , % , n N Z y # G 2 * , - 2 G v o 2 7.v y l z a , y - 9 i , d B G o y n f b.3 6 d n 6.v M.t , t n ! y v 2 ; - y i N 9 3 @.@.t a v >.5 d 9 i v 2 Z 2 =.I # * 9 e * o y x v y 9 9 8 f y y G ,   6 y l f N 6.n s.v ] ",
"X v o , y X     v t   d y d d 8 X * G 8 6 2 ,   2   8   L v n z y z =     d 9 X =.*     f o   ! f v 9 f       6     7 ; o n o 5 C % r.0.% o 5.m l t y x w f ]   4 v v 3 y o = 9 v o 9 8 d , >.k.6 S I y y z z B o # * , , 3 N I 3 y - d 9 f S y # y l N 8 N y N 2 l e ( 9 y d d 3 i # $.m N t 8 3 f n 9 z d ( 8 ; t ; y N f f 2 a 3 2 - t o 3 o , n X   3 y 9 * , * 9 d Z d 3   3 n Z v - 3 - t G.S.x.s.z y t q.t S H N ! t 2 d o d v 9 @.v ; t l a ! X # l v , N , :.n 8 t t o X   o * G y 3 y 9 e z N 9     f d l t e 9 :.R h.",
"  s.d n f   5 } d * 3 n v Z - 8 f 9 v I , $ O - 9 > 3 ; f 9 n v l < O .   o 3 ( f     9 n 9 ;   d 9 d 9 ( o X 8         y y a o u o o j f @.N S Z ) i B y q.G   B f S ; 5 S t 3 3 v X % v l t Z V.o a   , i Z 9 ( 6 o y 8 * 9 Z l v   v 3 9 Q C y ;   2 B G - e y , ; 3 a , z     y t 0.N l 6 9 % a y 3 , y N e % o x 9 n f e * t *   I 8   W a   3 N o G y X t # , 6 i 2 y 9 f o 6 N a P n } e g.*.@.p.$.5 5 * 8 , P l W y t X * d 3 ; A t W N a 2 l v f   v y X 3 n o.; l e ; o 2 N y v d   d m z - v d ; 2 I f 3 t v H ; o.x ",
"f % v ( 6 p L *.y X   2 * f t d t * o 2 f O $ O @ o.= . d # y 8 2 + . . q.3 - Z Z       d X # y 3 l y y Y d % X   *   9   v 5 p % ; ; a >.m ` d q m = 9 y t u.f 3 2 n 3 6 y 9 v y 9 f t X a ; n y Z B 9 , f v t 9 , 3 d * ( l W l N P I o.y m * Z a - Z n f 2   :.9 9 3 t y y #   8 - +  .m ; f 3 p * I v v 2 d ; , A v d f d * t x , f I o z 6.% v Z * n   , , d y y 9 8 o   ; 2 P ; 5 5 % % 4 * 3 6 , A 3 n ; , 8 6 f N ) t v 9 f - 9 P t   ; W 9 3 f y f a 8 Z y d l 9 n ,       N 9 v - i 9 9 l * t F * , 9   8 9 , a  .=.  ",
"v o m =.7 0.B.G z 7.  Z t y f N * , v 7.o 2 z e * y 3 y o f ; . < . N 9 ! t d 2 2 2 % N   z i 2 a d v z v 9 * ; % f   7 % d 3 %   u   * ,   o. .3 -.S Z o a z F 8 9 v   9.G y A ( 9 , f l a o ; 9 } n z a v N 8 d z t ( f 2 9 ) v v N   v d.-   H 6 * 6 o o.- a ; d y 3 , Z , %   G 6   5 # 2 8 3 ; P v 0.P y 6   3 n I t o.t o 1 s.f ; } # 3 f # u.(   2 i d 2 t 3 % v m f m 9 R % ! 6 8 - a v 0 F.d * 9 ;   t N f W q v v Z Z 6 * 3 o o 3 * S W y 9 3 9 - 9 9 d d v * 3 f 8 6 o v A l 8 f y N a o.e y f v t d t ,   . 0 %   i ",
"y q m x S A q.N N o ; N 8 2 f , ; 8 l   v . 3 m 3 % ~ e 6 % f d.* G z a 3 S 6 Z a - v   N d o   % d 9 2 u.y % #   3 % 7 a X     % t 8   9     b h.e.A t o 3 t { h., $.o 9 ; f - 2 N % o v x 3 :.8 ! G f t P t o 3 # 8   l X % 9 2 ( } } n n v.6.F - 2 o * n o.f 6 t d 6 Z 8 -   v ( - 9   m 9 v p.+.6 l :.) l.z s.;   6 o f Z y X 8 3 G { a * m t t V.* 8 l t v   v v i v f G ; a 5 ,   ; 3 m f N * 2 ,     ; 8 y - 9 , v G 8 l 9 * 8 o 9 X * S @.y f 9 l n * * - 8 d   3 f 8 - o 9 % 8 z 3 v t 9 9 =.3 8 ; 9 6 2 d v c.a 2 a y ",
"m v A y _ 8   v G z f 6 9 ; N t.3 $.q 5 3 . . 9 . a G v I ( Z 9 B * } d * 8 a :.; y * * * - n   y Z G y :.W   * 9 %   v d ;   8 8 # - y 3 * ; v x G.f N % v q.s.P y a 6 o y 9 * % 6.i 9 ; 3 t 9 a t.d H v F y ; Z 3 f d.  %   2 N =.t # * l m N.a 2 2 d . 6 I y n n , d f y t d y t # 2 o y x f 3 7 P G 9 @.n H Z i I d   3 f 9 , o % ; o.v v m   f G - o d 3 9 y v 3 o 3 W y 5 * 9 y q 9 8 q t a 6 f , y 9 9 * 3 y u.N 3 ) e t d o o - 9 5 v g.0.; y m o f z - o l , f d 9   - o -   z 6 J   o } 8 o } d $.z   2 >.u.=.N z 0., ",
"Z d -   9 y   l l d B y v 9 v 2 N f 9 v 2 Z 9 f v y O v G ) 6 ) Z n f y 3 # 8 z :.* * 8 G d f , y i y , N $.  B % X % f 8   % i 4 9 R 9 9 X   ! 5 u X m 9 # ) o.W G y 2 a l l 2 y 3 l v z l o o % o * l 6 ( 9 t 8 *     y f * 9 :.f ( , 9 o 3 , v e e % G v } Z f n z - n 8 - 2 f * u ; # 3 % % 5 E S t.; c.N d l 8 } l 3 i y   w u Z   d d.2 f % t N a > z % o B 9 # p f d f G v N y , 9 8 l t 9 3 ,.y y v , 3 n 9   % - o a S 6 o , 8 2     L B $.P v 9 y G F n I t y 3 2 v , % * ,   7.G   v 9 N } X d 2 o 9 v   >.} m ` } p ",
"v X R 9 * t   8 N z   2 y 2 d Y f ( Z d   3 5.W I <., 6 f O 5 B G } :.( f o     a G v N 3   y     y } o 3 v a ; 3   % % 6     u   +   a >.-   3 9 j % A d f   8 N } N z 8 ] l m v 6 n a ; X a 3   N   N x d d 3 l 2     9 v   X % Y v d W =. .8 d :.( d .   z a N   Z =.} y 9 y d # * 8   9 y 2     P.  y 5 0.F z 6 ; } } } A 8 5 A * y 3 c.3 8 y s.B n * t i l d 6 ; ; * 3 v 2 8 Z l o I y ; m 9 9 a = f 9   9 9 $.f v d d 3 2 P - X t o 9 9 ; R v Z v f z Z f 8 f d 8 * 8 2 * X X f 6 9 d z 2 a   i Z I d   d S @.z y N v 8 y ",
"A - -.8 # 2 Y y e G B 9 n 2 y N { v i l y Z % 8 # l z ( f % =.3 a G f N G , X     y 9 d       - y 9 2 f N 1 u X 9 3 % # o.v C , 2 X   * p   X * = R 5 h.I 2 Z 3 8 $.( d y s.a B 2 9 Z 9 - 3 , 8 f } , o - 3 2 3 2 $.-   ` d y 3   n * , 2 5 y } =.} 0.n $.3 , Z m   % (   9 n + | % X I ;   f m y * L = S a a f n X * 6 v A d 2   S   } Z N f 2 y 9 * o 3 ! f y 3 9 d f 2 9 6 9 f G Z 2   l d O H y S 9 m 2 9 o P I G n } } z 9 z d t 9 ;     p 7 m H Z P X 2 z t =.9 ; , - 3 y # Z t y o Z * 8 3 G y f * 9 X G 9 * . . * a 9 0.",
"3 d o u 7 o z N 6 v G d 8 v f - S Z B ; 3 X a S o.d v d 6 m , d d n e I N f 9 6 8     o   3 #   , t * ; *   =., n d   @.p ; ; = d B * X a o   q * E a y f a } t Z I o.d Y 6.3 3 2 * d d 3 t - Z ; H t t   v f v 8 N t   8 y y - 3 % n z l y v v ; H =.e 2 y 8   ( >., - H W X v o.2   ~ z a o u % $.3 ; = - l G n o 5 B v   n - y f t -   % H % d 5   t N 8 o 8 9 v S y 8 N 6 t o X v A a n O % :.3 3     S P , 9 * f   o 2 N 8 ; N 6 o 6 l   o S a y N b.m F h.o.d.=.( 3 3 I d 9 i z a d ( y f   y v t N n N >.# a 3 6 l >.E u ",
"8 % 6 , w 3   i H v Y Z n N y v   N y t 8 * , A h.S 7.  5 N % v o.S Z G ( B G 2 #   6 -   9 a ` E       ; % f  .2 B o u a 9 f ;     , 3 9 a l 8   E v , 8 X #   7.6 G Z.y Z $.d y - 9 9 Z l f y y t d l :.- } * 8 y f f G z ,   y h.G m v s., B 6 * 0.$.N ,       v     9.( * , S P t - ; Z 9 G 9 Z 1 % 9 o 9 9 X 3 f , y % n -   Z v 3     v * t 9 3 2 l d i 8 X v ( :.S v Z 8 d 2 y a 9 ; Z n a a y v 6 * H I   f R f 6 G N 6 3 q.t 2   y X ,   v   X l B } 9 $.- q., - l * ,   t 3 B i :.; 2     Z 3 t }   ` z f h.- 9 f 9 i ",
"l , y *   y   9 N   Z ( q.6   n 2 n 2 X * 9 d A q.W H 8 9 q.% y v 6 8 v t N n 2 ; X   X % -   % 9 u   ;   ;   S 8 o   9 f 7 9 * * ` d % ; 9   9 m 7 1 S R N n 3 * o m ! -.o.} i n * ; x y y - a X y l *   =.N f y ( z } n o 9 * * m 7.y f o.8 m v q.. ] # ; 3 X f v 3 y - A G ,   o.( Z 3 % 9 9 - N % 9 *   3 i ) % 8 X p u d Z 8 8 I ,     o.9 i 8 3 9 :.v , i 9 * N ( N d t 5 y , f 3 B S N - 3 o.  f t 3 v 5 9 9 o i d =.N f * o.y 6 d o 2 6 v d , 9 2 $.o 9 R f 7.Z y 8 # f   y 9 l o n l 2 ; -   N v t 9 } l 6 G y 5  .y N ",
"y 8 * B m 9 . % 9 ; * z o.z f 9 9 Z } y * X * 3 V.T.X Z X . v 9 y , , t , v , n y #     2 f a 5 P Q   2 X     o 3 % y d 9 9 * u o E l.  - 5 3   = # m  . .x t n 2 o -.n q @.5.; W t 8 v y * l i 8 y 9 N X   f *.* v N N I d * v * X , G l Z ( 5 m a n m z 2 v S 3 = - o X A o G o = q.y d * % # y % *.8 -   l ( * f * 3 4 9 q.G } o 3 t   y d , X 3 * f 3 % n 3 f f f 3 i , v   y d y ; . o., d   G % y a q o @.G Z % m N H d 2 - 2 o % 3 d 3 * y q d t f 9 N 9 , 3 v Z , 8 o 2 d f f * 8 # i , X o y ,   y   N y 3 N ! 6 # t v ",
"9 e ; ; 2 9 , 9 q P )   } z d 3 G 9 * n 9 n d 2 3 o.  k.l o n , 9 B 8 d d 6 d 7.t X % % m y Z v v o * % o * * - ; , o B %   % Q # 6 l % k.t l 2 5 = 3 7 ; 8 S o o.f 3 >.d.s.) Z d.9 l l 9 , Z 3 f   I f Z 3 * d 3 z 9 2 =.N a l N     * H I 7.N 6 9 ( y Z z B 2 d f f 9 6 2 ; a * 3 } H 8 v %   y y 3 3 p v 9 2 8 3 ; B 6.- f i $.( f X   f v Z 9 2 * 2 f 9 5.2 % l X f o.o 3 ; 8 i i % n N o o f l y } 9 f x n :.t   ; N S 9 o ( # h.N 6 6 N 3 6 2   ; 9 f G 2   9 k.o 9 G v % n * * , y * ; y e   ; *     m 8 H I o.) u 6 9 ) ",
"B o y o o Z l * 5 -  .X S f q.o d 3 =., y n   * , f o X d.3 6 S ; # G %   2 o.I W   a ; ; S o y a S t % % 6 ;   ; * % 3 ; ; 9 v 9 2   d.y N }   f 6 9 % a p l N * f X x v S H =.q.q.W N , o * 3 # y l 2 ] t * 9 G N   , 9 d l v * X ; n y Z ( 6 G =.} 6 .   z   X P q.  o d 2 o # o  .=.B $ ; 9 y 3 % t N f i W , X 9 v y 5 % 5 @.f y ; # d =.i @.e f   Z v :.t * I X 3 v :.6 f f d S p f d.X 9 =.  v 6 P v Z =.} z f % t l Z W P 3 v l y 8 l o 2 9 9 %   o X ; d - q.P Y y n # , v d , n - i l , a 3 9 5 , y u 9 7.Y., 5 6 % W ",
"=.2 y 2 ;   l a 9 9 f d.  o q.  * f * o.v.y o ; 9 y ) 8 q.8 v Z l ( 9 N 2 ; * :.G ; n ; y y a N v 4 9 3 , * - * 2 O - d 9 o R 3.N - F q.9 } 8 f   9 % % y f n m l 2 9 u  .S d.W 7.( =.$.m - , a l 3 7.n N 9 a y 3 y y o f d 9 - N 9   N =.I I $.d.} H 9 I * n t 2 s.9 8   y 8 n ,   m y 3   ; t - 9 v m , X 5 H Z   f -.* 6 6 y 0.d l d.d N ) =.v y v 8 - ; h.v 3 ; 2 y - y N 7.N 2 y B 9 f   ; u.  S.d.@.y :.=.n H * 9 q i v.H } d N * t   X - d   d z d 2 8 2 6 z v n h.d 6 f 6 d 2 3 Z * 9 - 9 6 2 t t 9 z H . n <.j 2 L 9 Z ",
"I S f *   N 2 6 f f - f y f D q.q.Z   B B ; 9 N 9 ,   y 9.i - d . n 9 , 9 d y A b * q , f N   x 9 f B f , 5 - % o . 9 * 5 ; >.@.1 X ! 9 3 * R f o N   v v W Z y 9 y 2 9 b =.o.h.A z Z d 3 x., 8 f 8 ! 9 W s.f N y   z d t , ,   z y 6 C 9 ! ( f } s.d d f # N v * h.o o 3 o o o f X B 3 y 3 9 X 5 * = 8 a - 9 5 5.* 9 f o , ; o H  .Q P u.  B =.v v n 9 f 9   ! f a m   N   ; # d G 9 ! G * %   l.v f } $.A P x.t * Z t f A 5.s.q.8 z % t # > , d   , * z o n 8   t f 7.l 9 z n ; 2 X o v N 3 f t X m y X % , } d ! c.9 Z.t 3 Z ",
"o.( z 8 * v d o # 9 i m o j 9.C t 2 % a $.8 d X , ,  .5 q.$.  i e f , ; X ; f ; o 3 5 d l B 3 3 f X Z $.3 y 8 %   . * l n n B - o x % t X *   8 o Z 9 n   v y a , m a f 9 m b.o.8.S Q ` , f l d 6 :.- @.2 s.n n 3 v v N a l N 9 N Z f , > 9 Z z >.<.6 ( d 2 Z * % N e l   8 6 9 9     Z - X   y ; % y ; 3 y A z Z 8   z % 9 y n t W 0.@.i % d ; - v o y * ; % o 8 f  .9 y Z l W y m * G 3 o n v 6 :.a p W q f =.y 9 G Z 8 9 H Z Z ( } 3 % 6 X y n ; o v 3 l N a 3 9 m A t   n G H   v y y f v y 3 8 Z o 6 8 v G o m - * t =.y B ",
"y n G z 8 y 5 *   o 9 X f f         9 B v ; 9 o * - :.y d.9 d d , 8 8 Z 6 v t 6 y = ; e   o f a a d u 9 t o - # o X S v f , 9 ! ) 8 9 m m % X   l y % 8 W o.2 5 2 9 5 , * y m >.B u   3 9 9 3 n G v d } ! N f N 9   X   % } f 5.f 3 d 9 , f G ! >.U I G B z P 3 X   N I   t 9 % X 8   C 3 2 ; o % * t 7., y   q y N   ; a y t Z f 8.v u.G v y , 8 3 y 2 t   , , c.9.- x l ) y S , n =.n C m v 8 5 9.v ! ! =.o.m P ( d d 6 y d Z o.G I , ; d t o.y   2   l 9 v 9 d o y W 8 8   3 d - a z * =.z Z 5 3 , v   # u   y 9 N * y L o.4 ",
"B v v Z G y o o   &   d n x     o h.  ! } o } , v   v 2 @.k.q.  6 -   a * ; ; X x 9 9 o   v m y t   x 6 ;   3 - % . 6 y l 9 > y m H o * 3 k.o f - v l f P ; 9 v y 8 m ; , * o R x y H c.v , @.% t 3 a S Z n y P f l e o v v ( 3  .( d ; >.N t >.a.6 P . N Y y   y - y v   q.( , o X   ; d   ; o * * , 9   ) =.v Z l = , . o v ) o o 3 !  .v f y 3 , % f ;   = +.9 l.5 ! o   8 f I m S m x f 1   ! v m S 9 @.} 5 ) $.y I 8 8 8 * l t.N 6 N ; l l X d , 9 o 9 X 6 o o N t k.y   6 2 d 9 n f I d l f 2 y l ;   * 9 . C 8 v O s.3 f ",
"( I >.F I Z 8 6 p   X v y 6 9 x ; - l . L a t 9 a X *   y 0.s.2 9 o 8 H , * , 9 , n n ; 3 9 t % d y 5 N @.* X o # 9 S a a e y f 3 a 9 B 1 d.- -     3 f d f 3 o f 9 l 2   L % >.  3 0 3.X f y l 3 - y v ; G l I G , 3 # i m F.  o.I v , B e , H G , n l v   f * 3 o P 6 > 8 B X 2 o   3 l 8 t v 5 - , 9   N a f v , B 9 ; N , 3 o f 3 % f 5 ; 9 ; 6 3 y q X   ) y - 9 G S   d 5 C 1 ` 4 < 9 9 v * q.  6 v 7.R = 0.9.  G 8 * * - @.R >.y   , v a 8 { 8 3   d 2 , 9 # 6 8 , * o l z , 3 9 6 i 9 f   o j 3 8 3 S m O 9 y D.B t f o.",
"f N q.I ! ( y y G S x 3 9   j q.+ 4   * 7 9 9 t ; 9 f 6 3 G I y - N t G , ; % 9 S 5 3 ; % a =.  W f 9 8 n N z 6 f 9 d , y 6 B y 5 d , 0 * S *   3   9 o.n y d 3 5 2 6 f   m   8.f o -.B l 9 y e 9 H - x * ) Z n W G - * 8 9 % 2 8 2 t u O f d O y Z N G y m d 3 f * 8 I 3 y * , X 2   6 5.X   N 9 3 l   8 w o   a o y 5.n , d 2 # , x 2 i f 8 * 9 o l d X %   f v 6 H l Z t m = x 5 0 9 f ; 9 S N !   d 5 Z f o.m G 9 { 8 ; X % } H   v , 3   o.P e 9 z X t d l * t 8 9 d v o y 8 - d - 2 - * 9 ;   X 3 y 9 % B o $ @ O G ; 3 , ",
"G 1.^ P $.N d f 3 f R n 7 S -.u d I.x 1 = 3 3 9 * y 3 * % P I v   i o P . u ; b i v 9   9 o.v 9 Z   9 a 9 - *.o , 9 - 5 t 5 , ; 9 9 9 a o E X   #   - c.W Z N , 8 9 9 v ; q.=.W P ; 2 S P o n f P v 5 d ; 9 3 l - 6 , X # ; f u   v . d t O z F o ( 8 I 3 f 8 , 9 6 B * o.z I 9 * - d ; W 8 3 ; 8 d l y f   o   , 6 v 3 S n N 6   a 6 , 9 8 l z d t ( a 3 9   v f o l 8 t n d u x % v f n 2 X C 9 f 9  .n A 9 s.-.H k.  z 2 o o 9   * 8 2 d B A :.*.H y   ; o 9 z ; * 6.3 # 9 9 J d y y Y o t d * v * t 6 X >.y O 0 . ; 2 y 9 S ",
"z F J q.f f a 9 9 3   v 3       m R   j j o y y   :.l n   v *.] ; q.X   , m m R I y B =.R 9 0.o d x Q o o a y o ; # m t * , 6 o   . B # 3 u , 5   *   5 s.v } , o - t % S 6 ; 9 9 Z o P l t l v d * n y 3 H d ) 9 ; f 3 * t ;   G n B 3 l.O N 7.  9 * y f l 9 , 9 , 2 # 8 9 m d   f 2 y 6 - 6 6   y , 9 o 6 ; t ; f v A ; v * W   d 9 o X 9 z v 6 9 } v 3 8 * 9 ; ; X N X b @.f u o q v - f % -   l   c.d Z @.a # c.9 8 , 2 % 3     ; y f v d @.-.f { y v * f o z X 2 # v , - t 3 t =.d ] G 3 8 d f 8 y o W } I O 9 6 6 v  .y N ",
"d v F ^ $.G v - m n * o G 3 L   d x 1 b =   H n   y t t 8   Z =.$.9 X   3 3 b >.b.A _ -.9 y # h.a 3 * 3 6 N I o o o   P 9 % X o   * 8 S -   9 t ,   * v N y a I Z 8 , 3 2   l H O ! u A -.I y o.a 3 N f a ( n G - F f y , 2 t N n y l Z ! 6 * d 3   n d 9 n 8 3 8 , - # ; Z ; N %   3 * 9 N X ; 3 2 3 d t , -   6 3 8 z 9 v i , * y 3 p 2 ; * e F   W v.  y 2         ; H n >.B 3 3 ; p % 6   d   p   9 @., m l % ) 8 f 8 y 3 n N   o % , ; B 5.P ! 5.3 9 N * y 6 % 2   d   y   d } a Z 2 } 9 X   f y , # Z     Z 2 v . $.G ) f ",
"a N N 9 v d $.6 9 v f Z Z x d B   = o % o   9 H * N 2 3 8 X X A N -   * 0 b b u m E A S l 0 * 9.y X B 2 o 2 , e * 9 o 6 t , o o   * 3 5 8 o   , 3 % o 3 . B f o.o.s.y y 6 * } 7.N y o.g.Z.} I 3 f 6 d H * ( G N e z $.2 z z v   3 d.:.d.( *.9 F z N t d t # f o f o X a o Z 9 -   X   f f 6 v   B   2 8   * 8 8 3 o * ; 9 9   N % d ; n ; o y y a e >.t * - 9 v N   9   f o.9.B * % ; o 9 X ; o   C   = 0.2   f   v v f N l N y L m } A y f 9 , ; v.N.} s.2 9 t 3 } N ; Z o v d , # A 2 d G v t a ; = d 3 * y 9 O y y   . ! Z f ",
"9 d ( t f } v y v o 6 >.% ; * ; y X % X X m m y ; o 9 * y * l W , q :.  a u u j o d y W m x 3 b -.f ) f y { t n 8 8 y o y 2 8 2 2 ; y y m o y o 9 * o   9 . 9 v x.7.( y 9 d O 9 9 v B G L v.) v.G , } 9 ( s.f y n v } } d f 6 . 9 g.9 3 B l.f y 9 5.H n 9 v ; l t ; 6 * * 3 t 9 y 8 % t * , 9 - %     X 8 3   9 # - , o 3 *   = 3 o y t 8 - y t n d v ! =.2 t y *.f o f S l a x 3 l f o   X     ; f % y H @.f - 2 I.8 y 3 9 Z 2 d m s.N # f a % w B h.7.Z 7.t d f f d 2 %   3 I W d 3 Z a N 2 8 o 2 % o W f H ! , 9 y   t . ; , ",
"2 t y n , 9 , e t ; x   a * ; ; =.+ % 5    .y H y   y 2 t , % 2 9 8 * u % o d 3 v y y % o.  9 w 9 8.v } v 0.! y -   3 a n y ; 9 G X y 3 x   % 3 X ; 2   x f d N B $.V.9 S y a ; v ! ; N N.) l.P.( l ( , G Z ( Z P v 9 3 a *.8 , * o b f n $., Z   ! 9 v v f i Z P 6 2 6 , 3 9 9 B 9 2 o o Z ; 2 l 3 9 o 9   a y y l * *   6 6 , , 3 =.8 2 % 3 3 3 m 2 I n 2 * v a 2 f = d E * 3 3 3 6 8 9 l n     N o Z G , f x y ! } a d t 3 f   ; b.j S 5 v 3 3 ) >.) } P f I y 9 a , , , * 5 z n W   5 , f y v 2 t 9 l @.y z y 3 6 6     O n ",
"2   3 6 9 2 * 3 y #   j 9 6 P ,   t - 8 +   9 ; 3 3   ,   -   o Z 9 6 f y d.o * f u a f -.o.y v   o :.v ( * H N , X 8 t v f i o ; 3 =   o   3 * 7.  3 a y   S x.o.s.s.} q.3 t m , ) y O u E y v ) y ! 0.I G ( G N P * N N Z z . * - v , I ; ; 9 R ; s.# Z v y f 9 t o ( 3 I v 6 N y x d X a o t *   # , v 9 X 6 m ; 9 - 8 e   * ; * , % 5 9 m x ; o ; =.G y @.d x d 3 , N a t f ; * , % # 8 t 6 3     z o.% P l y A  .v o d t G 3 9 o o S m 9 3 y a >.S y 3 * ; A 2 N t t * m a 1 @.S Z f m Z 6.( z , f x 6 f 3 y f z 5 3     * ",
",   # - v . y t O 9 5 X o Z t   o f o % * o p 2 * v o 9 $.z 8 # Z ;   m S j f a f % ; f y 8 5 y 9   5.A m X X *.l o o o 9 n 3 y o * * X X 2   3 y * s.o 9 o   * - ;  .x.} q., a S B ) n 7.B d d.c.t v q.I f Z B v e y 6 v I 8 % - * B . 5 # 9 G X Z u.X d N l y o B z Z 5 d 3 P ; 8 x y ; o a d f   X * o 9   * % 3 9 5 y ,   o 2 ,       9 % o f * o a 5 m o # v o.y ) 8 v B n z v G d 2 o 3 3 *     ; } 8 % y 6 u B 9.t y n 8 v       ) 9 n d a 5 y >.v d 8 o d l n 8 v ) m d *  .v.-.q.>.0.v I N v v B i - l 0.o t N   d   8 ",
"  H t 6 v 6 z > 8 v y 8 9   * X t ; 3 F # t 8 3 9   , X o 3 y   3 # G 9 5 9 d t Q a o =.=.f v Z @.X l.d.0.y i k.y ,   X - e - 2 , 2 3 X   8   ; 9 8 6   9 X   # d 9 m d.S.Z e S H 5 ) 9 n v N ~.u.v v n f Z e y z d e , F ( 8 v d d ; X d Z y v a ) N   z o.f t y t N v d N   3 ; ; , - o X v 2 d   # - * l 3 3 x - t 3 ! t 9   %   l z , -   ; a     6 f z Y % Z 6 ( 6 v v Z z I , % v 2   y * * a 9 3 8 ; *   6 d d.>.6 v n 2 t 3       % n Z n x o.G * , y a 9 X W } B f 9 a d ; } H i.>.Z 8 y ; j u G A t n v l f 9   N d 9 ",
"; 9 y v - N 9 y t e i ; 3 o 9 f 8   N S S o 3 *   o X o   B Z t ;   } * 9 9 y 9 f N f x n -.@.W z.u C <.N , * s.y l   ; , t   3 8 , y 9   3 * 0 , 5 q o o f X     7   5 A @.N I v a q.l @.=.m d - R v 3 y f 2 d f o , z 6 2 t , d Z % y , d 5.G o P , i d I ( v t y 9 t f 8 d f % f W a * 6 v * o Z o 9 8 Z   v m n , v 6 l i X d f 9 3   * * f 3 f   % u x 3 2 v a d.d 9 y N n v z ( 6 8 o , 9 5 , X y 2 *   y   9 } F i n - 9 - 2         >.l o d d # 8 d v 8 l   P B o., 9 o X f f ; v >.=.G 5 d v 6 y ( X   G # 9 t 6.  ,   ",
"2 t e , 2 I I G n I 2 d 9 8 9 z G y 9 y =.t o   N 9   X # 8 f 8 6 H s.P V.W I G A v x :.v u =   l L a % p 5 * v 7.( - ; ; 2 # 2 *   d e G - 9 3 y - B y o 9 u ; X -.R   v.y n W I Z 6 ; m 9 v 2 o m S B >.N d o e   3 t f N d z } 6 2 ! - y n q.t q y f v } 8 ] d d 2 n , t , I X 2 9 5 ; * N # z , $ ; d t X y ; v y Z 3 , i X ; d f % 6   q.f 6   f o   , l f ( O I   8   , - y 7 f *.y f % , N d N # d 6 X m ; v d.2 G t o n o ; #       f a x * f t % t , A N 6 u A o G d d 9 x a 9 Z.R ! i a H y v j y A ; * y 8 l v o   X ",
"N Z f o # d =.I G o.f 9 t 9 N P p   2 m B f t , l t % X X ; v i   x W y B q.v.S ,.d.! m @.3 x d.y 1 I   o v 9 X $.v 8   - X y   ;   , X ; 9 9 b x   ! l.y 3 3 % S u @.    >.>.3 c.  ( l } P d %   q t , :.v v f - 8 % G d N   n f 2 d z -.  3 } G * 3 y N , y # } f i i z 8 , v d X 9 d 6 % n - 9 y d l f 5   9 8 X n Q % t n o v 3 2 , 3 t * v 3 3 f 2 I 9 y a ; O 3 e o 2   % ; y f 9 i f X d 3 d n , t 3 8 X q   :.B 3 8   d d *   9 ; o % 3 l.9 I n I 8 - d Z t 3 * 9 i v f N v y 7 i.A o.# f n l f ; 3 i 3 n t 8 }   *.9 e ",
"z :.y 9 v % 8 y 2 ( N n t o 9 ; t , o d u * - , # t * X 2 f y -   ; f t i   S p p W } c.v B C 9 9 8 Z P . G 9 % =.t - 3 ,   o., X   2 y   2 9 a B x o S t y n o   5 N y X o v n } a H S  .n t 9.I G 6 Z , $.Z I   I 6 v N     d y ! 3 v o N # 9 I t 2 n ) z 2 ; o.n y y l 9   o   ; 8 o d , o o t   y o ;   9 5 d   x y - t v N o.3 6 f 5 d % o.n # o o G 9 v t f n   d d G 6 8 8 y y o o 8 t ; v n X o f # t z X   f 7.2 l 8 v f 3 9   L v ; o   7.X f d ,   ,   8 , 6 9 3 m B 2 f y v = @.v I t v X q y = u 2 2 z d - 6 9 3 d ",
"e G , o 8 i o 2 6 :.y X N   9 9 # 9 a  .  9   9 X 9 n f % v n e f o ; 9 H 3 v f B %  .4 v H n @.S 9 l y S o S 9 q.d , , # 8   *., d 5.*   9 3 L f i   ` v 3 H f 2   u b m o H G } v H Q o Z P t 2 } X y d l , f 9   y B y v d 3 9 f B n 8 6.f l 6 a y G x >.d * @.Z Z n X z ; ; 8 3 - o y y y   v z o   X o , t 9 f * y   , o a 3 B 9 5   3   y   9 d G o.d y O =.f %   d Z y 9 d d ; l Z A d ; * N 8 - A * 9 l y ; o n d y 2 f t 8 9 o 0 S     v N.3 o ( ( 3 9 y 9 8 8 o - y v 2 f i m Z H Z n y W H N l N t 2   f f * * 2 , z ",
"  y z o o 3 3 6 f d v y 3 8 l X 2   v N P } * , ; X , 2 v d ; # x B   9 =   f 9 ; E b 5 x S d ; x v v n S 9   ; } =.y 9 t y * t } X G ; 3   3 , y f 5 B ! v i G - 3     l y ! v Q A q.N l W f ; 6 I X m y Z t z 8   9 f t 8 ( t :.v t f * 5.n f y m A X 8  .9 B B v N 6 f Z - t - - X * , y 9 t t 9 2 * v f # m o % t F 6 o * 2 y v % 2 ; d 6   I G f   P I n v 9 I 9 d y 3 - 8 t f 2 N o.m 9 9   # 6 o - - f l H * 6 A a o.i t H * 7 0 3   3   3 s.:.  9 d *   d Z y H N ; 8 N d 2 n v 3 S P d i X 8   G   , 2 # 8 y 3 # 9 2 ( ",
"* % f 3 X v 9 ; y ( 6 y y 2 y 3 o 9 9 7.l d     9 8 X   N n 2 3 %  .;   ,.  ; 3 n v # x v 3 B 2 S   B R d.8 8 3 8 o.N 9 * % 3 %   *   - 8 8 8 3   d y 9 f d d 9 8 t t X 6 G B q f A A :.W v 3 i a 6 * y 6 Z ; Z F , 6 d f f l H @.n * f a l f 9 A 8 f y   n ; f * d ( 8 f Z o 6 n 2 - * 8 , 8 v { 8 3 3 #   5 v 2 8 8 2 8 ; y X 5 5 d 3 v m f 9 3 3 o 9 ( ( $.h.t G d ,   9 z 2 o 6 y v , ,   6 9 *.t 8 f 6 l t y % X % 9 z t 9 9 i   E Z 9 X     i.9 3 d n ( - 9 ! W 9 y 7.5 9 y Q 5.d R f v G } y N f v 9 * * # 2 W 8   f 9 8 ",
"  3 q.- 8 # o % t 5 ( =.P   Z 2 d y z o.o t t X - t   3 a d o 5 5 d   8 3 f * 0 % k.G 3 X v d.t C v 3 +.; = o f % :.t > - Y 3   ] # z t f f y ; a d ; 9 * m d n f 3 d.y 5 a q 3 9 S N >.} l m n n N d n d y 6 - 9 y v 6 f f y y l t d l t o.n y ) y I t d y f d v o d.Z y z X % , - o o 9   X o f y 8 v     t l # 8 8 S 9 , t   , a 9 8 o , a n ; ( t 9 , o.Z N n v 9   %   I N e o G 9 ;   2 y   N z X z o.# 3 N v   o 8 y ( d d t   m o l l 9 * v I f * # Z #   8 f n m 8 * o 6 7 u p +.H v f t n v Z - A * N % % l y z 3 i y ",
", l d   8 9   9 v e t d , 9 6   2 t ; 3 Z l H       %   -   3 y 6 % t 3 8 * p 3 y n v Z A v n l R d u _ n f X ; y $.I y 3 8 9   8 *   , 3 v 8 ; y B % 8 b x C o ! N N - x o d } 5 * n ! v H 9 3 Z I $.8 n N N # l d F 8 6 y f G W d N t u } ! Z m A y y f X o.d y X G z N l t z d , 2 * d ;     6 i 6 v o o y f e , * y v 3 # = ; 9 o j d d y ; t   3 9 , f m n y Z x 9 - l Z z 2 o.z t N , B o d * y *     F Z 8 9 v X 9 X } y :.f m h.X ; 3 5 g.C f * z   f =.t :.; o 9 9 X - a y E x n l { t 3 P d 9 f z N Z X % 2 2 - X 9 f ",
"- f 8 f 8 ; , 2 9 *   W   d , 3 l t t ; f v - 3 - t 8 e 3 t , o - t 8 * 8 ; 8 v v v N 3 N m A y f x I 3 Z * 5 , 3 f ) l * 2 G   3   o.z % 6   X v f o ;   f u 0.S I a S 8.d   B f =.* A n W f l   n n 9 t t f i v N z G   o.q.Q i H l Z f 9 9. .Q p 9 9 l 9 l 8 8 o d 2 N f v 6 t f X 2 % f t n v e f   y 2 f f d % - 9 y d ; a 9 8   -.5 l a ; 3   9 t X A =.x ( N v d o   o * 8 z 2 Z 9 3 H t y 3 H o y =.i o 6 6 # o 2 * t u.G f S z.- %   % x N N y F d o N * y 8 f X x Z o d = f P v.3 v B 3 } n n z n I o.y t % 3 9 # 8 X ",
"y G ) X y 8   9 3 9 6 , t Y * 2 n y 5 e 3 o * q.3 I 8 * 5 * o v a d 3 * 3 9 9   v n f N v x ) = D m 1 9 P t * X 9 P f Z t 8 t 6 , t 2 - y 9       p :.- o   R i m S Q G l.2 v   Z Z   n q.o.I P N y n G z v v F N *.n 6 2   * d i S ] N m l B W N P N Z n y a 2 # # 3 y - B I f * y # o   X 6 y 9 n f 6 v ; 6 a 9 # 6 3 ; - B ; 3 ; =.v ! e % m v o 6 d f X v } n H } P t   5 a N -     * 3 d t G d F y t z y d 3 t o B - 3 ; Z n + C e.X o   o 0 6 z y - 2   y 6 8 % 9 d m t 9 , d o v d B y =.d P P f v f y z v d , B f G 9 2 ",
"y n N d 3 t o 3 t G n , 9   t 6 8 i y ; 9 8 n y % - v % y , , n y f 8 % # - - t   f v o.R j I % 9 % o 9 f W ;   B 9 9 i 6 X     N 2 ,   f   ,     o   t z   !   ; t d o ; y o X % 3 a ,.-.u.Z P q.l n 6 9 9 z l f N X   a 2   o :.A Z H f P H Z , Z Z G f a , o N 9 d    .i.:.Z 8 * o o X n t n d 3 9 9 y t o f f o 9 9 Z 8 d * m t     S v % o v o Z H A v d v ! 5 ( P 8 5 o m Z t 6 9   n   o 3 o n 8 Y # o 2 G 3 6 8 X * # , 8 3 V p       m x I Y y 9 X 2 v v d 2   o f 3 t 8 ; 9   a y o.B m f N o.Z v t d l A 9 q.G d y y ",
";   y # o y , 2 9 d 9 , 9 X f * N t y ; % X   - I , f = =.b N v ; v f a % 3 ; N 3 y o 9 I 9 7.o t - X y =   f X v S y 9 ; ,   8 8   o y     i ; *       t   I 9 9 = o t L f v ; %   x  .>.L I o.I y d { , o v , 3 d l n o t *   9 = o , 9 w B R n G n P W A ; f n f 8 8 6 y 6.8 v - d X - , 6 n 6 o t - t 8 3 f l 3 f z d ; 8   w v o 9 o P t   3 a 3 } R p S 8  .N 5 d a v ; d F t 3 9 H v y ; o 9 9 , t   N y 8 t 8 8 2 X 5 i 8 d S f V       D 3 n v y n f     3 9     Z ; 9 - 3 ; 2 ; 3 9  .q.N N o.n I t v W y n G n N # 6 ",
"- ; 8 y B X o n , 9 I - Z y y z y   t , z v = v 6 %   S 9 d d.o ; X d 9   f 3 o 8 2 , X y f ) d p ]   :.  # t 2   = m N 9   6 3 - - , 2 # 2 y ; *   d   Z d 6 3 G   B 3 3 d 9     f m 0 0.3.x o.7.n ( !.8 * e i Z o.t 8 X f 3 o x * % 6 % m f x 6 Z @.W v l a , G v 2 3 n 9 t d , z J t n 6   3   6 t   % 9 9 9 % f G ;   y % 5 m 3 X G.X G n     * m i x f b n =.a 9 3 m >., H z n t 2 6 $.9 P Z o t 2 G * d , y N 6 6 , * # 8 ; d 0 ; 7.    .   b $.a * l I 3   e 8 o * v   9 6 y - f 3 X x 3 ) 6 v Z f f N 8 v y n :.t n 9 * ",
"o   l #   2 , ; 8 3 f H 8 , N 9 d % y 9 N S n ; Z l j f . 5 8 A , ; t v d # 6 d X ,   o m - 6 P i N t n   l X q - X 5 a   % B G t 6 3 $ 3 # X   ; 3 3 X # n 2 t 9 3    .i % o x u R j = 9 -.@.Z.:.B d N.t y * 6 { L.e y f N 3   9 , 2 9   } ( Z v 9  . .4 q y 2 d } f e G d a ( 8 O t y l 6 d   f 8 3 6 - # t t 9 ; 9 n X Z % y x 9 * 3 q x 6 o * 9 % v d a n f ! 3 @.x % l N , Z y i 9 y Z l G y , e t y v 9 t ; 3 t , e z z d f y   9 3 j X .   g.} l   8 o.t f 9 ; 9 i   , z o ; 8 8 8   7 m =.9 v v G t n 8 l n f I f G 2 Z ",
"z z , > f 8 y 3 - d 9 9 N 9 - 3 9 o Z % y n G , 7 % B a ,.P d y :.6     v * 3 l 6 9 X X 9 ; e 5 Y     n s.f 3 d y N f ,     2 B n ) i 9 o # *   9 , 9   * X   , d , 5     ; a B B y 9 % b D l.B n 9 * Z Z } - y d 2 v a 8 N e 8 n v 3 f N 9 o n m n S p ; . , z f y } , N n , t 3 O 8 e F I J , f 8 2 F * 3 2 - y o.N d % i 9 f X   v *   9 v n   * B A q.G d v 9 l v f v n z y v 9 ( y 3 n l   Z v y d t I 3 # y l 2 y - } Z f d y = o 3 X 3   5 +.2 } ; y G d v   , N l   t d y I n * 9 o 9 o Z } l l v 9 * f G i l i 9 G f 8 ",
"N - v 6 l , l y 2 o l f ) 8 f 9 , n # x 3   v   f o Z 7 X = 3 o , 7.9 { 2 v * l v } f , l l y c.5.N -.  N.y u 2 e v o 9 # t     % l d ; 3 o *   N #   d       9 N R t =.i.  R 3 ) Z A 3 X 3.y B % o j 9 u L 5 y y h.n 8 Z H n V.R G Z * J.  % v % _ f z 9 y t N z h.$.v N B t Z B B O 6 v J 5.- y * - y Z - - 6 X # N z 8 - 2   ,   v   = =.3 9 n   i } I f d P z 8 S d 5 y i W y t n P f , n a G t - d h.8 q.9 y Z ; e l v   v d 2 % o 6 f   ; = m a n   N y t ; 3 # t v   8 # ; d d d 3 a y - 2 ( N } f P 9 * N f y v G d G F ",
"I e t e o * 8 , - ; 9 # W l v *.y , v 9 3 , t . 9   = 9 * 1 m 9   v G f 8 y v % o 3 } l 2 8 - O >.o n n =.p y d n v o.9 9.6 6 X   q d   3 l n     6 i   ,   o G f o 9 y b.v a H f S p u # , B       o _   u ; 9 C 9 } Z v l I o 3 H G o.-.3 o % 3 v W y ] d } $.1.z d s.d d ( O f ( N e F $.$.O # 6 6 , H Z 2 6 t t 3 3 6 ; 9 6 a 9 l a f 6 X 9     z x f f A x x p ! l n d 3 l , v ; x.z z z o G 3 7.2 N f t 3 t a 9     } X # o * 9 d 2 a   3   c H d.  d t } f l Z l Z o 9 G y y % o 3 2 9 ; # Z W =.:.*.y * v v n G N 9 N n ",
"} f . d Z , 8 ; 2 8 t   G H , N A - t f   # 9 +   o m 9 = * 2 9 f 9 3 , t   ! 9 X v m 9 q N 3 2 9 8 a { z } d.3   S % 9 n y d X 9 a ; H =.I 2     # 2 N 8 3 3     ;   d f c.u E 3 y 9 * y - - * ,     4 w 3 q Q ! @.y t { H n N v Z h.n 2 3 X 9 o m } N , y N n F N e N N } N G O ; d B U 6.I , e - f 8 , , d 6 f t * 2 o z *.G X f H   9 N ,     # -.o ; f l N v ; a ( 8 v z Z f N d L I n t G N 8 6   i i v f 6 6 - 9 9 d t *   2 6 v   d = 5 y x 9   *   6 n , i 8 a % 8 9 f d v X ; P 8 t 2 y 3 N } o.Z h.o y * 2 ( ~ v Z a ",
"} B f f 3 z y } y Z 3 y G i N $.9 8 f N * * 8 y # % a o 5 = o X B 9 , 8 o 9 , v   y 6 I =.l * 9 3 6 :.f 9   % 8 , *   ; 6 1 ] X o - q :.y $.* N -   X   e o ; f   f Z ;   d.9 * ; ; % 2 y y 3 2 #     ! 3 3   v @.$.o.l a v t v 2 v 2 } - 3 ; 2 8 ; ( o.B J z P *.B v a n $.1.1.Z ( z G Z ( *.2 - B % z f 8 y 6 z y , ; z y s.N * 8 l d 9 9 q.5.  - y , o 5 v v H m B 3 a t v v 3 z l z N  .@.3 2 t 9   y 3 W d 8 , - - * i d * 2 f o F o v ; 3   h 9 d 8   e n 8 3 f y , W N z 8 d 8 o   v ) 9 9 z Z N Z A s.9 2 6 N y e g N v ",
"N 6 d z q.n X 3 - 9 , y n 2 S f l ; , f f t d i y , l   , X = 5 B X - l   2 A S , y 8   9 Z I e 3 9 t I N % X v 0.  d 6 t ,   , *.% 3 , i h.  Z $   , 8 v l # ,     3 f   X Z @.9 ; 9 d * t 3 t   L 9    .3.  3.= p.-.f 6 G 9 t t d e } v t l Z N y d } s.s.N a v a $.n N H v | } a d O f s.9 N , 8 . f n N l t f f * 9 # ; P t   # a 9 - % x d Z N   H X   6 a P Z o.e v d 2 d 3 } 2 i. .) } f 9 Z } =.X $.* 3 8 N     n f , 6 y n 7.8 d 9 9 3 1 % f % 8 # 2 9 z y 3 d l Z l Z 9 9 l ; # a N l * e N N x.-.8 f n y y N t t 2 a ",
"Z d 9 o G 1.o 2 ; ( 6 l N f 3 8 n 9 t d f t y 2 f t 2 n = ;   -   l # 2 X d ; f m * i * S   6 # I Z 9 2 y o = m   $.Z  .a N 3 ; Z # 9 2 a o.X y 2   o y v d   o ,   d o %   3  .B   6 * 2 t 9 P 3 `   4 q.f ,   S m P.3.8 b   y $., N N B B H m f 8 y ; U.L r 3 O d F ( N e.7.*.N I O Z 8 $.F d e f * d f N ( Z y F 3 9 f # * 5 y f % 9 v   X * y } , 3 2   % f v x Z *   t 6 y 9 R , g.l C ) o.v S A % y v Z 9 t N.  I 9 ; 6 t y v N ; t.3 2 ; ; 9 8 - , - 2 , f l y f f G 5.f a 3 v f 8 A t d i # f y   ; } l v 1.l n ( t y 6 ",
"y v o ; 6 N * 9 I t Z y t ( t   I * z :.n z y } =.W 6 i f , % . 3 a y o % ; , 9 H q., 3 n   q y ; d n ; 9 5 6 % % x -.0.) Q a 8   2 , 3   G y k.    y I v G e     ; X   ; % m 8 G 9 - v d p.+.A ;    .5 m y 9 9 = d   ; B % v   l v v e.u P d   l v d , v B B ( t 8 v <.m N l.<.N e t e G } ( q.5.. v 9 d z t q.9 G * * *   d 9 -.X X X #   o 8 n 7.9 q.y o 9 6 f f f f 8 3 m B f A f @.9 u f A q.H H  .q.m , a f Y 2 Z   y n o n l y d -   d * N   t * l # 9 X N Z d l 9 8 G I v v z 8 y y 2 v y 8 2 A y l 9 f n N v N t Z f y ",
"% y , - i 3 , - 6.t , t l X y   d 8 d ( o 8 2 v a @.a 8 3 a t Q v n 8 o o   o f   3     7.X y I 3 d l q   y v #   9 0 q.3 } ; t 3 , d * 6   o 8 o 6   9 f t * 2 I   X 2 ;   f z v $.Z 6   = 3 3 B     ` i 7 L 2 % S 3 0 . = ; v o n w 9 a v v 3 f 9 l a , f H n n   + u x g.N 6.N I , , n N G d I # ; - y ( n u.B W X - , N i n R   o   # ,   5 d.a ; m X o 9 f t 3   8 t S x W R y H a 9 m v Z b  .A a d S d , 9 v * e Z f N N Z   ! z 8 Z F *.* t n n v # ;   9 N Z v i ; 2 6 n l a n t 2 v y y y t Z y d Q n l N N I e e O > ",
", , f 2 } W H 9   2 * ; f % 9 o 9 I 8 ; i I # # x S o.d 9 , t 3 y Z z o o %     ; S   9 #   o y 3 2 3 N X f y 5 o H H ;   v l o y m 6 d t 3   * o N 9 9 d 8 8 5 W   d - -.9 t , o y 0.X % 9 9 y   G 2   u a v R 0 Z v o d d 9 n o 3 G ; ( l 6 f f , Z } y v f . >.9 y % 9 a Q d s.d I d v y ( 8 t 3 % % 9 o.o.l y ; % = * n f 9 N X   N o 2 - x B s.6 1.2   9 v B X 3 d   P n f S B x 3 t o j f a } f Z m } 9 8 B - v   I # f 8 f i 8 8 N } i I }   v G 2 8 % y   G I I v =.( y v v 3 9 l 3 9 d 2 v d z a y 9 7.f N d F f , , $ ",
"O . 6 - Q f 9 9 * , ; - 9 o :.# ; G 3 v i ; v l , n p d.d 5 y l 6 v 8 X * , 2 o 3 :.  d n   ; - 8 % v B o v p 9   o 9 u i G l o   y v G f N #     ; S N A x.6 ; o   v a f ,   -.3 a x v   5 i 9 8 Z #     o X     % *   d 3 d 9 l y f N f l f N f n v > , d o., v.Z 8 9 y * _ G d.~ N y n Y o t y v 2 * @.) t f % # , f ; * S p } o 3 e X X - 6 , v o G.} 3 * 5 x.V.3 y   S H f f v i q m f A f Z f f v ) q.}   X t 6   o     v i n y d t o.9 N H 9 N 6 N ; f W ; % n f 9 d :.8 i v - f q n ; G 8 N 3 t f i Z n z B v y &., J 5.",
"; O 6 - % E L.a f , N 6 y 3 } 6 a 3 y   P G ] v v G 9 m i f ; y 8 d 8 N t 9   # ; N   N *.,   2 l y X ;   l * ; 5 9 X * ; v % d y * * f X $.8 9 ; % G 8 % A d x o } % t 8 m   7 B 4 g.Z   ( d N I - l   %   X           o 6.X f   * 3 i S 9 y v Z d y F t N $ y Q *.l a 3 5 S c.c.d y d * t P , 8 f 3 * 6 f v Z 3 Z   m m 9 % o z 3 N n 8 i d v   9 X :.s.9   8 o Z e o   y N % 5 Z i } N a n N m y v d n 0.o ; o v { ,       f % f n n f y   d n , N 8 9 P q.f 3 ; v v f =.n l t N z y y 9 v 3 z d y t y n I } B ) | n a.e J *.",
"m t v 9 X 3 m l v G * , 3 X o o 3 # o , H v   p 9 f k.! m y * 9 y e y # - N -     B o o 8   2   6 9 o l y - f q.B y 3 9 5 o   9 d f 3   n y n o ; s.  8 f % S   o d   X   %   9 v q.Z t e t t ] 9 I 3       (   o # , 6 < j t l y   , y o x 9 Z P 9 N $.N v O Z Q :.* 3 3 % % +.n e l 2 * 8 n l Z f o , X d o I   v 5 v f v 9 i i :.d y d ; t o 6 X , - 9 N y   ; z y e t 3 9 9 o G a N l d A 8 x q.Q @.m y ! N i 8 v -   d n 3 * f f N N z *   % v N z 9 8 y 8 N 7.l W H l f l 9 t 8 Z t 3 # 3 8 G y - ! ( B 6.v $.( U ( $.I 8 ",
"f * z 3 8   f 3 2 n Z   y   N B t d o y f N x y m v d W d.f d t n y 8   # Z z     X   N o       o 9 o * I y 3 f :.G 8 7.3 #   % % % % y v o a   X S # 9   % h.-.2 n X X , f 8 u f m o d t 2 f z y Y y 6     B       X * X d ; o   9 , 8 d n N N N . v 6 } B d N.5 B 9 d.9 9 = o.l H f 3 o A - 9 d y 8 % 9 8 I y 9 9 X q x y   v i 3 v 3 9 t   l %   ; o * f * 9 l 8 f v Z - y -   W n o.v t n u f o.d d n N W   d Z t     y 2 y 9 q y n 2 d y     } * l 9 y , d t t t Z I N f 8 9 y f y Z , o G a t d z B 7.} v I f d } ) f v F ",
"B O B 6 8 R w t 9 N     8 8 o F Z 3   9 * N -.p % C v i ; $.y ; n N 3 y - X 6 ; o X o X t o ; o   (     v Z y X Z t 8 i } B 8 o ; # % t =.i , y * ! Z 3 7 % o m 3 v Z   N d C  .f n l 2 o G   v 8 o t s.y 6 * y -   %   6 % 2 8 G o f   8 f d y Z I . y a J 9 G X d.f f ,   v :.i d.d e o Z z v d   d o # y o H n 3 v 5 3 l 5 1 y t *.o v 8 3 # X   ; o 9.* d   6 d 6 y 8 X 6 3 3 * 9.9 l n 8 9 9 o.N 9 G v v 8 , X 6 N   I G 8   9 9 2 x.n . N   q.o q 9 8 y q 9 6 7.Z =.Y $.y y n N N d 8 2 d 9 8 d v n Z G B d d z ( ( U n Z ",
"N e N 8 . * -.*.d i z f N f 9 6 N N 9 y 8 f u u , 3 x 9 G v d 3 t 9 d d z F - - % * #   N     *   n 3 3 t 9 Z y S 9 * ; :.5.d 8 X 9 9 v -.v Z 6 3 8 ; 3 o o   z % o i B v 5 9 3.  n   l ( * * Z } - v z 9 9   - o 2 e   u =   ;   ; * X z % l   v l   - N I O 8 s.9.h.l.* o Q H Z f k.d 2 8 9 W - y 9 , 3 ; 6   S @.u a v   p 3 S 3 9 % 9 - N 2 y ,   * y - 9 9 m f 9 n f f 3 - , # ; ; v A d S , n :.d n =.o.d 9 8 G l H ! N     i P % y N N v =.} I f 9 8 9 3 ; 7.W =.v.d G z 9 9 9 N ( f d Z f 2 z z y l } G v N 2 n v G } 1.",
"( f 9 O * y 3 d.e t t =.t z y , ; P 9   0 m m m % 7 9 9  .:.y ; y N t y e , z ; I * ,   8 *   y   X 9 t   - - ; N +.y % +.S * >.9 B 3 o.; Z n ! a f x 0.,   f z * z o A i.S 3 z n Z   e F * N Z I k.y   z * t 6 y y 8   ;   % e d , X z   y N   X 9 # , s.L.( v *.c.t 3 * , v B u.s.Z e 3 e y v 8 y v o 8 8 - 9 f N v N Z H a B p H B } z 6 3 y z # * 8 # X 9 % * -.- 9 9 n 3 d 8 2 o   3 l A ( ! l l N n G :.n - 2 d m d.N - d n 3 o B 5.N z f o.f I q.P v 9 = o a @.u.d.:.B G n 2 y N I Z f o N 8 9 * 9 v l N f 9 6 ( n P l I ",
"N - N y $.3 a 5 N - y ; t d % B y 8 v = ; 3 d o 6 0 v 9 f x f 8 X G y d X o f   t 8   % i   8 i   9 # l G 9   * % X 9 v % 0.@.E @.  o.l.Z t I =.) ; B 9 o   2 6 %   m 9 4 2 y , y     X   N o % X N   h.  ; y f     8 t -       Z 9     *   8 2 ,   t n 3 Z.f -.* S.  u.9 2 p H } Z f f 8 f - z y l y # o * t S p n 9 } N Z l u H S f   h.v 8 n 8 9 6 - #   y 8   X H v y v , - v n o % % 9 y % A a :.6 N 8 y   v   * x 7.n n Z t 6 l n B N d.x.9.M.o.o.V.a f G # p q.q.l 9.( J n g f z o.} 6 X 9 ( v N f d z d 6 t - v G B v t ",
"* 8 B f ~ , 3 i } d 9 * y Z z z t 3 , j y v y f Q m d.i C :.9 , f 8 - t - y f   y 9   - t * t # o d % ; y v 9 a ; 8 t W n ; Q B m =.  B W 3 i Q i v C S 4   t 5 P , D l 8 , d d   - 9 ,       z 9 n 3 N   d 9 y F y 9 N   - 6 t   X X       3 d 2 * 9 t 9 B o.3 o d.v l.  %   3 3 7.t Z 3 , * n t 8 6 o 9 2 d , 9 ; X y N , s.o i 3 5 9 >.2 d 2 o   I % 9 o n 9 9   o.d Z 2 o.* h.n G o * % 3 9 2 9.m - A l a =.i y = ; -.2 9 3 y 5 9 S d 9.c.v.l.z l.l.Z.9 v v v 9 S m d.o.v.- z G $.N f z f   $.; H 3 v d 9 v 2 d } 9 9 ( *.*.",
"t 6 z I B . d n , 9 d y t t v n 9 N f f x f d x B.u P p = ; =.I t 8 e * o y 3 3   ; 2 , , X l     9 X y ; a 8 f 5 o f 9 3 5 m 3 S i.9 t 9 B 8.S 0.v H f s.l , = X = v Z 2 G 8     - y 2 2 o G ;   N 3   v.v N y X X z l f o 2 y * X o X   - t i 8 2 - , y f 9 B 9.H a A R d x u -.@.:.3 }   n n d Y m 3 y 9 # 9 5 # *   9 y y ; l 5 a   8 o l 8 3 X y % N * 8 * 6 * o z 2 3 X 6 f G n v X d y - 2 n ) 2 l   A q., $.* o 9   o ; , 9 u % 1 S B d I 9 9 ! 5 v d P ! L H o.! v.1.6 3 6 N Z 8 Z s.3 n o.v H t v i d 8 * y Z - d 7.J ",
"2 , Z 7.f y f =.f d t 6 t a n z n @.l 6   v m u 9 x -.l W y 9 N I G i Z 3 3 9 t   , - 2 , f o f   # y y y ; f f z   # o     X   . 5 l.m l.v y 0 , +.f $.I a q 9 = ; y F 3 8 i I 8   G X 3   o.  o * - P Z   a 9 9 , * y v 8   8 -   # o   t d f 2 z y . 9 } N O 9 y -.D.H #.x @.5.=.x., (   3 W y m f 6 2 f 3 f 2 8 , Z 9 9 n 5 3 9 * * *   d 6 6 2 * X B   - 3 X N @.I 9 N N 8 N y W :.- l y 3 f G 8 a ; f * R ; * X y X #   * ; % 2 v X x >.B >.B m l.( ! $.2 y v j o.q.0.6.f t 8 x 9 Z 9 Z G G 7.*.i 3 Z l n t   v t 9 t s.t ",
"% 6 O y v B t N d ( % t d B f a 9 t t d X o 9 # b 3.A 9.t 5 N - H d z v 8 t t 3 t Z -   S t 9 y N n t   d * 3 2 6 ] - # - u   p     f y   9 C N 7 m z e v >.9 ; ;     z d f v t f 6 8   8   H   * 8   a W {       *   * - d y 2 #   ; , - # d d t G   ; 9 I 9 O 3.v Q 0 m S  .Q n ! } I X d , z A - G f 9 t 9 3 z y y H n Q P x N y - d e f n X s.o %   Z     2 -   =.( v 3 n 3 , } - ( , y O g a s.f y   y f y f Z o 8 * , o o 6 ; % w * . o 9 b m 3 n d ( ( $.y a a N b.d.G n z v v 3 y :.N H v S d.L.e , o.* ~ f * e o.$ B Z ",
"y % 9 ; f d y t I t =., t 9 Z f } y t f y t 9 2 % b x v 9 Z , n d I l e 2 :.( t   o   ; 9 I   6 - n X 6 a 6 % 8 d t o #   + * o.  d =     j m m f f a n m -.x d * *   d y f d 3 9 - 6 6 d v y 6 o   -   i v X o G 8   y ; % z B o , , * 9 d 8 8 t f n 2 > z $.O -.n o.3 9 H @.d 5  . .n ; l k.v l f y y   o e e t v 3 3 , x b Z f s.y N W d   9 , # N 3 a 3 9 % , 3 d t N l G 8 z % a l B I ( d , ; 6 y v %   ; N     G e y 8 - 3 o     o X 3   x a n d 9 n $.O N.e a C 0.*.v n z n i m ; f A l 9 n m m l } o ] o.F.1.* t 6 N G ",
"6 n O y N z 5.e 3 d G 9 , Z i d z , , (   d.9 E +.v a 2 l   i 6 B 3 6 t 9 d S     * X   3 { o f 6 o.9 8 ; 2 ; N v d o *   1 = m  .8 o.- ; Z ` 3.3 n 9 9.Z Q x o.G t o o 2 5.y t o   3 8 v P F t 2     ,   t   3   f - -     9 f n * 9 9 - f d f d N d N O y 9 y Z m f y R W m v a A S 3 * I.D.G P Z n 9 % n   n o 9 5 3 # d , W 9 y H 7.9 v 2 =.$.3 =.    f y % * 9   , X   ; - Z 2 a 9 P $.7.6 , , . 3 f * o d f   d 9 , 8 3   z 9 3 o z X ; Z a n n l G 3 B f v.Z 6 m n , , v y G , N n 3 i W S o.Z d y o.f   f t.8 N N d 3 t ",
"9 z t - $ G s.y G t } N W n 2 , o.  Z N 9 2 p _ d.f a 9 f 9 l N 9 i 3 v o X ,     * d   W * 6 X N =.i -   y e y N d o +.b } v }   F f f j C ! 0 I N x Q  .@. .( ] t.8     l z n   t , o f t y } n 2   t n   s.o 9 2 % z   y * z v 8 * e *   } Z G - f 6 f e , ! x 3 9 m -.W f m A l.f y x o X f Z   d -.8   v 3 X z v # * , o v - * t d f f ; 2 P t n # o t d N 8 l * y v a , -   t t v O d.} I 2 O $.- 2   *   y * 3 y ; Z - 2 l   t N 5.X ; = i o 9 3 v t , *.g.@.x 0 B 2 * 9 8 Z Z d v 8 v a f 9 ; n Z 8 9 y 8 ; ( B . d 3 . ",
", z * % $.a e - f n v 3 8 f y B 6 2 8 n =.z n j ; 3 9 y ; 9 8 f t z N ; y l * t # , 6   # 9 v ) 2 d x o 8 9 , ; * o # ,   $.m f o b t ; e.o @.9 f o E ; R 8.* z f v N Z t v X y } ; o.d l 9 B v   f l     o i v X X   e 6 9 t 2 i - o , y   d l N e y 9 - Z ) ; m y 4 u y R 9 * o v R d i v } # 8 - y a G t 2 9 8 # l z P o , * X o.o G 3 v d v ; N d *   3 9 v y 9 y v 8 2 N f 8 2 9 - n *.F B e O , 3 o   a 8 X * x p -.2 f v X X l 7.o t %   8 I 8 % - ) . B o.Q 1 - *.3 3 8 8 n y i z i 8 v Z f d v N 6 9 - 2 v o a n 9 O O ",
"6 . . 6 =.z Z =.f Z v l N o 8 f v y 9 m u A +.u * t 3 i o - f 2 9 9 l 8 3 X B   e # 8 ,   *   =.N.n d.X v W 9 y , % ( X b.0 f   a m   d 9   o.9 i - A n j -.a z t 8 * y N v t N v 2 t :.2 6 f t Z N t *.- # y N d ( f 8 z   y %   t a 3 - t %   I Y z * 6 L H , _ B  .x p o % y   y 3 o Z v n 5 , 2 ; 9 9 t f X 8 * n N N f o   q 2 9 N d t 8   6 l d l ; B 9 y f v v l n 9 v f 3     y o.Z z v * , #   * * 5 o     9 d H B o o o % h.3 2 d v * d 8 n 7.X o S m -.z 9 a } G 9 8 ; , f y d v 9 Z B v n P a.l t n n 9 o   Z 6 t f ",
". . a y 8 I Z 8 n S n z ( 8 c.N n d.A y p _ v =.- 3 t 3 ;   v v % f W i 2 y e d       % t 6     G % d.e 8 =.; y G X #   -.y >.X 9 y 5 3 A.  d , ; d.S 9 m 3.S.l l t Z v N v f f d G * H f 8 v f , f f n 9 v 2 9 z t ; v 6 - 6 , o # X 9 # * 2   o Z f v z i.: o.m =.x * - o 8 9 X o } o m a f   N :.9 o y n 9 % G * # * y 8 , X 9 l t z 9 l , 2 z n z e 9 f ) 9 * d 8 v ; l n - i y o 3 f $.d , y y 2 # a *   ; 8 3 % y f 0 t :.l z * * N.( y *.y 8 9 f v a o n :.I t a v z N f 8 y a v l 2 t t I y l N o.Z v 3 a B 9 * t :.N y ",
". % N N d ( a U F J v l 6 ;   v   d.9 % i.Z s.d 6 , * o % l m y f - l % v y N 9 3 2 X % , v ;   N.  o.A *   t i v   3     f c.N   V ; s.    v 9 9 j H a b p.h.  z t N Z l o.2 9 % ,   v G 8 t l 8 * y v 8 Y y 9 z a 8 Z z 9   , 6 I v 9 - ; d 2 t I N 6 J Q.k.q.z q.} y 3 9 8 2 f ! o.  X f 9 N =.P G % d 7., 8 9 * 2 i f t - ,   f y t Y 3 y * 6 9 G t *   f 2 % d , f a S n } y 3   3 3 f 9 * 2 $.6 v   6 3 ;   9 t a q ! P f X - 3 f N N $.i G t , 6 a   f f ; o v % 5 :.=.v N 9 m n 2 f y f I 6 3 f G H y i a   % 2 9 I * 6 ",
". O O O e ( I J 6.k.d v v O 7 o # f % m A } R B 6 f 9 n o , x B :.X l v 3 6 ; G   d   X 8 8   9 * l y ; l 6 X S f 9 e   B   p } u   * ;   d 9 v   3 x H 3.  f   i t l B Z Z f 8 o.    3 P F n I * * d n q # y f n N z X v y # f y   y 9   - { X 9 8 8 ,  .N 7.7.G *.W G N I z y   v v s.8 X   v f B o.o d d d   d - o o y 6 v t 9 9 3 } d P 9 2 , * 3 z 9 , 9 =.3 6 P x  .a f f t n # 8 y 9 , ; 8 2 , X X v 6 , o ; * v d y Z t * * n   N P N t 5 o t * e v $.9 # 8 3 # o.9.( Z n y n f f v i f t d y 2 } ( * 9 z o 3 9 8 9 v d ",
"e . d g z $.1.d N I N 1.f 8 f 3 o o m 3 m ) } q.v y y X o , q o y f v Z v d z =.N :.  t   v 6   - 3 } W d t o v v 9 N   m   S 6 X     9.m d y *     B V b 0   l 8 I i } N N N l I   o % y Z 9 i l n G n { X # o 8 ; I d.o 6 e *.  8   X     2     , e t I 7.n 0.B G n H G f N Z   y % 0.s.  o o.a , q.$.% f N   z v % # y 9 - P y l e d   z f { z 8 a v f e o 8 9 n t 3 ) 7.v 2 Z 2 o 9 I G 8 a d d - t y % f 2 * # %   o 9 d d d   5 A S * ( 9 f N o f z f N 6 3 % n 9 ;  .m { ( f 8 n f l t q N 6 t l v h.* 3 z f o 2 z f t 2 ",
", 9 z f d z f B 1.$.( v I B a B 9 # * 3 R >.) d.; n 9 t n - 9 * 8   o   l l % N y l   ; W z , y % o.o P 9 e   5 0.d 6 # o.X u <   X u Z , v p 9   5 a E G 8 , y 8 G F f 7.( a v Z     % l y G v N Z N l o.X o     * v 7.d   8 a 8 z , # X y * %     8 X Z N q.S =.:.t f t l a f   z B -.B.  d. .f 9 3 a   l , * % f 6   8 t N a d B , 9   Z 9 - - f , t y 2 3 l i l y ; H y 3 f d z X d Z t o.N :.- . 9 N X 9 a - * 9 * f 3 l Z l # ; 3   v V.t.V.=.I 8 t 8 N 2 8 % i G o Z :.$.:.n t d N N 9 y G f N a G v Z i , y * 8 9 t Z I ",
"t ) I , O v 9 F $.e O O 3 N . z.; 3 3.3  .+.I n f i , 2 * X   9   , - 6 n d y Z f 9 -.  X o y 2   6 *   Z Z 2 o v 0.o 3 n :.; f     i.b y N ; 5 o   #.q.y 8 d 6 v z 3 G =.n l Z t H   3 f n Z f n { Z N ]   ;         d.v   X 8   a d t 2 N 6 # % 2 t   f n n 1 = c.P a 5.v H d o m f u -.  >.) m   } Z 9 ; v y % d 6 - 2 y G J { O f - Z l 2 t N f 2 X 8 n 9 n X l 3 p 9 6 0.t o y G d d Z I v N   t   3   # y 9 3   o 9 9 l v I Z l d % *   :.d.t 9 y n 3 t 9 n t o ,   , 7.N Z n 2 v n 9 y t , n 3 * 9 N $.- I 6 y 2   e :.t ",
"! ( f > *.N P =.f f O N 8 y * . -.  I   f d.>.@.Z q.8 9 9 d ; I , * # 8 % - d } d y d.  a # 3 - a , W l   6 3 v , H e G 9 - % X ; f 5   y E %     ,.p.  H e t 9 n d f v 5.Y 3 G z 9 3   l v n Z d   f a G - a N.o.,   v   l , 3 * * v   y t ]   2 * % y * = 3 6 u z.; G d.:.F 9 - ,.% S h l.X  .@.B * q.G f G f t * 8 6 } v Z } d , . ; ] X t 3 2 l N *   7.d 9 8 9 - l R 9 a W o.6 G ( l Z Z v X   N   } * l Z ] 2 ,   X   # v n 6 v 3 ; o % 7.l y 9 , N y v v $.9 - t 5 , W 0.G $.G f N 8 y 6 9 v f i 9 i d A , Z   @.I a ] 2 ",
"V.v a O N N N I a.f 8 o.G y t % *.  t m -.3 ! G B P l n o d e , y 9 - d - f n Z G t }   d v N.8 3 f   v   a X * f H e l f x S 7   1 X f d f ,   H g.B 2 , t f 2 N z n % 6 y G y y 8   ! ; } Y l 5.:.N v Y s.  7.- # X   o d y 6 , X i * ; y 6 6 v N X a . 1 u @ 3 m E Z G G ( ] ; u v _ -.C f ; @.u.f o.I a a W v e Z N } v 8 I d O .   f y o * X Z y 6 % a f ; 2 m 8 * m N W ! B 3  .I G , 8 z 3   q.  W 9 , % o N t , 9   8 a Z ( G v k.7.  m 9 f v 6 z - - z i -.v 3 2   W $.N h.t 8 9 ; y 8 l z 6 9 6 , f - 9 v o m d v * * ",
"y e e z O 9 ) y h.: : $.( <.m 9 B X i f d m x y o P t y t 2 y a , 2   8 # X 9 l Z 9 n y {   ( 9 d 9 9 u.% f f * W C z - f d +.1   9 >.9 6   o   + t   Z 9 ;   ; l v z =.v v x ( X f o   a Z *.d A v G d f N 9 X X #   o S n f G 9 d * X 6 8 e o   = - j 9 7 * , a * f s.I G n z m B S ! x E x -.v F.6 s.! l Z v n f N z } 6 2 B 9 t o   2 v 8 2     5 8   Z x 9 a 9 y y u R m f d @.Q P f f 3 Z I d Z 8 ; f v o # t y v d X o 2 f l * 5 * Z 2 Z ; f N n n n f 6 f j S m 6 o o S H ] I f f 8 n d N y 8 * v 8 } t - l v   6 N . d ",
"9 * . t v S J t.k.e O 9 :.1.d q.* - X 2 q.9 f 8 l o d.e l N X l 9 e d - * 9 y N =.8 2 , v.y   , , X d ; Z f t . 9 ( v 0.8.j 3.* . m X o n   5 C -.- - o G o 8     S P v v N u l 8     v 9 N N.} l d ( l   3 a   -   X - 2 Z ( z - G #   3 6 , d   5 4 5 u  .O @ 7 m 6 9 =.*.t l 3 B B B E -.P b.N ) n l.G t H W I 8 B n f o - t 2 2 ,   *   9   y y n o % f a p p f d m 5 u ! S B v #.n *.; =.t d 9 H f Z 7.  o v :.t 8 3 o 9 # - = 9 8 i n S d # 2 y S 2 8 f , 9 L d.W H S Z p A H :.6.v f } 6 F l y d a i t z   - y n   a 5 m ",
"y , F - t f Z <.=.} y 3 9 a.G ` * o   f ;  .9 o.# 3 3 8 f N * d }   y , N d N v ( t   y s.q.f   X 2 x Z o N =.9 3 y _.9.# B :.l   6 -     6   4 D   t 2 N t   o o   o.i q.s.; * # -   p 9 f N N Z n l * , t t d - *   o # l f n * ( X   * d 9 - x 3 %   d S , f f > 6 $.; ] x v   p d 2 = * u L   >.A d.Z y f ( n 8 f a a # * , ;   N #     o t   P I 9   9   9 f i 9 m f y 7 S m 9.m N y y a W 9 * h.3 N n } 8 A i v n f G % 8 y B f 9 S v 7.M.z t G N t ( f t 3 +.v m v H Z y a 8.@.! } =.6.  v f 6 9 8 t i y * f   Z . e 8 @.",
"( f 9 % 3 8 O y ( I e 3 t I o.X } 2 f n f f ; P 2 9 d A d } y   o   ; o 9 , ,   v t   -.  Z 6 3 f # #       N 3 t O O   3 l   o , ,   2   6   R 3   W 3     2 d X   Z C 3 9 # 7 # ;   a @.A d t e d 7.9 _ _ z.c.G.o (   3 a y v d z t   2 f N 6 , a p 7 f y 7 3 3 @ Z.O m 6 A G   o   y - - 7 Y o Z.S.) z @.P h.y f 6 y y     * - X y d o t N   -   q.- % y X d x y 8 v a m a 7 v m Q ! m -.x y N ) Z v m v 8 o.l 3   l y l 3 2 * y - n H Z v y P n :.G f 9 d A y C N P A n l i 9 B S o.u.q.7.l Z y t 2 y 9 2 d   * t # 3 ; O v ",
". $.8 * 2 t 8 W v Z f f 2 <.m o q.x 9 0.f n X 2 * i N l 9 P f 2 f X * * y y y * Z , d :.:.5   a o *   o E a v X g.b -.Z 3 2 d   , d o   ; ; B   +.* * X Z   =.y o     9   ; * % ; , ; u D ! N 3 x 7.u % 8.3.r.B.  y -.v t * S w 9 d v , ; d n y i 3 % x f = -.y 7 C c.( S X @.s.f Z - 8 * # 5 9 , j x z Z ! N n N d f y f z * o 2 ; d 6 t d f   y 9 $.Z   G d i l   R f u u o.m x f m  .Q } 5 Z } v A z f G , N 3 3 8   n 8 6 , o a 6 o   i , * X l t ( 5.8 m d x b N H v A P v v 8 v a y =.n N =., 9 t n 8     - o ,   3 f 3 , ",
"2 N t 8 3 * . n 9 } v O t   3 o f   x l x }   9 , o y 8 3 G Z   * X ; ;   v - 6 3 2 d t >.  2 9 -.d ; j   4 9   7 0 9 O 6 7 f 3   l   H H S j j 8.6   X   2 * #   ;     = 4 j y 9 4 j  .. C ; % j o   u G.1 c.d   D.o.; 9 v l o t v e n # ; ]   ) +.4 o a o.m B m S.e O 3  .b.N G 8 N v F R x     n } Z } N 3 d a t } v n 6 * e - , 8 6 8 8 t ; ; e e X X 2 m f n - m C 0 +.x 7 f f 7 Q m ; ! a S =.I G l v I N   9 d - v y d f o y 9 f Z % - f 6 * y y m y m v 3 = ; y v v m W I ; f d y v A 6 d - f 6 y Z n   n * 9 3 8 9 y y ",
"# a N y 9 2 2 9 z > I v 9 B d.D u s.@.l B d N % y y 9 v 9 n F - v $.* 8 9 o n   , 8 ;   N.5 5   I y 3   o L 3 } 5 . D f q.f N , o e * u p u D ; X ; o     d   % N 9 o     v q.o.  c . 9 b 7 B.m o E u 0 8 v 0.v   Z =.b t n l f 9 n } I # o d 9   w.C j r m 6 F.m 7 y $.z.l.0.g.H o o.H   x 5 ; ; 9 v N } 7.6 f y n t l v 8 t e - 9 t *   8 2 # d #   # * Z ; l d # H m f x b f S a u ; 5 y d 5 o 5.} z y y f v . ; ;   z y f P v   =.y n Z f 9 a 9 o N x m 8 S t 9 x a 3 n = -.n I a f v N *.8 3 2 I v X f t y     *   3 t z e ",
"8 2 $ y d # N F Z z Z t % B b Q L j H ) $.y l , 8 o t v z 9 (   Z   * o l 6 o.9 9 9 % 9 y   t 9 m f 3 9 y 9   d 9 % f a Z   k.* ; 9 = D b x Z   9 X   9   , o t i 8 Z     x _ B C V C % =  . .S.o.; , * % u 3.9 X N * R , m 5 y 5 y y e l     *     8 o ! B 0.C v 6 H , -.C  .C c.l b y 9 n y N f # 2 N 7.( o n 9 a y n N N 8 X 9 f 9 8 9 # 8 d d , o   8 $.8 x v ; A S +.m -.B 9  .B 9 p 9 i.* X H N :.i B n , I y 2   - - N t N   Z 7.f l N G a y   } t N v x t 9 v ; N l q B 9 i n f d t N z 2 v P f f G l e - o - *   9 t N ",
"f 8 - v G { 3 y ~ , d v.3 c.V S 1 u x v } n 9 t , 2 8   d 3 v n f n t     9 , % t   =.; X B :.d   ! X =.l l 2 Z v ; ; 7 B $ ,   , x j o   Z Z 9   o %   , o   n 9 2 , # % & 3.5 C o V     l   C + 9 3 S   ;    .S   # 8.3.9 - =.l 3 , ; a Z   <     B m B d  .v B v O 9 x o.b f N d N n @.; N 6 m o Z d N I > Z d t t Z } l , o z 3 8 8 - - o 9 , # 8 3 Z d - * v ,. .L Q j o 9 u u 5 _ m v m H   ! N i d f y k.I o 6 # y   Z v d o N ; v y n N v - } f x d N m Z m l =.y v f f o I n a Z t F , t 9 2 d G Z v z   8 y $ e 8 8 , ",
"y v * v 9 n f t x N 3   B 5 u % -.L o.i.>.N d t v %   n f v Z N o % ; 9 t   9 t   o Y   A t v v o   v R n % t -.=.9 H S ) u 3   v d ;     t z v   , X # , 3 - o   o   5.8 3 S f u % = ; 2 u t u 0 % m -.d   3.` L o _ + 9 B b @.N z % n t   f   9   R A.-.R A.o m S n 9.6 a q   d B b.v l - Z o ,   9 # 3 v ; y N v v z v N , 8 n 8 3 , - ,   3     y 9 W v y % S 9 R x m 9 a 9 a ; , 3 v % 3 a ; v 7.( s.N ( *.N v f t X ;   6 l , n X B ( ;   ; 3 5 n n N o.=.B A N :.f v f d d B H * i N d a 2 6 2 a I ] 8 t v     d n d 3 t ",
"Z   f t , N d y f 9 v m P b Q   ; z.@.u.>.Z f , 8 l ; * , i v o d v * , 8 y t d t 9 5 6 ; * v d  .l     d 5   o 2 a S O ) J ; # # N 9 d o   # } $.  Z   Z - d   3     t   . R i p o % x 9     b x r.f % d.  ` q.= x m Z.n Z , A.H :.8 v y   >., % X o X E `  .9 ! x S ! O 5 m   a Q A S ( *.( v P I t   8 P ; o F v f n v y % f l 2   X     8 o o , * 9 o v - = j = m w m , ; * ; 3 o % 9 v A k.9 f ) h.d.N ( 1.q.f 6 { =., . 3 3 Z n . k.N f   2 9 9 A ; f m N y :.7.A d n 9 m l P 9 d f N d y 8 y y z N N n o.      f # 2 t y ",
"G 6 ; ] y   * o =.) o v 8 R d.  m R o G N H 6.G , * 2 - i d l *.- 3 , o 8 - , o 3 o * S ! 5 3 9 - 9 o 3 X   o 9 ) -.v d ^ ; e ; a 2 v :.# 6 3   f t   o 9 3 * * y   # %   o 9 ; * % z Z * o   L @.0.9 3 -.  3.c.9 p L   S +.o * 0 I 9.2 P.  c.- o   S u b c.H v m h.y ! a y v * m 1 v S f I z y o.I 7.- P d # d d f y f y } N 8 n 9 * n X   o   *   * y m y x 0 x   d ; n 8 9 3 2 2 - 9 x y 9 f 2 0.B l B B P k.v.q.I B y y t f v f v Z W a.t o v   B Z n 5 3 ; n p B j S } 9 l N f - y 2 3 d I ; - 6 9 z v f n G 9 I 6 i 8 f ; ",
"v I t Z o.8 d * d 9 % N n 9 +.#   u f v I B :.Z   , o % *   3 o.; d 3 o N X N o , X # v - # 3 9 8 t * Z   E I     y . 6 f o.G S 9 o 3   y ;     a ; % * % t z 6 t X o } 9 j y . o 2 2 5 o - 9   v i.9 g.w 7   +.p.4 b   u     Q A d } -.F.t   3.3   % p = v >.S v o.. H 9 e N * ` o.Z Z i t f y Z 2 d.f z f n 9 v f G y y n o v 8 o * - X   8 X     * y X d a 9 %   i 3 N a f v * o %   = = 3 -.p f Z N N <.a.y d.7.n :.0.f , O } v y l a G I 3 ] X 9 } v Z N f ; 3 m a P 9 Z f G , N } =.} v q.X ( y { =.:.N N n N z v d o d * ",
"9 F     8 2 X 2 a 8 v d.  f  .3   w d _ ) G y N f # d G 8 t   *.o f ;   , l G 9 - 6 f S # n   v d z 9 G S 9 ,   9 ; =.( % d a * ; X * d 5 X     3 y = X * X f % ;   *   * , 4   6 8   v o ; o   , = = f m 3 u C f p   c.     .b 9 y p u.0.f y Q b ,   % % x 7 H m d.9.-.3 f -.* 1 G o.Z f n y a 2 5 Z *.d G y 6 d t ( 6 f f t t d t * 9 o o o % %   f   u n X X # o 8 d i 3 y ; 9 9 % N x a o S o.a m u u H v.Z z 1.1.P k.g t t 6 f N * Z o.n ; l 8 ; 8 X 9 y A   y H A z =.l i i q 9 9 t N f 8 9 z d , G B ] n l n H 8 f   ] o ",
"2 s.N l m Z t ; l 9 n :.:.W 5.n X = b u P.#.v d N y Z Z v , ; i ,   5.f 6 # % e X   d.o m 9 3   * 2 e d N 9 d o   ; * . o f =.n     # #     ; y o   % l 9 5 8 , d 6 o + , 3 ; e 2 f . &   v 2 _ % 4 w R  .Q u 5 < 0 S a @.S S * H -.b _ d.4 f   W -.b u p c.4 m b B o.o.9 y :.# -.y v s.t N y 8 # * a l 6.; v 9 2 Z d W W n 8 z   B S Z y   2         v d Z N -   o 3 v 5 } f a 3 8 9 n # x f j 8.B x H d 3.y I d.^ M a.F.l , O 6 t l y N 6 W y Y A f 3 # ; x 8 P X Q 3 ; a m 9 n 5 n 9 m ,.G 9 8 i t ; 2 =.I v Z e v 9 - N   9 ",
"  9 ( ( v Z - 9 o   H Z v v t y o   R 6 C B ! d n l z } f } t o o 9 9 8 f     # d y # b.G 9 ; $.t 6 , X X 3 - 8 - y $.  . f - $ o * , -   , o   X v   %     . % 9 9 f    .6 B 9 8 0 ;     v ;   W p u m   9 ` 3   o X 3 ; H 5 l.Q a   u m 9 o o + x y m p z.H b u P   -.% C m = a Z v 7.$.l y 8 d B   q.o.2   N o 9 3 W ( v B f 6 8 N   ,   8       8 3 y z 2 v o # v N ; , z   X 3 ; v m 5 d N x @.v 9 b B.m <.>.d z Z } s.v z o   d f Z 2 - Z P t $.y   9 7.2 P o P 9 9 N b.z , c.l   m >.h.f F y t ; y Z ( Z 9 3 N d X   v 3 ",
"  o   Y 3 o y * 3 ; ; G f W ( f 9   ` m S d N y d N v f Y G d I v % % * 5     9 m G v 5 , B o.S v 5 9 6 9 2 9 d   P M.y f d v 8 # v   ; * %   o 8 , 2     # X X o X     p f B u v ; f . u m Q   o u 7   + , 8 , o   3 b     D E m 9   =  .+.1 N ; o 0 >.b 7   d b  .o ; o % z.* S d v 7.7.* z d 8 #   ; W k.* 6 n d o   :.v v 9 t t l t o i   2   9 t 3 t o 8 L y y y f d 2   o B v   B p v 3 N a , j v <.b g.y , a.P - t n 7.y   % * 9 - P t Z o I n }   9 l n =.v   - ! o.e.z M.{ a i d o.6 f n o d , ; } Z F 3 v z v d   2 y ",
"8 t   o o   n P 6 9   I n S G 5.v   x #.-.; a d N l d y N v } 7.Z t 3 3 m o , v P # S y 9 A m B n i   # f , * * t * e 2 2 t O - 8   9 X       X X * o 6 o X o * *       7 d.u 4 S a a   3   p %   m 3   o   9 N ; 5 3.S + = y ; ; m   1 m -.0.; 5 % 9 R S -.m u + 3 I N o + b y ! @.9 Z A d n 8 y f y S Z 7.n d v # 6 X v v ( G t y d t   y i 9   n t y N * ; f S } ; i } 2 X % X N 6 , x p 8 ; l ; Q v 2 S y N , n a 9 l d 3 X N 3   ; y Z d ; n 8 d 8 t o 3 3 ; Z } * y d.c.7.S.9 t 9 p.N N l A y 9 * n N v 8 n 6 l N - - # 3 ",
"3 z 9 v   5 5   B i o d d ; 3 -.y , m y o.% Z 8 2 } l y I y N P :.G e 9 , ; 8 n o.Z 8 H ; A @. .; , , 9 F * 9   v # , t - v a O f 6 9 9 - *     y * * X * o *   y X   X 9 #.y ; m t ; 1 ;     2   d.+     +   % .   V 3 u 5 ;   *   X % x 9 5.Z 7 9 4 l u w C 8.+ u G f N o ; 3 B f o.m   , y y i l Z v $.v 9 I 6 S   o 9 G * f z Z I 2 B o v o   f   X % % + f l P N 9 ! - X ; 8 i % 8 t % N ( o.n B N m f l N * S v } d 9 P v 8 9 9 3 m P N N N d i   t , 9 % S P W o.i G O d 9 a . a +., v a y y y f l x.G I 3 9 B 9   o l   ",
"  B   2 8 o 5 * 1 3 3   N m 9 v y 5 f Z ) 3 v *.B F ( I I N n Z } I t   z S W 5 ) G 3 o 3 v v d.- z o   t f * a z 8 , o o , > 2 3 d.8 o ,     # 2 * 3 X o   #   % , %   c.3   j S L >.m b S 9   o P X o   1 % . . o ; * 7 b X   Z v A 8 B Q 9 o f  .P d C u 3.% 3 %.t 3 d z v , c.-.f q.f u Z v Z y P :.} a * * % 9 N t y o d A y f n   , 3 * 6 - * 6   3 y 8 v f v y d f - *   ; f t 8 y 9 y t v f -.9 a N i f Z G I v d t y v 3 ; 9 ; f W Q G v ; 3 9 t y 9 o m c. .d y O O 6 } 3 , f f z z N i f l l f -.n v N F v y d o 9   ",
"  9 f   9 o   i C 3 2 W o.5 A B Z N ! n 3 I } f I =.( { N 5.f f v v f   I *   3 Z o 9 u I 9 >.x.* ;   } v y Z 2 2 d   3 v :.$., O S t.o   # %   2 N     d ; y o     %   x   x R X   A.3 m u n y 5 f 5 @.X 5   u + + 9 8 = 0     , z 3 N   m N     @.R 2   A f   8 +.o l 7 9 3 d u _ =   8 5 i N P m S W } v * :.8 3 3 2 5 l 3   o d , n o 8 ; t 6 ; o   % 3 , N , d 3 y # ,   % N W N d 9 y   * m j p o 8 Z y 8 n N y N f y   ( 6 n e 9 d f 9 f e f   f , 8 8 d X v 9 N , t 3 v.a N ` G Z 3 Z v i f y a 9 I ( n N N Z N f # d 2 ",
"  9 9 n 6       9 3 9 m ) X A  .n a y i y d 9 9 9 >.l.2 o W n Z z 5 f x o l G a y y n i l 6 y s., 2   * y f t f X d   X Z s.N f a.* - z * o e n   X %     * B 9 X . -   r.  0 Q ; x   p o 7   w m S  .y a 3 & u 9 ; & o & 8 *   6 +.4 3 x B d   S v , o o * 3 # R = m 3 y * d a   ; m n y   l 8 9 Z I f *.i y ] G y ; n   , 8 Z X ; * N z ; 6 Z 9   % , o , % # % - d =.I Z 8 8   Z t ; n d , v , o % 3 f f ( 9 z N v G 3 2 8 n % v f f a , f G y 2 o.  9 y * , Z P 3 z n O 6 d.d = o.G f N 2 ( N Z d t z N Z Z 9 N d y f , o f ",
"2 X l I , N   f   -.3 A y  .@.S 3 m o 9 * 8 x.u f H N i.  o x   S.N v B y 9 =.y 6 3 f n @.v v n ; # N e   I 2 n X 2 Z   8 N Z ( f 9 d $.- * - 5   8   # 2 3 9 f   a 9 % * 5 <   + u 3 & 3 2 ; ; 5   o f 3 x 5 o d ; *   2   , X - v J , 8 -.9 N 3 u #.  I f 2 l x . p.C 3 - 8 y B Z 9 y f * 9 n 5 a 2 2 l 5 2 ; 3   I 8 3   d i a 3 d 8 9 ; = y n S # - 6 , 2 9 * 9 N 5 S :.F * X ; f z l - 3 v 9 , 8 m * f S } 9 v ; v I 6 8 f - 9 f z o 9 N 3 f N Z 8 d l t X G v c.6.e e e d O f . e.6 l d f y v a v p n N H N N y f 3   - y ",
"2 X 2 # v d 9 v   -.#.3 H A 9.q N 7.E a * 3 B @.b Q A a a y @.3 m n Z m B 2   i y N m % y n 8 y t   , %   ] t f     3   9 S a a t 9 2 * t -   X   2   2 y , 8 v %   v o   y o y % < + < 4 h = % t   r m   ; f o     p ,     3 o -   X   v 9 f Z 1 S ;   n     3 5 C j 7 d.z.v y B y 9 d v X n P d Z -.m - S G , y f v v   , l 9 * 9 y 8 } t , ; B H 6 X 9 f ; % 9 f d ; W n G 8 8 3 X o.y y f 8 d 2 ; x v N f v I I v v q.9 d f , l Z { 9 # 2 8 o 2 F B v y t o 9 z B d N [ } N f y ; 6 3 9 l G G v 9 i t N Z I N G d 8 3 } d 3 ",
"f 6 3 3 y   2 l o ; p   f i.B B  .v c._ 9 9 R f Q  .n H I 9 y m % q ;   ! 2 y } ; R v 8 t I P , d 6 * t # ; o   * , 9   f =.a * e 6 9 2 W N   # # 8   d * 2 #   y 9 j o a C a ; = + B % f ; ; & *     b x   9 5 ,     o t   d   o # *   y ; ; a 2 o 9 3   } 0 x o D _ * 5 F.} * t d.7.- , N   d N y z Z d f Z # v ( N z X } y 2 3 ; 2 d 5 n % 3 9 y d 8 3 v 3 S v - x * q.; =.f y y * 6 Z G n y y 9 t 3 y x d n G Z N y I t t t l n y I l - P o., - - f G 8 f d . 8 N f $.*.J 6 f d O 6 6 t $.8 N Z n 8 N N z Y I } z Z 3 9 $ o ",
"d 9 # 3 F y 3     %   E o.3 v @.W 8.a 3 3 !     R Q N I $.o.a 9 f   ; f d v   a G # % a y Z I y , d , ; 2 o * # , 9 v 7.7.v . , ( $ 9 d ; v l ,   , o   2 2     o G   z 1 1 6 )   2 # o e . # X , x X 3   X * 9 6 #   X   = 3 < # % , X , Z , d d Z 9 H   - 5 3 ` +.N ! d.v y Q s.} :.f t v d 9 * y o.8 N a y 2 o $.Z o o W i z t o 9 p   3 v o 1 3 2 n 9 9 o 9 ; 8 3   n a 9 v 9 8 y ; * } 8 X - 9 f , 9 n B t I 9 G l , ( 9 } { Z v v l   B d.l a y a n o *   Z 6 N z y ( N a > t > *   l y ;   I l y f d 6 * n H Z t 8   t X ",
"t o ; ; N } * u 9 D 8 q.% 5 p !  .u c.b :.I * o f Z l N n 6 . H 9 m n f i d 3   n 9 a t l 8 } 3 3 y 8 9     * 3 - d Q * ; 6 q.d 6 y % 8 3 6 # z 2 #     X - * *   6   7   o u b 9   o m 9 e - 2 9 3 S - 5 t #     o X         o u   - X f y # V p u b., v   B @.X -.z  .( v v v l.%  .  * 5.y 3   o * W ; z W , W z 7.} 9 W * 9 v z -.3 m P t 9 9 ; l v A % , i   v   i %   y =.z d 9 2 ; Z :.  d 3 3 f 3 f y z G v Z v f G 9 ( 6 ; Z } 8 3 d ; l Z 8 y f 8 9 X N ; 6 f z y 6.5.O e v 8 d d f , t 9 6 3 t 9 * 2 X d d Z     , 8 ",
"Z 3 v f G q.-   -.m _ 9 #   >.S v 3 R ; A n y 9 9 y d i I G * f i f 3 y % } y 9 f l 3 z y f ( 8 t y ; ; o 3 t 9 ; 2 9 3 3 ( =.O > 8 v   * 2   v -       o 8 y N   N   - o o R S   9 m     X 9 5   N   f   f ; f d # o b f 2   v     ; l * v   _ A -     3 Q.. u 3 2 z . 6.d , v ) d -.  P t m G   B   N 8 t ( X 9 l y G n A n 9 X l * 6 9 G ; a 8 y v y N d 3 3 % m % , 8 % 6 t l y 8 v   y y ; 8 z   3 l v 8 ! l W I t d f d *.8 P y I t N y n 9 G 6 o Z n 9 y , n f z f e B B I Z 8 N e n i 9   z , 3 , 2 o ; * % , % 8 6 f   ",
"l v 9 I *.9 f y o   9 =.S 1 z.B  .b 0.% 3 C  .u 2 d N m v t d f l o f u t m Z n a 9 9 8 8 z ( f y 3 l o.6 ; o ; -   t 9 m o.H v N e N   X 9 o , 2 *   X   o 3 f     o     4 6 * a 9 X 9 # d % 9 8 2 z   X N a e o v     ;     # , * y o o X   0.}     3   v o u z - t n G l : 9 } d.P d.n G , ; q.* 8 , ; y G v 9 8 Z B 2 d t l l   *   * S v 2 - 9 a 9 % n f , 3 8 3 m 9 3 8 t G t * t 2 9 t 9 N 3 t   Z B ; . 1.( v G v B k.d 8 n 9 5 9 - A = 6.y N N 6 7.l G 9 t O B ( 6 B , $.$.v v o y n f f f -     *   9 2 y 8 f 2 - G o ",
"* - Z d ; , d y b * Z.E -.S x p W n b 5.4 m f 3 y - Z a f s.W t W % 3 l A y N v % n d * 3 d n 9 d X   3 - v 9 ; ; X   - d d } 6 N y * t o $ % o     % o   o   2 - 9     ; } 0 , f = m v y m 9   * a * y l N , 8 p   v       o   o * * # X X   7 e Z *.y C.u w M.t     0.m *.6 s ; d.8 P.X ( f m =.    Z 9 ,   2 i W o 9 o B n y d   - z f d t - a W 3 i d t ; 9 9   o d 3 8 2 f n d t d 6 # 9 y v , o   v d z a :.d n P n <.6.N d y W f 6 o B - =.( z N z Z G Z N G G v 6.e f N n *.8 * G , Z f n 3 a * d 3 - X % t t 3 % 2 t l ",
"# f Z ! N d.-   >.o #.+ b    .=.P +.S 9 . R } Z f * 9 - N ( f 6 a G - f f n f z G 9 , X d # v y 8 d =.N d t # 2 8 ; % o y d y o v g y 3 3 % -   o   ; o       * y X       % 6 ; - 0   ; y   m ! ! 9 3 d , e 9 3 S     d m     ;   # , i 2 -   o } p +.  *   B x 7.    E . l.1.y v W 9 S N.v 8 d G - 9 q 2 t o X 6   2 o Z f y t * t , z 9 y f ; v v I a f 8 t 3 z - %   2 o 3 v   I z , z 9 6 o a . 9   d y Z Z :.z n ( Z 7.( f % o.f } m y H 9 B } 9 H Z v l f N v I N Z ) ( a t I 6.I d n - *.9 d , 3 * - - t X 3 e % X ; 8   ",
"6 f 8 n 9 s.y 9 I.3 ; L + 0  .c.V b B n   { o.9 2 i 3   f v v a , I =.l d e 9 9 v 6 9 Z G 8 }   o o 2 d , t f 8 - f   v Z   o.8 O y B 3 o , 2 $ -   o 3 o   8 ,   o #       y t y X 5     d L x f l # 0 2 ; * x 6 , o   * f y -   8       l     Y.  B 7.* = v o.M.I < ` . g O . = - 9 * n t 2 t o.{   - y   o v y n P   3 # B # f v 9 * f 5 N d d v % a d y t 8 6 6 2 X e f , ; , 8 z % N 8 2   9 > , - . t ! v n <.G ) ) l ( ( v -.N 5.- v * y Z v H t ; * a 9 y 8 3 v n B ( 8 J *.G N ( I n v F v n z t z f o X * #   i X     ",
"  9 H u I N P 7 1 = u 4 c     V f f d 3 X y   G # ; l o # x B y f 2 y N 2 l t i 3 8 a a f y y 3 , 2 Z ;   N 8 8 t , 9 $.2   9 N a B v f 8 2 X * 9     > 2 * ) -   t ; 9 o . * * 9     o   R 5 9 , , p B 2 o n t t 3   3 *   l , y   6 X i   u A Z   $.l.m x -.Z $.  y . O B O @ E f , , f o , Z $.N ( l P   2 y a   o.P o d e 9 ; Z % B   3 ; m ; ; y l t 3 f 2 9 X , a a W , %   2 y f N ; 8 9 , # $., > O f F I 8 s.I =.t v R B a 3 5.n % G f m i.f ] 2 t Z Z y y f v O e g v N - I n 8 N y q.f Z Z f n v 3 * 2 - X % X 3 o a ",
"X   i P.8 t 9 & C u % 3 C p 3 #.% 8 - * X   *   X o G v y a y 9 3 f o N l W v N t 3 2 ;   t } N   * 9 3 z 8 8 v q y     t 9 f a ; O S.F t -   f   3 o % 6     C N v   #   m :., d Z   a .   # Q o f ; a 2 3   n a t o , # (   t 6 3 2 + ; o 9 n d   X >.Z j R f I o G 3 c., . @ m t *   2 t f f N n :.v 3 o m   b f i z d d 9 , ; 2 5 o   8 z y 9 6 S y 2 , 9 - y y 3 8 - X X ; X y v 8 y # o t   :.d v f } q.) I f v d s.2 S v p 3 t 9 e W G n x l u 2 o f y i f $.8 y O v a :.N $ * y   y f ] l # 9 8 B t   d #   z ; * 9 * o ",
"3 5 A 9 6 8     o 4 b 4 0 ; 4 8 9   8 S o y 9 n w ! v 3 N f d v G y i 2 d Z Z :.G t 2 n , # y d # - o n [ Z d v 6 -   I , 2 d l , * ( 1.a y 3 q % 2 2   v 3 o   9 6.  N V.  , 8 ; 9 8 y 9 o X % X B 5 B n l A X 3 z o y ,   ( - Z 6 % 9 o.5 9 Z * 9 1 R p g.j l o.d   3.$ * O +.I Z   X n   t v 9 3 f   t o X     t t y % X i u % y t o 9 9 6 G 8 v y n f 2 f * 9 t - 3 -   n ,   n t t 6 o t Z   ( =.v Z y > n P G 8 9   X x d 3 i v 9 } n ) 9 y 3 y G y # , Z y t e n v N N *.$.- O 2 ,   3 v y d 8 z Z Z , y -   % %   5 x % ",
";     9.6     S = p R x 9 y o 5 o 3 ,   o i ! H x v 6 B y 2 f n v m 5.* t t y N l t e f , o 9 # , , o 0 l 3 G - d 2 8 9 ] o ; i   9 $.6.J 8 ; X v o 9 % f 3 9   ; ( X d 5.Z     i   2 # t *       f + % f a 9 - , y 6 9 v   F ~ 7.l y N 9 a X :.-   = 9   B.i.B } z z W 6 f . X l =.X $.2 # o v N o - G d o - 9   X d f , 3 9 9 - 9 8 z f 9 f 9 - S 8 v y ; z 3 n ; * 2 , X 9 3 X * z F 6 3 2 v - G 7.f v ) a y ! z R ) N d x =.2 9 8 v 9 5 9 Q P 8 y v Z 9 n 6 # X - z v F q.z v F d O . d l 2 y f t d Z f 8 > 9 % o     9.W @.",
"9   S % d o   4 m % a m 7 e l t   - 8 z n I.b h.d G 8 *   d X v i y   v n z v n v 9 , 9 H N ,   * , o % ; 8 f v 2 y X o.9 } z Z 2 . e H 2 G ; * 2 # u % N 9   ; A 0.t L.  o * =   h.9 y t 9 9 a f * ; 3 ; ; v %   y 2 l 9 t :.  d.z   f * Z o l Z f ; 9   . % 9.W f N v.v t .   -.n o.# d   o N N P P y P s.6 d f X N * , t a t - f l z } v   ; 3 2 d f y 9 6 ; d z y 2 2 6 3 , * 8 v * z z 2 t # G B G H S 9.h.f O ) v v n I I z y I 8 S t ) , L Z d f 9 t l f 2 d t f 9 f U : f a h.#   > # 3 y i 9 9 G l i t 8   8   d 2 A -.",
"W % f X v X   f w ; d.a 9 d * n ( Z * i j 9 V b # , d 2 v n * v ; 2   H N v f Z } f 9 8 y 9 y 2   t , ; d X 2 9   e X S 9 2 s.2 e 3 6 z n 8 3 y # f , p # n X y Z 9.o p @.- # 8 = =.n v ! f N } - *   a * S l   d 2   v 8 - i.N b.X 2 - 2 y n d o o q 9 o ; ,   *.N 9 c.O G o   c.f 0.I Z       9 t i 8 X d t d 3   3 - y 9 6 y 3 * l - - 2 9 t - o n 8 2 f 9 y 9 e 2 6 y y N 6 N X y t X v f 3 I 3 6 6 $.O y u.9 9 v 3 y y t N N y # x d m z n f o 9 2 9 y t 9 f v f 3 ( z d N } z s.6 # y * 3 z v f 2 8 n Z 2 3     % p v t   ",
"v   B % y       R o a y , f i N 5.9   j x t a y Z i f , y * m N 3   - { Z G v I $.n f n o d f t i *   X - I y N o 5 f v 3 3 I y 3 X e d 3 8 e ; , N y ; 5 o o   N R N f H   t j B ; W * t f i 0.u.  m 5 6 m   t 5 3 5.) E 5 0.y - 9 t f f 9 Z y ( :.a ; f o 3 x m   -.  e +.-   $.} N 6 B   3 o o % X t v P N , 6 # t f y 9 o 3 Z y t t , z f d 9 v z B 2 d f 9 v 8 d 2 , - d a d Z 8 6 % % 9 f - n * 2 9.9 9 O A S d l f 9 N m 8 N v a y i 9 n d f f y y y y y 8 t 2 3 g v f y F a.H % *   X t y Z N l i     8 v 6 ; d m H e 3 ",
"Q 2 S ;     3   D y   P v P v 5 9 d.< v o d b v ,   h.# # o 9 9 B f y N I y l N G *.d t f 9 n v n 9 X * - e X 9 * v   F   - 6.l 9 , Z N e N e ; H B 2 i d X X x 5 d.f o -.    9 a P y X o v 3 N     * ; * 3 o l f 8 t @.z   W i v 9 f , n Y i f 8 l N , * ; 9 3 t   d h.8 Z *   R E f v f B % l X f d a ; 3 v , 9 y 3 v 2 y - 8 d d 8 2 9 l N d 9 8 3 ( y N   8 d f 6 e f 8 9 o G v f 6 n 3 n $.  :.t O d 9 f . S f 9 9 v y 9 x 5.y y t y y v G v , N W G N n f 8 8 Z 2 N o.G 3 q., F n 3 9 d G # G o.$.z 8 9 2   Z     l e   - ",
"  l y     y * } p v v ; 3 + -.  9 f q.P v 9 9 # } o.9 9 ; a H * f 9 f N =.*.S N n S I ; 8 d , v t t - t # 9 , ; v v ; 8 * X H N 6 N t n O - Z d Z N % x e X 4 8   3 } y 8.v * 7 9 7.a l ;   2 o i f v A 3 l 2 o N I , 7.  z ; 6 3 o.  I   2 9 z n 8 B 6   o 9 B t   Z $.* F 6 u 3.s.y I   f o.3 X - y 3 o o l 3 n   ] * ; y f t y t y 3 n f G N z * 3 n d 3 2 3 9 G o l * - - f } *.f X } 9 f -   9 . ; - * f f 3 a 8 9 -.t f u ) t f f 9 y 8 a I v d z 3 P v n v t v N } ( O I 3 N 9 ( 9 o N a t l $.*.% l * >   8     , 2 ;   ",
"y A o ;   * B o.X B   3   X 0   4 0 W t l 9   y 3 v d v N 9 % p o y a :.7.n o.G Z x B =.Z 9 * F G 9 y   8 2   v N d 9 8 f d 3 $.v 8 9 9 a 3 H o 9 a n 3 m 8 3 3 o f d.e 9 l 8 a v W Z 7.n t , 9 d P       N Z       * ( 9   ( 9 o S i Z   9 2 N y G   # 3 $ % % -   9 +., o ; d m =.G d I 2 ; Z ;   9 9 t % 9 y   , t N - ; # N 8 9 * 9 n Z - v n f y   v X ; - 3 ) 2 y ; X t f Z =.n l.i v 2 d l # 9 N , t - v 8 2 X G B t 9 m q.9 f ] l t 9 d d z t a } I N $.y ( G } ( N >.I O z } N % y f f z   9 * 8 a X N   d -   o 6     ",
"    n     o %  .I     *   2   f + H 5 ; Z o 3 y 3 v i i A I d 9 9   a Q x o.d.y n n v f N ; Z t N * 8 3 , 3 X % o v f t d y t 2 n - - f I v q 2 ;   o 2 9 ; * * l 9 x y 9 y ; f v d :.} f e z - 9       o 2 @.% C         A @.t   :.N # n X i y l 3 2 o ; 2 t a f G y 6 . X  ., +.B }   9 9 P Z -   8 9 2 2 y o ; 6 f F - N 3 f 9 9 2 2 9 8 P f y f N   - G 9 d f W   X n % @.f n } G m N * v 9 3 , . - n I 3 5   N G 2  .3 f H 8 v N z } G ; e n d 8 a d t G 7.  v $.=.n :.N d.} f O z q.X 9 v n t * y # -   X 2 X e v o   o * ",
"        8   * X >.*       l X p 9 p   o % 9 6 2 3 9 y v d t i v d o ; =.A w v v z y N z t l y y z v d * - , ; # :.B F t 6   * - 8 Z 8 O v ; !   b L 3 x -.v 6 i -.8 7 6 X t X -.A B f d v y f   9 3 ;   Q -   x c.7 a   d     3 o a t N v 3 y 2 [ Z y d z Z Z Z l I F s.. 5 = S c.S f 3 %   n   l   3 l y y -   2 v v N e f f ] d e y f 9 6 0.m - 9 ( * ; z , o   y ;   , * P ; G { =.v Z t z   -   - O v d F l Z d t , m 9 m z t N 9 y y H v l l d t 8 l d v q.o   *.( h.- $.d f 6 O , I v l N f } d 2   # o o 8 - % o e X     ",
"#     8 X y   C 9.% % X 3 2 l   ,     -   d N z t 2 y v y B 3 t 9 l 9 9 A X m v y d f 3 z e 3 # 8 v y 2 t o * * { N v d y N Z Z 9 v Z * a 3.9 b X +   -.o.5   d B o 7.o * 9 o ! v d B } q.* f n N b d y f - y 9 V 9 i.y z d - ; * f a y G ( y * Z N *.v 3 ; 8   * d v t m m = -.E m Z 9 o 8 Z # P , f y n   2 o 3 , 2 I X y z y t t v - # v v y y 5 2 = y 3 . R d x t   e.v d 9 f =.a ; Y =.5.a 9 o d 8 G 9 t 8 2 v i , 9 9 l 9 N t N v t o N 8 *.t f Z 5.y f 3 o.- 7.o.6.7.O G G y 6 f d , 8 o G I ; , I z % 2 X ; %   - t   , ",
"  *     X     w.l., G N 8 2 3     % * n N f 8 l d f o 6 t G l - q v % o 9 v P n S P $.f 9   I N * d N 2 f z ; 9 W } d 8 z B =.6 B P v =.f 3 3 9 a 9   v y 6   * 8 Z ; d # q ;  .Z } m y P m n ;   N ; N   v ; m b.u 9 o   } d n   v e 8 9 Z a 3 ( n v f 3 * t o t d z ;   m m @.R f d y y Z v * y Z *.=.9 d o     , f #   n v t n f f o >.A l z S * Z i     . A < < v m B y - 8 9 9 v Z t f t t t 3 8 6 :.f X v 8 d o 3 y y 2 y } o z f N , Z f n 9 I i v t z 3 v f I } S d.e N o.v 2 l d v 9 5 9 2 t   8 9 o X , *   X % * * , ",
"y } + . 3 = o m w.N # 5 f H N #   * X v Z v l N ] z d # 8 Z v W o I f P d d # v 9 o.o.t * * v ] * ! f   z a , i i d ; N   ; n ( a ! 9 f ) Z m v t p = 8 S   H y 8 d   ( 8 v # * o 9 f 2 o.=.n 3 D y G Z 8   t R Q A z 9 o X , u.v S :.:.X e * f y v { I N v   6 :.X N B o % % x 9.f 8 a Z G y t   * * 9 2 6 ;   d ; 9 3 % n ; y n ; x S b u.} 5 y G.o d     m L 9 9 y 2 = y y ; * m   i   :.t l - 2 F 6 Z f 6 # 9 o d 9 a n 9 y ; 2 9 8 z v 3 v z v z ; } 8 n Y 2   W q.k.1.N q.G 9 t * y n 6 y y d - 3 ; t , X   a   9 3   y d ",
"d -.*   C u < 1 u V 8.  S H Z 3   3 8 t # q y , G v Z t   9 v 9 Z n o y d x % * 8 A f >., , d N v y 6   y 3 o 6 9 3 8 n H 8 v y a ; e.9 a B S d q.a o y v   o o m d * 9 l t 8 e ,   9 ] v * 3 a o.N y @.l o   u m % v b.6     m s.  3 , 3 F N 8     s.y ; X * 3   , . 7 j u , 8   3 =.3   f a 9 * ; z z Z 8 2 n % * #   l z 3 z a 5 f p A E c., = t + 9 3 0 _ Q v Z 9 ; 0.Q Z B o (   9 o 5 d n o , * z , .   i l f 6 o t i i F e ;   G Z Z z l y Z f F f Z N f a . * q.s.y } d F 8 t 6 n 9 o.o   6.  *   * % 2 2 , o t   -     ",
"# f o #   6 v u 5 j f I.y ! 2 8     # - ; # l N t ; Z % 8 X Z , d , 6   v y ; 7   9 5.N W i     2 l 8 N f e 2 , 8 9 y P X G Z % 9 O 9 * * ;   9 3 S %   Q n X = y -.Z 9 d f # t - 9 % v f y 9 a d o a t A 9 _ 0 S 5 f m m l 8 3   9 X X 6 o   P n F n v - 6 o o 8 3 b 7 v d y o t 9 f o a f v y - * * # n   ,   3 *   9 v v y a   ; 9 0 0.C L x 5 o f w < 7 S.f * l.= f 3 u m f , f d f n o y N N . z d # a 3 - 8 y 9 , 8 8 8 o.f t ; # ( } n @.l ; z d 9 S ] P 8 a % y 1.*.d.f v H B a 2   Z   3 ; X # %   8 e X 2 o 2   o # 8 ",
"3   4 t a ,       0 3.3 S 9 , 6 X   2 ,   2 z P y % i N y 8 y n 8   9 9   y 1 - H 8 Q W f 9 #   , y 9 X 3 6 , ; # #   9 f q.* v y m 6 > 7 2 9     ,   o y 9 ; f n 9 n   9 * t 2 8 o o a Z y f o a 9 f P 9 % f _ f B u t f - f   } o v   3 * X * l n l 2 I z X 6 2 9 v 9 f y % 8 %   d 9 6 f z y   # * 3 X % o   v o   1 -   . 2 % D #   W . 0 @.I.    x f % 3 f   -.+ ; =.+. .y o 8 9 Z , , I N     f z 2 ; f 2 v * G 9 z * l 8 N Z 8 9 Z n 6 ; y d y o , n f n y Z t y I I d.f I I I y o 8 , z t - t 3 % 9 2 6 y t   $ 6   2 o ",
"; 9 v 9 f 9   X   S     y ; l y y 2 n 9 d * v d 9 2 3 H 9 i 9 m Z o % 3 o n o   N d 9 m F.9   l 3 t i z 6 y o X   , o     ,   a ; 6 y f O ; * * y n # % 1 o = * ; W d   9 F B X 8 ; ; o S H y f 9 d y ;   + i v ; 5 n v n q } f   * n t 3 N Z , B # A y $.$.n # v f 9 9 a * { 6 2 ; z Z n N G * X o 2 2 o a 8   u = 1 8 q 9     0 R * 4 3 ; B 5 *.B     v   d 3 ! x 4 f 3 Z d v y f , X 9 * ; ; B . f N Z 3 3 l 6.% * ; S , 9 * ; H 9 9 % i 9 ; 8 L t X  .N   v 9 N z O ! v.a.v v G y t v $.l d z l t 8 * # ; - z %   e * ; v 4 ",
"X - 8 ; 3 y 2 o   3 a   3 , o.B 8 H   9 ,   ] z v 3 2 n l i , u 6 l y # , 9 ; 8 9 3 3 9 9 :.8 $.m   f y % t -     % 9 9 %     =.6 f y v * - * #   ; 3 y 9 d 9 8 v s.  d 8 v.  B n n t   3 o ; z d f d , , l 8 q n P 9 N v d y =.p o 8 f o   l } Z 9 9 v a :.6.l * o 9 3 Z N o 9 f 2 z 9 d :.y * o X 2 3 X f * ; - o X ; Q ;  .  C ;   1  .. l.R ( v.y   % , y n   m %   n 3 l ; =.o , f   % N 2   t n 2 x X N 0.f   P +.} d *   * n =.8 d 9 8 !   n * 5 { { y 3 ( - 6 O 6 b.G v z 8 5.e t Z *.N z I k.z 8     # 2 y     -.; ; d ",
";     ; 8 9 3 o *   N 9     3 R 9 I ;   I y I G f f 2 d a ; y l.t 3 j d i 2 f ; 8 5 9 3 9 n } -.t 3 % , 8   2 8 n     # G o   f 6 ! I n d d 8 ; ;     f 6 ; l 3 S o.*.Z o.S p A n 2 * ; f v n y q.9 o d N y 9 , 2 d t z x f p a f d 9 t 2 I - X 2 * W 6 l P H d 3 8 6     * -   - , o 3 } m A 1.a t o 2   9 f ; * 0 x B 8 5 a   u f ! y N.o   S 3   o ; * n 9 * d p 9 9   _ W 9 y l o * , o   o d 6 d L y   Q z ; Z 3 A S B G y P A a 9 ; f ( v # 2 u f  .Q d t l , y * m ! N v v 8 , v 6 f o.f t y   y * ; t * t y Z 2 ; ! l ; ",
"n ; }   3   ; n , j x l N ; y x 9 B t d c.9 a G Z z t v ;   -.u.z N 9 ! ; W n S 7.n 8 o v v S n n f t - 9 ; *   ,   9 X # @.# t v 1.O d O v o , 2 3 9 m f ;   A = N :.G x.f  .  f 9 q N y s.z =.Z d   7.*.$.Z o d 9 v 0 i 3 v f * Z f y t t i N X 7.G y N y Z =.9 z B     2 t ,   X o X 9 y P.$.z 6 z y   ; , 3 y - y ; % 8 9 , * 2 % H 9 * v = ) H 8 o   y v   ; P = 4 3 B 2 Z y # t * 6 2 9 n u . o p ,  .d f I     v 9 } Z y t 2 9 ( y I H f t o u u S , 2 , 2 z N f 8 8 v f 9 9 t ; t   v n N l   6     2 % W H   x y   G - ",
"  7 Z 8   2 * #   3 i.d S f b o 6 ; ; L 8.y *.( e 9 3 N t d 3   y @.3 f * f W m 3 q 9 = 9 v y @.l 3 o l 8 3 X 5 9 X 3 t 5     S f Z , d $ y v n 3 % *     3   @.m  .v R 3 o.} N G.6 * 3 9 v.v } 6 9 =.f I l 8 9 f l 9 f 6 x x z n t - ;   i ; # y 2 Z z P v * d N ; v v f - 2   o l o y 9 2 u.6.:.Z -     - o X X     ; * % ; ) y 6 v 8 ;     4 B.m } 9   o , u   x   6 3   e - y d ; t 2 ; , y u . B.% a 1.w -.% $.v Q X v 2 ; X 3 v l N i n G f 5 y * N v y y z d z 6 @ 6 n t 6 9 6 ; u.0.; 3 X o.9 6 f o y   3 o *   H ,   t ",
"Z ! 8 t , d *.  Z A v n 8.9 % 3 - 9 C f 0.m y X - t d l 9 i X 3 H 9 N 2 N X } d f # f = 3 y a a d 8 6 3 * o f n o - o , y 9 3   X j 9 > - z - - z % o * X m       % x v 9 3 3 d u.z , l m Z 6 8 9 8 =.d.=.G I n I N d y d 9 l v t G Z f G 3 N f 9 2 t o d 9 :.y =.v i 2 9 y y n 8 y 6 f , d =.} F a.    o     o # d     o      .v 6 5   x   * 9 L v %   ; d H 9         o 6 $.f 9 N I 2 V   % x   . m x m d.S 0.* =.>.=.q o.:.Z.y a v N k.9 B q., o m d y , B N d y } 6 e e O e d d * O y v . % - - f N 9   ;   , o ; 6 $.f v 8 ",
"W A X ; d { X   9 b 3 a 9 9 d y - 7 = w D.r.f - ; a 9 d 8 y 9 ; u 0.6 z t } v t B >.B   7.t , 3 * y y   o - o f ; t 9 v 2 f , 9 . , . 3 v ; n 8 ; , - 3 % 0   d   9 L b d z 2 n X t 3 A 8 m x v y y G 2 v.l N 8 Y l 9 v y t 9 t t 6 Z 3 3 3 8 9 9 z y X f 9 } 9 } 9 y z d y 8 o     3 , 2 l.s.W 7.  y   - * X * o ( * 9 y   a % } X d 9 f o     b 9 y   f e t *   o u   f % d l v   a *.d   2 V ; . m O o A m b.+.=.7.q.v.t x } m v ; v s.X F 5.; o % p x y >.y Z B d y z e e O O - e . a d P . # a y 9 9 , X , 6 - 5.d y   , v "
};
