/* XPM */
static char *_0efe9cdf8314cf5f7effd2b4d7bd910hiIVu7hUkbrKGJtP[] = {
/* columns rows colors chars-per-pixel */
"256 256 157 2 ",
"   c #573020",
".  c #5D3422",
"X  c #623624",
"o  c #653826",
"O  c #693A27",
"+  c #6D3D28",
"@  c #713E2A",
"#  c #74412B",
"$  c #75412C",
"%  c #76412C",
"&  c #75422C",
"*  c #76422C",
"=  c #77422C",
"-  c #77432C",
";  c #73402A",
":  c #78422C",
">  c #78432C",
",  c #79432C",
"<  c #78432D",
"1  c #79432D",
"2  c #7A432C",
"3  c #7A432D",
"4  c #78442C",
"5  c #79442C",
"6  c #79442D",
"7  c #7A442C",
"8  c #7A442D",
"9  c #7B442D",
"0  c #7B452D",
"q  c #7A442E",
"w  c #7B442E",
"e  c #7B452E",
"r  c #7C442D",
"t  c #7C452D",
"y  c #7C442E",
"u  c #7C452E",
"i  c #7D452E",
"p  c #7C462E",
"a  c #7D462E",
"s  c #7E462E",
"d  c #7F462E",
"f  c #7F472E",
"g  c #7E462F",
"h  c #7F462F",
"j  c #7F472F",
"k  c #7B442D",
"l  c #80462F",
"z  c #80472F",
"x  c #81472F",
"c  c #80472F",
"v  c #80482F",
"b  c #81482F",
"n  c #80482F",
"m  c #804730",
"M  c #814730",
"N  c #804730",
"B  c #804830",
"V  c #814830",
"C  c #824830",
"Z  c #834830",
"A  c #824930",
"S  c #834930",
"D  c #834931",
"F  c #844930",
"G  c #844931",
"H  c #844A30",
"J  c #844A31",
"K  c #854A31",
"L  c #864A31",
"P  c #864B31",
"I  c #854A32",
"U  c #864A32",
"Y  c #874A32",
"T  c #864B32",
"R  c #874B32",
"E  c #874C32",
"W  c #844931",
"Q  c #884B32",
"!  c #884C32",
"~  c #894C32",
"^  c #894C33",
"/  c #8A4C32",
"(  c #8A4D32",
")  c #8A4C33",
"_  c #8A4D33",
"`  c #8B4D33",
"'  c #8B4E33",
"]  c #8C4D33",
"[  c #8C4E33",
"{  c #8B4D34",
"}  c #8B4E34",
"|  c #8C4D34",
" . c #8C4E34",
".. c #8D4E34",
"X. c #8D4F34",
"o. c #8E4E34",
"O. c #8E4F34",
"+. c #8F4F34",
"@. c #8E4F35",
"#. c #8F4F35",
"$. c #8B4E33",
"%. c #8E5034",
"&. c #8F5034",
"*. c #8E5035",
"=. c #8F5035",
"-. c #8F5035",
";. c #905035",
":. c #915035",
">. c #905135",
",. c #915135",
"<. c #905036",
"1. c #915036",
"2. c #915136",
"3. c #925136",
"4. c #935136",
"5. c #925236",
"6. c #935236",
"7. c #945236",
"8. c #945336",
"9. c #955336",
"0. c #945237",
"q. c #955237",
"w. c #945337",
"e. c #955337",
"r. c #965337",
"t. c #965437",
"y. c #975437",
"u. c #935236",
"i. c #965338",
"p. c #965438",
"a. c #975438",
"s. c #975438",
"d. c #985438",
"f. c #985538",
"g. c #995538",
"h. c #995539",
"j. c #9A5538",
"k. c #9A5539",
"l. c #995638",
"z. c #995639",
"x. c #9A5638",
"c. c #9A5639",
"v. c #9B5639",
"b. c #9C5639",
"n. c #9C5739",
"m. c #9C563A",
"M. c #9C573A",
"N. c #9D573A",
"B. c #9A5539",
"V. c #9D583A",
"C. c #9E583A",
"Z. c #9F583A",
"A. c #9F583B",
"S. c #9F593B",
"D. c #9E583A",
"F. c #A0593B",
"G. c #A0593B",
/* pixels */
"O o ; + 8 8 K o O O X O O o X o O g <.! , X X + + o o . . O + & . + O o X o X + o X O O o X O O O X X O X X o o O O O X X o o o X . o O O . o X O O + + & o o X @ + X o . O + + O . + . X + O O O + o + o + o O o + + X + + o o o O + o o . X X o * 8 + X O X @ o X + o O X X X X X + + + + o + O + O X X + . + o O o O + o . o X o o o . o + . . X + X o + O X @ O + . + O + + & o . o . o o + + o o . X o X o X . X ; @ o , z o . X O o X X X X X O + + + o X o + o X o . X o o o o o o . o + o X X . , 8 g o X O . + X O + X ",
"g 8 @ g e.<.K O X + X o + o o + + <.<.K @ O + X o + o o O O X X o o + + O o X o o X + O + o O o X + X X + . + o O @ o @ @ O O o X 8 g + X X + X O o + o + o . X @ + o + X o   O X . O + . & O + o + + O + O O O . X ; O + o o X X + + + o O o + + @ O o O X ; g o O o o X o   o O + X & + X . X X O o X . X   + O o o + + O + X + o X o X o + o + X O o + o o X . o o o O + @ .   O + o o o o o X O X O O + o . + . o o     , o o X X o X + X X . O O o o o * + X & o @ o * + 8 @ o @ . X + + X X O X + & , * O o o o X + O @ V ",
"<.c.c.g <.K g @ + + @ @ ! ; t.! V ! V + @ O ; + + * o X o O O X O O + + + o X + O X o O X @ @ + O + @ o o o + O o O o . . O   + , g o X O o X + O X O X O + X + + X O + O   . + X @ O O X O ; + O + X + + + X X X + o X O + + O o + + + + + + + X O @ o + o V , o X X o o o X . O o O . O O O X O O O   . . * . O X + X @ + X o X o O O ; o o . O + , o o X o O + @ @ X o o o o o X   O O o + o + o o + O + O @ o o X O o o X . o o X + O o o o O @ + X + @ * O . + O * o o o o O X O o + o O . X X O O @ * g X o O o O g o X ; ",
"e.M.c.g V ..! @ O O + K ....<.c.K <.& o O + X ! ..c.<.; o o & O o v @ X X O O + X + o * X O + + O X o & ; O o @ O X X X   X + & g . X X @ X o X o + + + o X o ; X O o + . .   . O + @ o + X o . + o + o O O o O o + O X O o + O o X O . o o O . O X O o + ; 8 O o O . + X X X O O o O o O O O + X O . @   . . X o & X O O o O O O + O O + o X   . & . o @ o o + X ! & O X X @ + o X X + + o + X + o X + + X + o . + O o + X X X o O o O + . o O o X O o X & + o o X X O X o X . o + o + O O + + O o . . @ , g O X o X 8 ! + @ 8 ",
"V c.c.; + K * 8 + o + @ 8 & V & o O X . o X X O o , O o + & @ O + + + X @ o O O o o O X @ o + X @ O o O + + O o O + o O . X O . X X O . O + + . . @ . o X X o o O X O O o + X O o ; + O + + + X O X X o . X + O o o + o O o + O O o o . o   . X   + o o O o & X @ o O X o X O X + X o . o X o X O O o O . o O + & o o + O O + o O O + o O X X o o + o o o o X X O O O + o O o O X O X o @ O O X o + o @ K + O o O o . o O o @ + O X + O O o O + X O o o X + X o O X O o o o o + o O + X . + @ . o X X . & + * & o + O O O O o ; ",
"O & g & K * V g O o O O & @ ; g o X O O X O + ; O O X X O O X O o O O X + + + o O o X + o o o O + o O o X o o X O X O o . X X X   . o X O + o o o o + . o o O X . X X O + o o O O . + + O g o X O o o o X o o X X o O o O o o o o @ + O O . o o O + + @ o X + o + o @ o X o + O o o . O O X X o o . X   o O o O O o & O o O O o O o o X . O X o o o ; O o X O @ X o + o O X O O X o o X ; o X O o O + + @ + & O X o X o o X O . X o X X O O + X o o o X . o + V O O X O X @ g o o O O O . o + . X + O X X o + X X o O o + . o o ",
"X X & , @ K ! ..! g , V ! e.<.g , 8 + X o X O X o O X o O X o o o X + o X X X o o o o + o X X o O O + + o O + o + o o O o O   X , & o X o o O o + X o X . . o O O O o + X o + o O X o + o + * X O + X X O X X o X & + O . . . O @ o O O X 8 @ . . + o X X + O o + + o . . + o + O O + X X o X . X + + o o X + o + O o o + o + O o + + X @ O + X o . X + O + O X o o X . o + + O o + @ O + o . o O X o + O g z o O o o o X o O X X o X X O . + X @ o X o O @ o + + + @ o + g & X O + o X   X X . o . o O X O o O O o . + O o X X ",
". + O O , K 8 K z e...<.e.t..., o ; & ; O O + O X o + O o . X . . X o X O o + o + , + + X X o O o O O + O o * + o o o + + g O g + & ; o o @ + o @ O + o O X . o X @ X X + X X O o o o o + & 8 O + O o o   X . . o o 8 @ + . o O O o X o O . o o o O o + o O o O O o + o . + X O + . & g & X X .   + O O O o O o O O X X + + o O ; + O O @ X O o . X   X o o o o o + o X o O + O X O X O X o + O o o O . o ..{ @ + @ o X + o X X + + o O o O o X & , @ ; o o . O @ O X O X o O O o o O X . X o X O X O + X X + X + O O X + @ X O ",
"o o X ; , * @ + + @ K O ..g @ g & O X , & 8 + o @ + O O o . . o + + @ @ + + o X O o , @ + @ X o X X O . + + o o X o + +   + + * , + O . + o O o X o O X X X . O + o O @ X o + o X O O + @ + O + O X X O X o + + X o X O o X . O + + + O o * , X o o + O O X X o + + + O o . o O O O O * +   ; O   O + + O X O o o + o + o o o o + O + X o . O O o o O + o X + o o o + . X o + + + + o o O O * K @ o X & & e.K + + O O O X o o O o X O o + o X O K * O + O o o X o o * + O o O O + O O X X X X o X + o o ; + + @ o o o X . O ; X ",
"X z X O O o O g v + o @ g { V & @ o + & & ! g X X O O X X O O X o + O o O o o o O O + ; @ X O X o o O . o . o + o X O . @ X X & ; o X O o X O X O X X . o . . O O + + o O O & O X + X @ O o X O + o X O X o . @ O O + o o o X + + O O X . @ & O X O + X + O o O o o X O O X + + @ + X g 8 * + o X + o @ + @ o o + X o @ O o X X + O o + o X o + + O o o + X O . O X O @ o @ + X . + o + O O o & 8 O o &.g 8 + o o X O + o X + o X X o o + O o 8 g + O + X O + + + + , K ; X o X X X + X o X o . + + o & @ O O o + X   o * o + O ",
"O + X @ & X O + K o + ! 8 * ; o X X o , K <.K & + X 8 ; * X O ; o X o g 8 + o O & + + 8 m 8 + X O + . o X X . o X . & . o O o o X O o o X   , X X + o X +   o . O + O V 8 X o + @ X X O o o & X O o + o X O O O + + o o O o + + o O + . X X @ X O O + X + + @ o o . o X X O o o @ O & + + o .   . X . O o O X X O o . o O + O o . O X X . X O o o O . + O o o . + o O @ O V @ ; ; O + o + X o & K K 8 g o X @ + X O o o o X O + @ @ @ @ O o o + & O o o X . X X + o o ; + O X @ o o + O & 8 . o + + X o + O + o o . ; g ; + + ; ",
"+ O + + & o o @ p.g ..t.K g o O X g g * &.e...& X O , 8 @ . X X + + X O O X o 8 e.8 & g o O ; O O .   X o O O X . @ + + . o X X O . o o o + @ . o @ X X   o o O O o K <.K X + O X o o X + + ; . O + o o o   o o + + o o o . o O o O & O O o X X o o o X O . + X o X + o + O & + X X . , & o ,   o . X o o O + o o X + o X . X X . + X X o . o & O . + X + . + o @ ; K g K e.z K K + + X O O + + K ! c.K o O @ + + o o + ; X X @ g g K o . o ; @ @ X X . . o X X O o O & + + & o + o o . . &   @ o @ O O . + X X + o o g + . . o ",
"X O o + ! o o ; <.@ g p.* g + O + @ + ; , ! * X + X . X o + X X o O o o + X ; g ; X o o . O X + + X o + X + o o X X O     + . O . o X o + o X   o O o o O o o X X & K <.; o X @ O + o + o O o O + o o + O O + X o O X O + + o o o X o X O   o @ X . O o O O + O + X o + O o X O o X . X o o o @ o . o o ; O o . X X O + o o + & o o o X O X o o o + X o O + X O o + + + @ ; g o + + @ X o o O & e.! ..& O o o o + X . o o + O o @ o & & O <.* X X . + + @ X X @ X O o , g O + O o o X o o X X O O o @ + o O + O o o o @ X X X . ",
"o + o & + O o O 8 g , K K , @ ; + + ; O ; O + o X X . O X X o X X o o + o + , @ X o + O . o & O X X O @ + o X X o . .   . o . o o + +   . o O O .   o o X X . O o + @ g + o + O + . o o @ o ; o o o @ O + X + O O + O o o o + O X O . X O + * @ X o O O o X o o @ o X O O + o o X O o O X X O X @ O X . X o o o + O X + o X O @ X o X . X . . + . o o @ + O o X X o O X O O 8 o X o o o X + O 8 K & g V o ; O o X 8 X O o + @ + + @ O + + g , X O + + O + O o X @ O @ . O @ o + o . . o + o O + o o + @ o X . O + o O O O O . o ",
"O X O @ o @ O O X @ ..! @ o + o O X @ o + o + O o o X ; X X + * + o o + o + , , o + X X o + . O + o o + X O O o o o O o + o X o 8 & . . o X o . + X . X O X . X o O @ O o + o X O o + o X O + @ o o + + o O + O + + O o o O O + o X * o X + X o X o X X O O O o + & . X + O   X o o X + O O + O o X   O . o o & X o O O O o O & o   o o o X . X X o X . o o X o o @ O X o O o X + O o X X & & + 8 @ g + X X X X X X X X o g + + o + o X @ K @ O X + o & + + + + O X X O o + O O . o + o O o X ; & X O o O O o @ o X + X   o @ o ",
"o + O o o O O + X * <.* ; + + + + @ O o O + + O X + O X + ; V X o X X o O & 8 { O & + o o o + X o * X o O O X O + X O o X X X . & 8 O X X X o O O O o . . O + . O o @ o . + X @ + O o o O O X O o o O + O X o + X o X o + o O X X X . o + X X o o X . o X o o + O o X X o . . . O + + + O + + o O X   . * o O @ o . o o X + + o o . O o o X . . X O   o o X + o O O + @ O o . X + X + o X @ + * @ + + X X o O X X + o ; V <.<.z + + o O X X + X O . o O O X X o & O @ O + O + . . . o o o X o X O o O + o + o o o O + o X O g + ",
"  X O O o o o O g <.e.e...g + K ..o o o @ o + + o O + o + + O + @ O + O ; @ @ 8 @ g @ X o o O + O X o O o o + + o O O o X O . O O * O O o O o o o O + X + 8 o . O o o O @ O X X o O o O @ X o X O O X X o O + + X X O O o @ + o X X X + + . . o X X . o ; O o X O @ + @ o + . X + + O o X . o o X X O . o o X X X X X ; + O O O o X O O X O + X o   O o X + + o O + o + o . o . O o o X , K g O + K ! & O o + @ O + & , ..e.c...+ o o @ @ o o o + @ O O , @ o X O O X + . @ o X . X . X o . O o o + ; o O o o o o + o O O O O X ",
". o & o o o X . O g V p.t.g , p.K + + + o + + O O o . X o O O O o O X o @ , V <.t.g V O X O o . o O + o O X o & + o . + + o o X . X O o O o o X   X + o + X X X + O O . + X & o X O O O X + . O O o X X O o + o + o o O X O o O O . o + X X o o o O o @ + o o o o o X o X + o O @ . o o o @ O ; o O O X . o + O o o X + O o o O . X o o O @ + X + o + . o + o O o + o ; o X . . X O O O ! e.&.z 8 e.<.; V @ O O O K ..@ c.<.t.&.8 o O . O + o + ; + O ! 8 o o + 8 o + o + o o + + X X o O o O O O @ + . O ; + X O O   . X o X . ",
"o O o + O @ o O + X + * + + + ....o O o o o O O X o O X X . + O O + + + + ; V <.K <.V O + o O @ O @ 8 O X o + X o + O o o X O X O   . o o O X X o   X o   , ; X o O + X X + + O O X o o X X o + o X O o @ o . X o X o o o X X + + X + o O O . X + X @ X X O O X o + + X . O X o o @ o X + o + O o + O O + o o ; o o O X o + X X . X o + o + + & + @ X X X o o @ . o X O @ . . X X O + O o p.c.! V , ! <.K c.g & z @ , & ! ..g ..K o O + o o . X o O O g K g g + ; o X o X X X o X + O o X g 8 O o X X o O o O O o X O o X O X + ",
"O O X X o * + . X o o X ; g O g K g o @ + & K + o o o o o o + X X . X O + V g <.& K , & X + O O o O ; O X o . o X @ O O O X o o . X X 8 8 . X o o o X O o @ ; o X X o O o o & O + o o o . o O . 8 X & X O o X . o ; X O + O X X o + o o X O X X X + o O X , z o + + o O . O ; . + o o X + + O O o o O O . + o ; o   . + O o X . . X @ + o o o @ o X o O + o @ @ O X X . 8 o . O + + X + o V K p.<.g K e.e.K v V V K ..V 8 , @ K + o o O o + o O + + g @ ! M.c.O X O o o O X X o o O O o o * @ * . . @ O X . o O o X o O + X o o ",
"O o O o o o O O o o X o o + + O K + + + & & @ O o o @ + O o X + o + o * g ..&.@ + <.g X O . + o + ; X X X o O X O O o O o o o O ; X . . . X X o O o O   o . . + o X K O o O , 8 8 @ + X O X . o O o ; O O o o o X X o + O o o o O + X X o O @ . o o o X + & ! o + @ O O X + + + X o o , <.V + O O + o X X o + X O . + @ + X o O   O + o o o o X o X O + o X & o o o + X . * @ o O O ; o + + 8 ..c.v & * * ! , o O v p.<.p.8 ..@ 8 o O + O O + + o X o & @ K ; X o O X O o . o + + + O . + X X o + + o @ ; X O + o o X + + o o @ ",
"O o ; X + + O + O o o + O o + o o o + O O @ + @ & o @ V + O + o O o X . O & p.@ o o o o o X X + O + X o o + + . o X O + ; o . o o o O X + o o + o o X + . . o   o + ! O X + X + , @ o o X o X . X O o o ; X O o X O O X O o + o @ o O @ + X o o o O O o + + * X O o X o O X O O o ; + <.e.&.V X o X o X X g , o O O o + o o . o o O . o   o @ X + + O + X o o O o o . X o @ . O X   o + + + & + + g @ O o V @ O o @ z <.M...8 <...O O X o o ; + o + o + O X o O + X o o & + o o + & o X . o o X o O + o O @ o + o X O @ X o . O ",
"O o O o o o @ o o X X X o @ @ o X O + o O X O X O + g + X X O o ; + + @ X 8 K + o o o X X O o o X o O + K @ + o O X O . @ , , + + + X X X + X o + & @ O X o + O o * ..* X o O o + X X + X + O O O O + o + @ o X O o X O o + o o + o o X . X o X O o o X X + O + X O o . o o O O @ @ ! , c.c.K o O O . O o @ X X X + + O O O + o + X * o O o . o + o O o O o O o o X o o o   X . o X O O O O o O o O + K g e.* X X 8 .., <.e.p.c.! g O X o o . + X X @ + X o X o O + O + + + & * + + o o X o . O O O & + X O X + o X o o O o   o ",
"o + o o O + O + X X X X o o o O o O o @ o O * o O * 8 o + X O @ O + + o + o o O X X X X o @ o + X + 8 g ..o o + o + + O + p.K O o + X . + + . + + o X o o O O + g K K ; X X + o X . o X @ o o o o X o + o X + o o X o o o * o o o O X X X   X . o o X o + O O + o X X . O o @ ; ; g g ..K c.p.O O X X o o . X + o o X X o & + + O o o o o o & @ O + @ @ X o o O . X O X X o o o + X . + O o X X + + ; 8 g O o X o o + * p.c.e.&.<.8 + @ O . o X O + + o X o X O + X O o X g K & X X o + O O O X O * O X + X + X o o o + O O X O ",
"+ + X X o X o   . o X o o O @ o o o X o X + + X g p.c.@ + + 8 X O X + ; + . O @ o O O . X X + X O ; & g g * , ; O o o O o V & g + + o O . . o + + O O X . o X X o & @ * O O X @ K O o + O + + O o o + O + + X + O X + O O o O o . X O X O O @ . O o O + O o O X X X X X o o X @ ! <.* 8 V 8 e.8 X O X O X . O X o o X o o o o o X + o * , 8 8 @ X O X O O O O o X O X X o o @ o X O   O + o O + O O o * o o X X + O o K Q <.<.e.K + O , O @ o + O o X O X @ + X X O X o O , + X + X O X o + O O O o + + O O o O o O X o O o O o ",
"o o o X O & z O X . . o o O O X o X O O + O O + K c.c.e.g [ V g o O + O O X O X o O O o o K ..O O V p...p.! ; & O o o o @ 8 @ g + o X + O O o o + o + o X X O O o X O * X O o o , , g , + O o X o X X + o o o O o . o + o o o X X o o X o o o o o @ o o + o . + X + + O & @ + e.e.+ O @ K & V @ . O O + + + O o O X O X o . . ; X + g , 8 8 ; * . o o + o + o O @ + o O + + @ ; + o O o + X O o + X O o X O X + + O o o z e...t...O o + 8 + @ O o o o O @ X X X o o + X o 8 V o X X o O o X X o O o X @ o + o O o o + O + + X O ",
"@ O o . O O , . X X O + o O o X + o * @ 8 + + & ! t.M.M.c.M.e.! 8 o @ X & . o * o O O X + 8 g <.K &.! V ..8 & ; ! O + O K o + O X , + O O O o @ O O . X o + + + X O o o o X O o & + + O O + O o o . 8 o O o O o   ; o + o O o + o X .   X o O X @ o . X @ + O @ O X X X o 8 8 * ! + o K + O o X o + o O @ + + X X . o o o O + X O & ; 8 , 8 , g . o X X + @ + + + + O X O o X O X O O X + @ O . O o o X + + @ O X + o o * g & ! 8 @ g * o ; X O o O ; O O @ O O + O ; + V ....&.o X o o o o @ o X O O O @ O @ . + o o O O o O o ",
"O o o X X o . . X + O ; O X . o o + + 8 + o O g g p.c.c.<.e.c.c.+ O O o o + O o o o X o O 8 + p.t.g ; ! ; + X K ..O X ! g * . o O ; , X o + O X + o X O + X O ; . O + X o X O o + g ..@ + + + O o o O X + o + . X X X X X o + O X X X @ X X O X & 8 g & o + X + ; @ o o o * p.@ O O O & & @ O X o O O o O o . O X o o o o + o O X O @ & , & & * + o @ & O O X O o o o o o + @ o O X o O O O X O O . O X + + X X X + O O O + o & g <.g + X o O o O ; + . o + X X o o z 8 e.A.c.V + + o X + o o o o o o X X o . o X o O O O + + + ",
"; X X X o X X O + X O   X o o X + O @ O @ + + V * V <.! ! ..p.@ o @ X O + o o o o o o o & O K V ! o + O @ o O V ; + & & @ O O o o @ @ + ; O o + o X O O + O . X o o X + o O O o * @ g o o . o O O . X O O + o o o , * O ; O + + X O + X . X O   . o @ o O @ o + + + ..O + K * + o + + + & * o X o + + o O + X . . o X . O O o o X X O @ * g + g X O ; o O + o X o o . O + o X o + + O o o X o + o o X o o o + X O X O @ ..+ O K c.g o + o O X + + O X o X X X o + X O <.M.<.c.+ + o o ; O O o @ + X + o O o + o o o X o + O o O ",
"o O + + o + + X + O + @ O + O O + + + 8 K 8 8 ; + K ..& * g * @ , & + + @ X o o X X o + 8 ! ; o * + O X X @ + o O O g + & @ o X + o + O X O X O + . X + + + O o O + & * + + + + O O * O . + X o O + O o O X O X + o o + o X o o O o + X ; o , ; o O X + + + X O 8 K p.p.c.K V , @ @ + & g @ & O o O O @ O O + + X + + + O o O o O o o o . X X X o o o X + O o + O O X + O o . O . O o X X o + + o o + o o X X O + X + X & @ O K @ * O + . X + + + X X * X o . O X o X ! e.<.e.@ + o o O + X O o X O O * O O O + o X O O O o X o ",
"+ O X + O X O O O O o ; + O X X X X o O , o O 8 + ; 8 * 8 o + o & + X O o X o O o o O O ; o O o o @ o X O O @ + X X o + X . X O O + & + + O + + o + o + o X + + X <.K p.K + X ; @ O @ O + . . o + X O O O + ; X O o o o o . o O . + o o X 8 , * + O + + o & o O 8 <.K e.p.e.8 * g @ & ; * & &.+ o O X @ O X X X O X o X X @ + o + O   o o X . X o o o o X . X X o X o O o o X O & @ O o O @ O o o o + o O O O o X o X V ; o + & + + . o O o O O o & o X + + o + + o o 8 &.8 V @ X o + O o o O + o O X @ O + o + + O X X @ O o O ",
"X o o X + o + . O O o O o o O X O O @ o o + @ O + + * ! ; + X & o O o o + + o o X o @ o , + + X o o O X . + K + + @ O + + O X o o O X X O o O + o O + o o X o + + g K ! K ; @ K @ @ o o X X o + O O @ O X + + X O . O O O X X o o + o + X @ , & + O X o o o X . o ; m e.<.V K @ X o o O + V + O + X o X + O O O @ O O o + o O o o     . o + O . O o X o o O   o o + + . . o O o + . X X o O + + o O O o @ + + + + o O , + + 8 . o + O O + o o O @ O o . + @ X + X o + ! c.* e.<.X + o X o o O X X O . o O + O + O O + @ + o o O ",
"X o + @ + O X X + O o o + . o o X + @ + o @ O o O X @ + @ X ; @ O O o O X   o O + . o X O O O X o + O X O X O X X o O o o o + o o X + O o O o O + + X o O O o + O * g ..8 & + o X O O X O X o + o O O + o o + o O ; o O O o O & + O X o . & & @ O o + + + + O X X + o @ & + + + X O + + + X o O O @ O O O O X o + o X + X + O o & o X O o o + o + ; + + X X o O o O o @ O O o X O X O O + X o * & + + o O @ o o O o + O o ; @ O X o + O o O o X @ + + X @ O O o X X o o o K { + o o X O o X X + o O + o ; o + + X o o ; O X O X ",
"+ @ o + X o X O X X o @ O O + o O + O O O + o o O O 8 + @ o o O o o o O O X X O + + + O + o @ + o + X @ X O + o O + o X o o o O @ o , O + X . o O O O O o + O o + ; , g 8 O X o O X @ + @ + O O o O ; X @ + @ O o o O & + + + . o o O X @ * X o O o o O X + X + O + X X + O + O X o + o + O o o + + + + O X O X + o O o ; O O o X + O X O + O o X . o o X o + o o o + ; O o o o O + o @ X X O . O X o X . X O X o & + O o ; X @ o X o o ; O X o X o o X X @ o o + O o + & O @ o . o + X o o . o X + o o O O O o O @ + O @ o X o ",
"+ . . + o O + O X o X o O o o . O X O o O @ O o X O + + V o + O o . . X O o . o + o + O X O O o + X X   X o + + + O X O O O o X O . o X O X   X o O O + o O o o o o + @ + X O + O + + + X X o @ X . o X O o o + o X o O + + , + o o O O o o   o X + X X + + X O + X O + X o * X O o o + X o o + @ X o o X X . o O . X o O + + O + X o + + o O o + o o O O o O o + o X o . + + . O + . O O o o o O o X o O o o X o o + + O . . X X o O O O o O X O + X o o o o + o O O o X O + o O o o   X o . . X X X O X O o @ X O + o O + o . ",
"+ X X o O O + o o O O X o + @ + O o o o O + X o o ; @ + o o O X + & o X X o ; X . O & X O + O + o @ + @ ; . O X O X X O @ O o O .   . o o X & @ o X O X + + X o g g ; o + O o ; X o O . O o O + O   + @ o O O o O o o + ; g <.+ O O X O o o o o o + X O o + + . o o X + + o o o O + X X X X + + o o @ + o o O o o + o O ; O + O X X o O O X X o + X O + X @ O + + o o o o O O X o . O X X o O o + + o o X o + o + + + o o O X o o o * ; X X o o O O & o O X @ + o X O O O o o o X o o X O X o X o O o + X O O & o X o + X X X + ",
"+ o X o o . O O O o . o o @ O o X o o . X @ o + o O & X + X o O X o o o O + O X O o o O o X + X & o + O . + o o X O O + o o o + O o X o o O * o O O . + o O X + & ! O + o o + o O X + + @ X + . o o ; X & & + o o O O + & ! O o o O @ o + O X o X X o @ o X o . X . + + @ o o X O O X o . O X o @ o o g g + o @ O O o O + . O o X O X o 8 ; @ ; + O o + O o o o o o @ + @ @ O @ o O O o X @ O o o O X X o O O @ + O X X O o O + + X . o O + X O o + + o o + + O o X X + O O O O X O O o o X o O X o o + O O + X O @ o + O o X o ",
"O + o   + X o & + o o O + o X O + + X O O O o + X X o o + o O O o @ + o X O o X o O . o + @ o O + O O O X o + o . X o O X o O O X + @ O . . X X O o o X o o + O * o V + @ X X X + g o o O o o X o o O + * & @ + O O o O 8 O ; O X X X @ X o o + g @ o o + o O . . o O O + ; & X . + @ o O + @ o O o o & <.g O V @ + X + ; + X O + o O @ g g <.p.8 + @ . O @ + + @ + + o o X + + O + + o o . o o o O o o X o + + + O @ o + X O . @ @ o o + + o + X + X o O + X X X o o O O + o o o X o o o O X . O X o o X + O o X O ; X & ; o + ",
"+ + X o O + X O O + o . X X   O o , @ K o + X X o X + o O O X o O + + & o X X o O X + X o . o o ; o O + o o o O o X o o X + o O + + o o o X O + O @ O o + O X + * ..z z + + , O O ..g X X X + g ; O X o @ @ g O X O o O X @ + X o O o o X O + X + o o X o . X . o X O X X o O O O O @ o + + O o X o o ; ; O & <.<.@ X O + X X . o X o 8 ! c...+ + O + O & ; + + + O O o + o V o O X o O X O . O + O X + O O X + o @ ; + O o o o o O o + o X X O X X o o + O . X + O + + + O X X o O + + + O o O + o . + o + o O X o o , ; @ + O ",
"+ X o + X + O + + O o X o & O o X o @ 8 + X o + o o o o o + o X o + o + . o + o o g 8 O X o + o . o O X + O   o o . o + o O o X o o O o . O X X o O X X o o X + ..c.e...z <.e.V O ..c.* + + ; * g X + . X ; g X O @ X O & o & . @ O @ + @ O O + o z 8 o X X . . . X o + o X o o o O . o O o   + O o X K + o O <.V + X X + X O X o X O K E & e.o . & * @ o g ! e...@ o ; O K K 8 8 @ + X o O + X O O O O @ o o O o o ; O O o o @ + o O + & X + o .   o O X X X X + o & * * + @ o O + X o o o o o o o o + o + o o X X X X o O X o ",
"@ + o O O + o X . o X X o X o O O + + ; o o o o X + ! + o o o o O o X + O O + X o O o . o o O O o + @ X O o o O .   . O + + o o . o o O X o O X o o + . o O + @ ! p.&.e.+ X o + + , K ..z & + X X o O o o X o * o o o @ o o X O o + + o o @ o & o + O o + + o   . . O   + + X X O X o o   . . o o o X o + O X g e.; + X o + + + ; o X O K & K + o O V g ..c.K + O ; X + + o + 8 @ @ O + X o . X X o o X + X O O O O O o . + o X + o X . + O . X X o o O o X o o + o ; X o , + * o X o O + o o o o X o o + o + + + V @ o @ K O O ",
"+ o X o X X o o + O . @ @ + X X X + + @ O o X X o & K + @ + + X o o X X X + O X X O o o + o @ o + O @ O o o ; X o X + o X O X + O o o O . .   * X X o o o o + @ * K * g + o O ! V + ; + K * X @ X o @ o O o X + o O o + o o + + @ X o + o O + ..O + o O o O O . X X X o o o X o O + o . X . o o O o O + X o X o & & g O + o o o o @ X O v o o O X ....e.<.e.E + O o + o X O O X o o o X X + + + ; + + X O + O + + X X . O . X o + + O + O o X X + X o O o O o + X O X o . O X X o X o X o o o O & * + + o & * X + + ! + O X + @ ",
"O X + ; @ X o X X O X X X o * o + X O O + o o + o ; ..o + ..e...* o o O O O X o o o o O o o o o X + O . . + 8 * * O . . O O X & O @ o X X o o . o + ; O O O @ ; O . O o O X X O ; V K K ; , & O X @ o o X o o + o O O ; + o o O o o X O O g V K . o o + o O X X X X @ + g o . X X ; O o o X . X + @ o o o O . + & Q V X o X X O X O + V V O o & V g e.e.e...g O O @ o O O + + + O + + O o + o X + X + o X o X + X o . o + o X X + o . o O O + o X + + o + + . X X o + o O . + o X @ + + ; o X o O o @ 8 + + O O O o X o & + + o ",
"X o X X   @ ; . + o X o X + X X O O o ; ! O O + + & g @ 8 c.e.&.! ; @ + + O o X o o X o O X O X + O O * & + & & , & o X X o O o X o o + 8 +   O o + & o o o o + + X o o X O o . X * <., O z Q o o O X X o o + o X X X + o X O O o O & o ; <.V V o o + X O O o X O O X X 8 X O X X O o O . o O o O o + X X o . + g @ + O X + + o + + O ! p.! + ..A.e.<.c.<.* K + + g g O o + * + O + + X o + X O X o o + X + o o X . . . X o O O ; . . O O ;   o X X O O + o O X & + o o o X X O @ o X @ + o O + O o @ O O X X o + o X o + O o . ",
"o . + o o . o X . X + X . O o X ; + o O ; O X O + <.V + 8 p.@ O o o o O + o o o o + X o . o @ + + . X + , 8 8 + o X . . O + + o o + O + @ o . o X X X + O ; o @ X O + o g * g ; <.& O o o g 8 + X @ . O O o + + o + O o o o O X + + + , { V o + O o O o O O o X o   X X X   . + X o X   o   . o o + & ; @ & o g + O + O o + o + ; + + , <.V K K p.<.p.A.c...<.t.&.z + O X X o @ X + + O o + o & @ O X + + O O @ o X X o o o O O + O o o o X . + o X o + o o O X + o o . O X O X o + o + @ X o O + o o O O @ @ X O o + + X X X o ",
"o O o . O . . o   O . X X . X X o O o X . X O X . K ..* g g & X o + o o o X . O + O @ + ; O + O O o o * & g   o X + o X o o X X o o O . X X X X O o o O o o & o o X o ; @ ! * K K X + O X o + + X O X O + @ O + ; ; O + @ + O O O @ g V g O + V + o O O X O @ + o o + o O + X X X . . @ O o X X X g <.@ & z O @ + o + o X X O ! o X o , c.t.p.! K e.! e.c.e.<.<.e.* O O O O + + O o O o o O X X O o O + o o o + o ; @ X o o o @ X o o   X X o ; X o X + O o ; X X + @ O o o O O X o + O O + X o o X K + X o z o X + @ + o o o @ ",
"O O O + O + X . X g @ . X o X o O o @ o o o O O O * + 8 g o X O o o o . + + X @ ; + o O @ O o o + o o X @ g @ X + + + + O X . O . O X @ o o X o o g + o X X o + X . X Q Q O o @ g + O o O o O @ O X X ; * o @ g 8 + @ O & O o + K , + + * ; ; V V o + <.g + o X + o . X O . o o o O O O * X & O o X O + O O X X o O O O + O + V 8 O X g ! V p., <...&.c.p.! ..p.c.@ + @ o + O o + o O o X O o . o + + X o o O O X o O ; + + + O O   X X + X O o + X o . o O o o X o X o O o o X O . o . @ O O @ o X o + @ O o O + @ o + o X + . ",
"o o o o O + O O X 8 X o o o X O + X O o + o g m o X O O + + o . o + o X X * O K @ X @ X + o o + ; + + . + X O o o O O X + X + o . X . O O O o o g * , . o . X + + O o g p.z O X o + + o o X O O o O + o + 8 + ....o O & ; O + * z O X X @ o O z 8 + & @ & & O o o X X o o . o X + o O X o O X X o O o O o O + O + o X O + <.@ & O + + & V <.! & g c.p.c.t.....p.e.& o & O O 8 ; o o o & X + @ @ O X X o X + X X @ X X O X + @ O + . . o + O o O o O + X . X + O + + O o O X X o O O O O X o @ o X X O @ o O + o O o + + o o X X ",
"o o X + + X X O o + o o o O o + O X O ; O o + * + X X X + + o X X X + o + <.& O O o O o o o + O O O O o O . O X O o O O + o O + + O o O * + O . + X o o + @ o o o + o t.p.<.! @ X + X O & O + O O + o 8 e.K g K ; * @ X o ; X O ! g O O O + o O O + X o o O o O o O X @ + O O o o X o o + X o o + & * + X + o X O + X o X ; 8 K + O + + g <.! ..c.e.e.c...o z ! &...& & ; o @ O * * * o + @ o X O o . X + o + o O & O . o @ @ + + X . X + o X + O X O o O @ o X o X + O X X + X o O + + + O o & + o o o o o @ O O X X X O O X O ",
"@ O o . . o o + O o o + O X 8 @ O O X O o 8 @ + ; ; O O + + o X o o + O o e.p.& X o 8 @ o + o O X X o O o X o & + + O o o O + X o O @ + X o + X . O O X O o + + @ o O @ &., * o X O o + o o o @ O O O @ K & g @ K ! e.+ + o o + ; * X O + X & + o + o + + O o + @ X o X o + X O . . X O O o O o . K @ + o + O + o + o o o ! V g @ + o O & g ! <.c.A...! 8 X O 8 V &., + + + g & ..+ O o * + @ ; * + o ; o . + X X X o O o O o   O X o o O X X o + X + O * ; K o o O X X   + O + O X O & o + , g ..o O o O X + X . o . + o + X + ",
"+ X O o o @ + @ @ + & + O O @ + O + X X o + @ V c.o X o O o o @ X X O . @ e.<.K + * o & { @ o O & @ O o O O O o + X o & + * * g + o X + o o X X .   O X o X o o O @ o + + , ; + O o o O @ O o o o * & V ! + @ O ; e.e.g & + & o + & O . O O O O O @ X X . O X o O + o o O X X X X O O o O K O @ * + & + + X o @ @ o o K <.O @ + + @ X o + + V c.c.F.c.@ O o o @ e.g * @ @ X o & X o X o O &.@ & * o o O X X X . X X O @ + + + X . o X . + & g + X o + + o & g X O o X O O X @ + . X + O c.c...& @ O X o o + & o O O o + X O o + ",
"o o X + o o X O O + K g O & + ; + X O X + + K K e.+ o O O + o X o o + ; V ! c.c.V o O <.K o o + g * , g O + O O . o O o X + K & & o o X + + o o , + g o o X o + X X o O X o @ X O o V X & ; O X O + z e.K ; o X + ..e.* <.O + o o * O + + o O X . . O @ X o o O + X o X o + o X + O o X + O 8 ! &.@ X o O O . X o X ; & + O . X O o + o O K ! <.M.M.c.+ O O + o @ , 8 @ o o o + X o X O + V * @ O O X + . o X X + + O o X X + o X   . . , * g o O + + o O g ..X X o O X @ + X @ @ o + ....e.& K , O @ + X o o + . o O o o + 8 o ",
"O + o X o O + o o O + & O + o o + o o + X + O o O o . X o o o o + + + X X 8 v 8 z o X o @ o o . + . X O o X o O X O o O X + & o O + + X X X O O @ o X O o o O X o . o O O O X . X X o o + v ; o O @ E g ! & g o @ ! p.p.V o o O X o + + o X o O o o O X o . O o o O o o + O o X + o X X X X O V , o + O + X + X o . o o X o K * O ! + o + <.c...t.! e.@ o o X o o K & K & + O + O @ o g ; * & o o o X + + O X . O X + @ + o O @ . O o g @ g g @ O o + X X @ , + o O o + O O + O + + ; o g ; K & o @ * X o o O + . + O o + O O o ",
"+ X + X X o o X ; . o O g + X O + @ O ; o O X O O + @ o O O o ; O O X o o O + O X + + @ + + X o + + o X + O . O ; o + X + O O o o O o o o O o o O o o X O X O X + o o o @ O O + O @ o + g K + O o ! <.@ g <.g O g e.<.V ! O O + O o O + + O X X o O o o o X X o X . X . X O + O @ X o o o X o O o + . + X o + + O o X @ O + g @ o + @ o + g M.c.8 @ o * + O + O O + * ..g @ X g @ O O <.<.! 8 O X o + o X o X + + o O o + + o o X . . . . O X X o O o o + * , O + o o o X + + O O X O + O , g @ X , K X + X o o + + O @ + + + o ",
"@ X O O o + X O o O O + g g O o + + o O O o X o X o @ . o O X o + o @ o O X O o o o O + X o + O X X o o o o O o o + O o + X + X + & @ + X O + + + + X o + & O + X o o X + + + O O O X X O X X ; g <.e.+ * * ; g + g K K ..* * . o . o O o + O X O X o o + X + X + O o . o X X X o O X o + o o X X + + + .   X O @ o o O O + O O X * ; + O ..K g O + + g K + o + , O o O O O O V p.V V e.e., g 8 + o O O + O O o o X O o @ + X O + O . O X X o . o o . + O O @ * O X o g @ X O O o X o @ o 8 g o o , ; + + + @ + o O X X 8 @ K * ",
"o o + o O X X O O X X o O O V X O o . + X X X + O X + . o ; O O O @ + o X O * + o O @ + o o o . + X O O . + X O O O & + O + & , V ; , ..; @ o X o X o @ * c.! o @ O X + + O O o o o & o X o O O ..e.e.@ O o , 8 + O + @ & t...@ X O o X O + O o o X X + + o + X o o . X .   o   O o + o o o . o O + O O o X o O X @ o O O o + O o + g + o g ; O O + O O 8 o + O + + + o o X + + <.c.e.c.! g @ o O + O O + + X O o o @ + O O . o + X X o @ @ o + O O o o g * * V + O O * * + . , + O o + * V ; o @ g O X O o + o X + X O & <.! p.",
"+ o @ O X X O O O + * o + @ o o + O o o o O O o o X + O + @ + O o X X X o O O + + O & X + O o X O + + O O X X O + 8 ..g g m * <.c.& O <.K + * + o X X O 8 <.c.& o o + @ O O + o X o @ O O + + X + g ..<.& ..V ..@ o & * + + <.* o o o . X + O O X + + O O @ o X X X   .   , O + + O @ o X + g + @ * + O . X o . O O O o o X . o O + O o + [ K O X & ; , + + + p.! O X X o X X @ @ O O O @ V + O ; o . O o + O O O X + o + O o O O o o + o O ; O + O + o * @ O , z o o * @ + o @ + o O & g <.! @ + ; X O + O O X X O + o X g <.V ",
"@ o + X O O & @ o o o X X o o o o @ o O o o o @ + + + @ @ O O X O + o + X o O o O o o X o o o O o o @ o O + X ; O & O 8 K O + g z X O o O * @ + + O & + + ! K .., @ * O & X X O o @ & , @ X & X X , V M...c.{ z ; g g 8 V g { + o & g O X X O o O + + . + O o X   g & @ & * & , * X . . . g & , + , , O O + ; @ . o O o o o O X + O X ; ; e.p.K 8 @ O o o o @ t.t.g & & @ @ ; ! @ @ * o + g @ . X O + O + X X o X X + o O X O o o o ; O X o + X o X + @ o O + O + X . X o X @ O @ o + e.c.K e.V o o O O X o . + O o O o X o O + ",
"z + O O o o X X @ + o O o + X @ X X X O O O X + o + O X O O & O O o X o X ; O o @ O o X @ g ; & o O o O X O o O O O O , g & + + X X O o X o O o + + o * <.g g ! z O X o + o o o o o + g O . o . O o X + g g * ; @ @ @ g p.o O v + + o @ o O g 8 & + o + O + X o   * + @ ; * * g 8 & @ O & 8 * @ o O + g 8 8 & O O + O o O O . X o X & * ; &.e.<.! K <.c.g @ <.c.A...K e.! O O O O @ X o O @ + o O + + O . X O O o o o @ + @ . o o + * X O + o & + o X O X o o + . O o o @ o O O , ..K <.M.p.* + O X @ X o X X o O X O O ; o o X ",
"o + O O X O o O O O o X o X O O X X + O X . . o + + X o 8 g + X + +   O + X O + O . X O + + V & X o o X X O O o @ X + o o , @ & + + @ O o . X + + + O O ! 8 ! K O O O O o 8 8 X O o O V + X o & , X X X 8 K @ O + o o <.K + O o @ , o X o o @ @ , o o + X o X + O o @ g & ; 8 g , 8 * 8 , & * g * , , g 8 * g X o @ @ X o o O + O o o O + K e.c.c.e.c.K K K K M.c.8 v c.c.o o O + O g o O & K + . O O @ o o o o O X X + O O O o o O , + O o O o + X o o o X o + + z + O X X o o , A.c.c.M.8 ; @ X o @ + + X X + O o . + O & O + ",
"+ O o o O + o o + X X + X + o o @ + O + + + o o + o @ o X o + o O . + o o o . O O . + o o o v o X o . + o X X o + O o + @ 8 g X + o o + O O o X O O @ & g @ , ; + X o o o ; ! K @ O X X O O O + O O X ! & + & + + @ V & 8 + o + V O X * 8 . X & + X O o o , 8 O O   X 8 ; * 8 8 g * ; + * 8 @ g , o X 8 O o X X X O o o o o o . @ & 8 <.&.! ! ! ..<.<.! 8 K <.p.c.c.g 8 ; O O X X o + O + + m + X + o @ o + ; o o X o + o O o O o X & o o + O O + o O O @ + + O O + X X + O o X ; p...c.c.c...o X o o O X   X X + o o + @ + + o ",
"o O O O + o X ; o O o o o o . X O O @ @ + + o @ X o o O X X O o X X . O O O o O o @ * X o + @ + O O o + X O + o . @ X X X ! * + + X o + O X o X & O + &.o O O O X o o o o o 8 & & ; , O o o @ X O O O ; * ; K 8 @ g ! <.& ; + @ X o o O o . o O O O o + O z @ o X O X . ; & * 8 & + . 8 g * X + , O @     X X   . o + o o o + X @ g c.c.e.& V * K e...e.8 c.F.t.! 8 8 . o @ V O X + X X ; X o @ X O O o @ + + o O o + O O o O X X O o o + O O O X O o + , O O + X o O O X O O o * 8 <...! <.K O O o X o o o O o + + * * + o X O ",
"O O X o o O . O O O o O X O + O o + O o @ O + o o o O . o + @ O ; 8 + O @ @ @ . O O o o + + O o + o O + o O + X o X X O 8 ! @ + + O @ o & X o + O o + g g + @ o + * + o O @ o o + 8 ..+ + O X O O O o @ + g g O o O O + , o . O o . O X O + O X + o + O o + V ; @ O o o X ; * z + o ; O X X . . o 8 X o o O O X O . + O + + @ @ O @ K V K & z O + <.p.t.M.<.F.! p.! 8 O o O O o o X X O X X & o @ O X X @ o O o X @ + & o o + X & O @ o o o + o X + o o + g V + X + O O @ + O O + * g @ * 8 O o X o O O O . X + + o O + O O o O ",
"o .   + o o X X ; o o o + O + o ; 8 ; O X X O X O z o O X O @ X X + O * o O O ; O o X O O O @ X O o + & O X o O O + o @ X @ O X + o O O o + O O O + + & + @ * + & V K @ o @ @ o ; & 8 + + ; o . X X O + @ K &.g O o * O o X + + o X   X o O o + + O @ o O 8 <., K o ; + o + X ; X o o O . o X O ; 8 @ X X o O . O O o + o @ * @ & & @ + ; K + + @ e.! e.e.p.A.K O + o O O X X + o O O o o . O & K o + @ X X O + ; O o o X O o o X   o + o ; o X o o o o O X g O o + + X + <.8 g O ....+ g @ @ X + & + X o o O o X X O O o o O + ",
"+ o X o O @ o o O + X O o X o O X + o O o O + + O O + O O ; * O + o X & @ o + O o + o X O @ O o o o O o O o O O + o X @ O O o @ + + O X . + ; o o . o o o o @ o + X X o X O + + o . o O o O O O o X O + X X + o o X X + @ X + + X + , O o + O O O O @ o o 8 g * o . O o o o o o O . o + o X o X O   . ; X o o o . O o X o o X + X + o O O + + o @ 8 t...&.@ + + + + O o . o + O o o o o o O o O K X X O o + + o . o O o O O X + + o . X + O . O o o O o X o & . O o O 8 * p.<.V @ O + o + + X + X o O o O O O o + + X o o O . + ",
"O @ + o o + o + X O O + O o X X O o @ O X X O O o X o O , o o X + o o g m @ K o O X o O o o o X O + @ O o + o O X o o @ o X o + X o O X O o o o X O o + X g g X X + o X o O @ o X , O O @ + o X + + o o o o O o O o o o o @ X o X g , o X O o o O X X + * K + & O X o X @ X o o + o + X + O + X X O + X . X + O O O + O O o o + o o o X O o & O o K ..* O X + O O @ ..o X o o o o o O ..@ 8 + * o O + o @ + O o o . o + + o X X o . X O + o + O O + o X o X o O X o @ , 8 , & + X ; + o O O o + o O + o + o + . X X o   X X O + ",
"o + * ! ; X O O @ o . o o O O X o o X ; & + , + X + + X + O o + + K { 8 + g ! O o X @   o . O @ . . + O X + o + + O X X o X X O + + O . . o + O * o o @ K <.@ o + * O O o X X X X o O X X @ X O + <.g O + O + X X o ; o + X O @ o O O o + o . O O @ o + + & X o X o X + o + o X + + X o o O X @ X + X o o O O o + . X + V V * o X o o o o X o O + @ g o + o O O + + V X + @ o + O K ..t.A.K K <.@ . o o o O X o O o o + ; o o o O + + . X   O + o     . X + o o O , <.V ..o @ o o X X o + . o o o + + X * X O . o o X   . o O & ",
"+ @ 8 @ V 8 g ..V + o + o O o X O O O e.g e.<.O X O O o o X @ O X g e.* o 8 + ; o + + X   X   X . X + + X O o & O X   . . X X o o O + @ o O o . O X + & + o o o o ! g O O X o @ + X X o . O + + ..<.g + X O + + o 8 O X + O O @ + X o + o o o X X   @ o * O o X + O O X O X X O X + ; @ o o X O o O X @ O O + X O o X o * ! & + + + o X O o + X O , V 8 o X + o * g ! o o O O O + <.M.F...* ! * o o + & o + o @ o + + + o O + o o O X o . o X o o + X o o X X X o K p.g + @ o + X & o X O o .     X O X + + X X X + . o + o + o ",
"o & + X @ V V + o o X X o o X X X @ V ..Q 8 K & O , X O O o O o * K + O O X X X O O @ O X o O O o . . O o X X O + . X O O X + X . O X o + X O O O X @ X o O + + O @ 8 o @ o @ + o o * o & c.+ O @ V &.+ o o + + @ O o + O X o + o O & . o o O o . X @ O & o O O . O + o O o O o + o O @ X O o X + X X o o + + O + O o o @ O o X + o X X O X . O & + K , O + o o O ; * c.8 , ; o ; c.<.<.<.K , + o * O o O O X + X o O @ X O + + + X O O . O + + + X . X X + X X o 8 z g g O X . O @ O o o o o + O O X X O o O + @ X o X . o O X ",
"o O o + + V K o o O o O O o + O o O K , & * + o X @ X O @ O & @ X X X + o + . o + @ o + + o . O O o X X o O X + X O O X o X + X O X o o o + + + X @ @ + + O + ! ! e.e.+ o . O + + g V V V c.V + X g O & @ @ g z ! + o O O X X o @ @ O . O + * + ; . O X O X . @ + @ + X X o o + + @ + O . o . @ O + O o O o O O X o O O O o o ; O . o o O + + O O K <.* X o o O o ; &.e.V + @ + + g c., * O * + + K e.+ O o , o . X + . X o o . o O . @ X + o O o o + X o o X o + o O ..* + o O ; @ o X X o X O + o + . O X O + + X o O + o O o ",
"X O + + O X o X O & + o O + o O . O & + X o O o o O X O o X X o O X X + + @ & ; X o X X X o . . o V * O o o O o O + X + @ o + X O @ ; ; * O + o + . O o & @ ; ..e.M.t.O o @ @ & g &.p.@ @ K M.* X O o o O + @ + ; O o o o o   . @ X o X   . z o X o . + o + + O + . o O o o O X X + O O ; + X o @ O + o X X o o o o o O o X o o o o + O @ o O O o Q ! K @ O o X o K ! @ z c.t.K K , z , ; + O + e.c.c.e.+ , O + O o X + + O o O o O @ ; o X o o X . X o o X o + + @ X O + o O + O o X . O o X @ + + + o O ; + X o O + o X O @ o ",
"X . ; o X @ + g O o X + + O o X o O g + X + O o o X O . o o + o o O X O , O + o + X X o o X o O O @ , o o + O X o X o O o @ @ o & K ! ! + + O X X O + o * c.* ..<.p.K O @ @ o @ { K <.* X V c.! X X o X X X X + O + o + o O . o o X X O o o . X X X o O . & + o o + @ X + + X O ; + + + o o X o o . O . o X . o O + O X O O o O O @ X @ o o + X @ + e.8 * + o O @ t.t.e.! e.c.p.K K & g z , &.e.t.! c.p.@ + + @ o X o O O X . o O . + + o z + X O o o O X o o X o X X o * * z O O . O + o @ + o o X X   . O O . X o O + o + o O ",
"O o @ o + + O + O o + o + + O O O + O X + @ X X g o X X O O X . @ X O X o + X o O O o o X @ X O   , * o O o o & O + X + + o O O g V ; ..+ + o o o O O + V <.e.c.p.{ V V @ @ O + O @ + o + ..v + O O O o X o X O . + o + + X o o X X o o + X X . X o + o X + o o X o & g K @ + @ + * ; O + + & + X o o o o o O X o O @ o O X + + . X . o X X o o o O + ! g O o o O & e.c.<.c.c.p.c., g g , <.@ p.M.M.A.M.K V <.V + + O O O X   X o o + X + & @ + O + X . X X o + @ @ O O + O o + X O + O + O + o + O + o   X + @ X X X + + @ + O ",
"O O X X O + + @ + O X X X o X o X X O O O . X O O o o o o X o o + @ , @ + @ 8 + o K O +   + X X X X , X O O X o O o o o X X + + g O V g & o X + + + o X V c.e.M.z V z + + X o O X o + + + + X ; + o o X X o X O X . + @ + + O @ O X + X O o . X X + + O . O . X X ! e.e.c...* c.g K & X + + O O O X . O o O o O X o . o   O + o X o + .   o o X + X X O V K K g &.K V ! p.M.p.c.<.* K + + V e.g t.<.e.V &.c.c.e., z @ + o + o o X O o O O O O O + o @ O X + X o X O O . o + @ o + @ X X O + X + o o @ o o O X @ X + + + + + X O ",
"o O o o + X + 8 O X + O + . O o + o o O + o o + O o O ; X o X @ + , o + + * 8 ; o + O X o X     o X o     o . X + + o O O X o o X 8 o o o O + o X O o X O K K c.c.t.! * O X o o o o X o o O o o X + O o X & O o X O O g * * ! g K + + @ X + + X o @ + + + . + o + <.c.c.c.<.& p.c.t.c.& X + X o o O + + O O X o o O @ .   + X O + + O X . o + + O + X @ + @ V ; g & g g 8 e.<.p.<.c.p.+ ; + 8 g & g ! & * e.&.M.K + o X + O O o O + o O O O O X X o + o + O o X & X O + ! g & @ 8 @ K + o + O o o O + O o O . X o o + X o O o X ",
"o o & + + , ; 8 V o + O o . o o o X o X o o O . o o + o o O O ; g * + @ @ g K + O & + O O X o + X + O + O . X o X o ! O & + O X o O + . O . o o O o + o + * g <.g t.e.V O + + ; + O O X X + o + o X o o + o X X O O . & e...c.c.<.& + @ & + O O . X X o o . O X V ..e.<.<.g e.c.<.c.K X + o X + X . O O O O X @ O @ g ;   o + + o o O o   o o o O O O o O ! K ..* &.! & ! ! e.M.c.e.<...& + + ; K + & + g ..e.8 ; + o X O O + o + @ X o X @ . o O X X o X + g o o X o g * ..K g & ..K * X + X o o O X X + + o o + O ; + X o + . ",
"o + O O @ & @ O o o . o @ . @ @ + + + ; + ; @ o o + @ @ o O X @ O + & ; 8 + 8 @ o O O o X X O O o o o X X X X @ @ X + + X o o X ! ..K O o + o O . o o X + 8 g ..K p.V @ X & + g * o + + o O o + O X o o O O o X O X + 8 t.e.g K g K , + o o O o . + O + & O o o & g * g 8 e.p.&.E t.+ O O O X O o o X o O O + O o o X   O . + @ * + O + + X o @ + o O O @ e.{ + ; ..c.<.e.F.c.<.p.c.t.g ..c.&.&.K * p.{ g <.K ..; o X o o o O + o o O + ; O * @ + o o & o , o   o + o + K 8 g o X @ O O o O + o o X O X O X X O + O O o X O . + ",
"O + o g g ! g @ o * o X o O X + O o X O O c.c.@ @ o X o X O O X o + , + g & + o + o & O X +   o o O o X + , X o o o o + o o o o & * @ & O o O g K X X o 8 <...<.g , , O + X o g ..@ @ + O O o + o + o O X . O X O o o + g & O O O O o o X + O + + + & + o + o o + + K + @ p.K & ! ! o O + X O o X X X o X O @ o O @ X o o O + + X O o O + O O o + o o ; ! e.<.+ + ! ..c.c.e.A.e.<.&.A.c.e.<.! F.&.<.t.! K e.K + + O X o o . X X o X o o @ ! c.X o O O o o & X o O X o O X O o o o + + o @ O o @ X o o + X o O + o + O o O o O X ",
"& ..z <.e.V K p.p.! z + O o + O X X X X + + c.! & 8 . . O @ X + @ 8 * + & e.! o o O o X o . o o O o o O ; g @ 8 O O o X o o o O @ @ <.g O o X @ 8 ; + + , ! ..! K @ + @ 8 O O V <.e.! & o * X X + O o ; + O + o O @ o O + @ o O o + O X O X O O o X o X o + O o + o + @ + + <.@ V c.p.@ X O . o o O + + O + O o + . + O + O X O O O + + + o O + + o o + ..& @ ; + @ g [ ! 8 p.e.& o ; z ..<...<.M.! e.t.8 * * * g @ z o X o X O X o o + V + O o o & X X X X o X o O o o O o X X O O o o X O + o o X o O O o o o o X O o X X + O ",
"+ z V g & g ..V + g * o & O X o . X O X + ! g ! g , + o o o o g <.V ..c...c.V + O . o X o X + + X o O X X + O V . X o o X . O o X + & o o O X O V K K o @ ! e.e.g O o X X X O z <.z V + @ o X O o o o @ o o O O O o . O o X O O . o X + o g * o O o o X o O O & O + o + e.* ..! K e.c.+ o X X O + O O X O X O o . o X X o + o @ o o o @ o + o . + X O O * o X g & O O X O + V 8 X X O g F.M.e.c.<.<.<.K ; O @ &.V V & + X + + o o O O X , + o o o o X O X + O . o o o O X O X O o o O @ + . X o o O X o X @ g o . + O + X X O o ",
". K & * @ 8 * 8 g 8 + X o O O + o o . o + g 8 ; + @ + @ ! @ + t.<...8 ..p.! p.g g g ; * X + o X O X X X . O . X O O o o o O X + + O @ O + O K , c...c.g e.e.<.g V * o o o + v g g e.K g + o o O o X o o X . . X O o o + o . X + X + ; & O + + o + + + X . X o o O o 8 + @ @ @ ! <.! ..+ o O o + o + @ O X o o X O X + O . o O + O + o X . + O + O O o O + X o ; . O . o o + + X o o + , c.c.c.F.<.p.e.@ + g ; O o K K o X o + + + V X o O o O O , + O X o X @ + o + X X X O + O + X + o o o o X o + O X   + * X @ O o X O O o o ",
"o o ; + + + o O X o o O X + o O o X O o @ <.K g * X o & 8 + ! p.<...p.&.g ..t.e.K &.e.! g o o O X O o o X o X . X + O O o + X O X o O + + + e.V &.<.g e.! ; ..K + O o O O O O O + g O O o o + o X o O o X & ; . o + + + o X o o @ + + X + X X o O o + o + o ; c.K o + z + K g g * g K + X o X O + K g g + o + O @ o & O + + O X + X + O . O . o o + O X X o @ O o o o O & @ @ o + o * + ! F.e.<.g V + ; Q m z O V g K O X O * o O @ * o o o X + o X o o O X + @ X   . X X o X O o + o o + . o . o X X O X o o @ + + + O + + 8 + ",
"O X o + o X @ O + + X O O O + O @ O o + + V K @ e.+ O ; & g ! & z ..! & 8 * <.&.g ..! 8 + + O O + @ + X X o ; ; + o . o o o X o O X + + K & g K V O o + O o o O o & o + + + X O + o o X X X o X X o o o o + 8 . o + o o o O O + O + ; o @ X + o ; @ O ..g & ! c.g O X X @ ..<.* + O X X o o o o + ! 8 @ + O + @ , @ + o o o + X + O X + o . X o o O O O X X X & o O o O + X o o + X o O g p.i.@ & + o + o X @ g V @ g + + O + O o g + O O + & X o o O ; O @ o O o o .   O X X o O o o O X . . X X O X o O O X X ; . O O X o . O ",
"* ; O X X o X X & X + o O o o o X o + O o + @ &.V e.& g ! e.! <.g K g &.p.K K <.c.e.p.& + O X O , + X O . X o o X . o X O o O o O o X + ..g V @ O + + o O o o O o @ g X o X X X o O O o o + o O o X X . O . . X o X O o + + O X @ * g o . o O o K g g e.A.e.c.@ o O + + @ Q K + X . + O o o O X + * & & , & + <.<.<...+ O o X + o + O o O o o   + + O O O ; . o X O O O + o X O O o o & + * ..g @ ; @ X X + o & V 8 8 8 o @ o O X + + o O O o O + o O + o + + + + o X o + o o O O 8 O   o X o X o o o X o o X X O X . X . o o + ",
"o + @ @ + O o o X X + O O o O o + + O o o + O + O o o @ e...g e.K ; + , O g + O 8 8 <.@ K <.& O O + o . o o X o + o @ X . . o O X o o o V O g o o + + @ o o O O O + O X O . @ O + o O + O X @ O o + o . + X o X . X + O + o X X + & ; O X + ; + V V ! e.K 8 8 * * ; & K g <.@ K t.+ + . . o o o o & * K + . + @ K p.t.g + o o * o O O X O + . o o o + O O . @ O O . o o + O O + o o . o @ ! ..* K @ + X O o o o O o O o O o o X @ + K g + @ O . O O O + @ o + X O o X X o O o o o   O O O . o X X o X + O O X o o X @ o @ o O X ",
"X X o O X O O X X , O o ; 8 * O O O o o + + o O O o o V K <., * O + @ o o @ X X o g @ O 8 g ..e.O o @ ; O O o X + o O   o O . X X . X O . o + o * g + * + X & , * o o ; + O O O O o + O   o o O O X X o X O o + X o O o +   X . o + O O O @ + & e.8 z K ! & o o + O @ ..e.<.! c.c...K + o O O X O O V V @ O o o X v ..+ o O + o . o o + + + + O O O + + o X o @ @ o o O O O O o o O O O O + ; * @ * O . & X + X X + O o O O o O O z O X + X O + o o ; + o + X o X o O o X O o + X X X X X X X O o + + O @ O X o O o @ O O O * o ",
"O o X O o o O o o X o o o @ X o X O o + O o O o o o o X * V ..+ 8 @ X X o @ O o X ; 8 g & g ..+ o + + o o X & , X O O X O o X . o O X X + o o o O + + O X + + O o + . O + X O o o o o X o X o X o   + + . X + o O X . O X O + & @ O o O & ..<.V + ; + + ; + <.; + + & g e.c.e.<...z ..8 o O O o X o o . X o X + o + o O + & o o o . o o X X o o o o + o . O O , O X + X o ; o , @ o X X O 8 + , @ ; + + . X X O o . X O & X X . O + X O o O o + + + o O O o O O O o o o . X X o + X o + o O X + o . O X O K g g [ + O + + + X o ",
"o @ O o X + o O O O X O X O + X o + . o + + + o O @ * X o ; e.z @ . o X O o + o ; & @ o 8 + , , o o o O o ; 8 & @ X o o o X o O X   X O o   X X o o 8 X X + + + O o @ o O + O @ + o . o O O + o o . o . @ o X O o O X + o o O X @ o @ & <.e.p.K o X X X O + & @ 8 @ O z c.M.c.c.c.&.p.e.+ . o o O o o . o o O O O O X O O X o o O + & X O O o X @ o + 8 + @ + o o X O o + g K e.& X X o o O + + 8 ....X   . o o . o & o o + X . o X + o + o X ; O + O @ X . X o o O O O O o & O @ @ + o o X + + O * V O + <.c.g K + + 8 8 O X O ",
"+ o X o o + o o o O o ; @ + + + O X O X O O o o X + o O K + + o + o o o X o + + + ..K + , &., O + o o + @ & + @ o O o X X o O o . o o X X o + + X o + X o X O o o O X O O o o o + X . o o o + + O o O + + o X O o O o + o + + o + + o V g e.e.* @ o + O O o X O + O + 8 8 V K ! e.<.e.g + . X X o , ; @ o o + O + + + o X o X O o O o o . + O O O o O O + @ o O O o ; X O @ @ O + o X o O + @ * Q , X ; o + . . + 8 g X + + ; O O X X X O X o o X @ , O o X o X o o + + X X X o o + + + + O O o + + ! K K c.F.c.<.c.! <.* ; X + ",
"o o O o o + o + + X o o o O o O + + 8 O O . X O o X O @ + o O X + O + X X & + o O @ & @ ; g @ o + & * + & z + @ o o + O o X o O X X X o . O o O o o o X + o X o + + + o o o o @ + X X . O o o X + O X O O O + @ @ o O + X X ; O + + ! V <...e.+ o O X @ O + O . o X O o + X + e.K p.! K O o + o + O ! + O X o o 8 e.@ O X . . X o O g o o o . X . o @ O o + O o O O . @ K ..@ . o O + O O @ + + g . . + X X & O O @ + O o X . X O X O o o o o + X o o , @   . . O . o . X o X X O O O + + O o + + g g e.! M.<.A.p.e.c.+ O X X O ",
"O + o O o o o O o + O ; O o X X X @ V o o o o O o X X @ @ O X O + + @ + * + + ; O + . X + g * + & ..e.V ! g + O X o + o o X . o O X o o o O o X o X o o X + * o ; O O o O o . X o o O O O X o X + o o . X . O X + + O O o o . @ , , ! ..; g O + o o X O X X o @ o X X X o O + @ & <.e.K O o o + & ..K & X O + X O ; & X X o + X O O @ + X o o O O o + . @ + + O X o X 8 + g & O o K ..O O o O o * o X + g , * g + 8 * O o o X X O 8 g . O X . X   X . . O X + o   @ O   . O ; o O o O o X O 8 * o + * K M.e.[ i.e.e.V + X + @ . ",
"X o + X X o X X X + O X o o o o O + @ + o + o X X + @ + + X o O o O O + &...+ c.V O X O o g g + ; e.e.g <., o O O O X o O X O o o o . O X + O X . * o + + X + X O O O o O O o O o O o o . o o   o X X X + + o O O o o o . o X X O g e.p.@ , + O X O + o @ * o @ o + + + X @ + + + e.F.K o + O O + ; * e.* @ o o + + O O + @ + X X o o O o o & + o + o O o . o X + o o @ @ O + X ..e., z ; o @ + . O X + 8 @ , 8 * & v + O X + . + g * X X o o X X X O X X + o + g , & &   o O + O @ o o o ; g ; o + O g c.c.K A.! c.e.+ o O o + ",
"+ O & X O O + O X o o . o o o o + O o o o X O + O o + + O o + O & O V <.p.o O + g @ + + o o O + & ; ! * O O X . + o O @ + + O * o + X . o O o o X +   X O + @ X . X X o . O o + o O X X X O X X X + @ o + o @ O X O X X o o X O + O & ; . + * O o + X o @ o o + + + O . O ; @ X O * & @ O O O O , <.K * @ + + + O X X . + X o O O + + O . o o + o @ + O @ o O + + O o g + X o & ..K + + g o o @ o @ + O , g ; 8 , * O o . X . X . , @ . o O X . X o O + @ . X o z g * o X O o o . O o + O + , ; + o X m e.M.<.<.c.<.8 o O + o o ",
"+ o O X X ; ; X O o + @ @ + + o X O X o X o @ o o O o o ; + + + & <.+ ! ! ; o + + O @ o O O X X . o + & + @ O + o @ g o O + , O o O O o o X X o X g X . O O o + o X o & + o X o o X + X o O O o O o + O O X X o ; O X X O o X o o o O X O O ! , X X X ; + o O o . + X o + o + O X + + o o o O + g <.c.V ! * ! V ! X X @ X O O O * + . o + o @ o X + o o + O + O o ; & , & + O K g ; o O ; o + o @ + X +   + , + O o o X O o O + o X X . X . o O + o @ . o   O @ , g & X + o O o . o o o + + + 8 8 O X & ! A.c.e.c...V X O o o @ ",
"o X X o o o + . + O O + O @ o O o o o + . X + X o @ . X O ; X + + + + + @ O O O o o + O o O o X O o + O g Q ..O O + + o X + + X O o . O o & @ g + @ + X o o X + + o O O X @ X O X o + . . X X o O + O o X X o O O o + O g + o o + + o @ o + o X o X ; X O X . + X X o X o o o o X X ; o o o o O o K g &.! V @ <.c.@ + o X X O O X + @ 8 @ @ O O + O o & O + + + o o + @ g e.@ * O + o X O @ o o o X . o X X O X X o X + & O O o X + O o o o X o X o o X X X . + , + 8 @ o . O O + o X O * o X * + K <.* ! ! e.<.M., * O X o + X ",
"+ @ g @ o @ o O O O O O o X o + X     . o o X + + + + + O + o + , O ; ; O o + + X o X X o o o X o + o + c.e.M.8 + o + O o @ + o X X o O o g O @ * 8 ; X X + O o o o . O + . + O @ ; o   . X o O + X O X o O O o O o O o O * * o X X . X O o + * o O & O & o O X + + o X X O o + o X X O o + O X 8 V + g * o + K , 8 <.O O X X + O o + + 8 + X o o o O X X O X O ; O @ K 8 @ g & O X + O o + + O o   * O + o + o O o o X o o @ O O O + X + . o X o o X O & O X X o ; * X . . X O . . o O + o o + @ g ! g K * ! <.c.K g @ o ; + o ",
"* g Q + O & ; o O o o O o O O O   .   O X X . X + X o + X + O X o + @ o X o o o ; + X o X o o O X o O & <.K + @ + + o @ & & O O X o o + X 8 + + X g g O & o o O O O + X o O + O + X O o + o + O . . X X X + X + X o X + X o + + o @ o + O O + O o o o + o + o + O X O O o o X X + o X O + X o @ & X o @ + X X O O O O O O o O O X O + @ , * o O X + + O & X + + O @ Q ..8 <.* V @ o O o O o O O O O + X O O o o o o o X O o O + o @ X o + o o . O O O X + o o o . + & + X . o o X X O O ; X ; o o X + + K ..c.<.c.+ @ o O X o O ",
"O * 8 + O ; * X O ; + + X o o X . X O o o + g X o + . X o @ . & o ; & o @ + o K & O o @ O + + o ; o + @ ; & 8 e.<.<.V @ V + * + @ o . o . * @ o X X . O o + o + . o o & O + o o + + O + O o + O + @ X o X + o o o + @ @ @ O O @ + O O O o o X X o o o O X X   O + X O O O o X X + & . O o O @ ; O o o O X X O + + X o + o o + X + O + + O O . O X + O o X X o X & g ..g K M.c.! z & X + + O O o X O O . O O * + + o & O O o + O @ O & O o . X X o X + o & o O X o @ g . X .   X X o O @ o O O O + o o X ; g K * g + + + O o O o ",
"o O + O + g & X o X o X o X + o . o O X   & , X @ o o O + * o + + + O o @ 8 g e.@ + o + O O X . O g ..! ..@ g g & e.e.z & + O X X o o . . X X + o   X O O O . O & o o + o * , X @ . o . X X + + X o O O o @ + O + O O @ o O X X o O O o X o o X . X + o O   o . O o X o + O X . X O + o O + g * o + o X + . + X O o o + X o X X o O o o O o o + O + o O + O o X o K e.e.! K c.e.K ! O o o O X ; O o . O o @ O o O K + O O & X + @ + + o + X O X o X X O o @ * X X X X X + X o O X X O @ O X O . O + o o o K ! V V @ o X o @ X O ",
"+ . X o & X * K + X o o o o o o X o O . + & , & o o X + X X o O + O O o & K 8 K ! ..g O o + X X O &., K V c.K @ ; c.p.! K & * o X + ; X O . X g * . X + O . X O + & o O O o V o o O O o o X o o O o O O X O X X @ O O o + & O X o o O , o , g O . + o O @ O o o X O + g @ + o X O ; o o O X o o ; @ o + X o o + X + O X o X X O o O X o + o o o + g 8 X o O O + + e.p...<.& z e.M.K O X O o O O + X O + ; X X + @ O O @ @ O O o X + O + o . + + + o X 8 g & O o + O o X + O O X O & X + O + o o o @ o o & <.c.<.& + O o o o X O ",
"o X X + o + + + o X O o o O o O o o . . O 8 & @ X o . O O + O O o X O @ ..<.e.O @ ..g & ; X + X O O &.<.p.K ..K & c.e...K z * @ O O o o & X O X X o X o + o o + X O X o + V v & o . X O + X o o o o + o o . o o o o o O O o o + X + o   O 8 * O + O o + O o X o X + + o O o + o X X o X o o O , + o o O O @ + & o o + O o X ; O X X + O . X X o o . o + + . O X o @ g e...! <...p.! X o X o o X ; X o ; @ X o O * O X + & O X + o O @ . + X + + . o O o o O o o X X + o + O o o ; o + O O O + o + o O o O , ; * O o o o X . o o ",
". o o O + o O + o X O o X O + X O , @ + X g 8 X O X X o + X o + o X o &.M.<.& g g p...X o * 8 @ ; O , K { ! & g * + ; O . & ; O O . . O O + X o o O X + @ X o @ o X O . X <.g ..* O @ o * o X X o O o X o X O o + O . + @ @ o O X + o O + @ &   o X o O + o X o X O + + X O O o + + O o O . X o O o X + X o o o O O . X X . o . O + o O O X O O o X O X O X X O o o O e...M.e.c.K O o X o + o O O X X o   o X O 8 X . o o o o o + X + . o O + X O O X X o X X o O o o o O o o O o + O O X X o O + o o o ; o o & ; O O o O O o O ",
"O O X O O + + o . O o o     . O 8 & , + * & @ + o O O @ + & O o o + + ..<.& <.e.8 ..e.* + V , &...! K <...! + . X + X o O O O O + X X + + O @ X O + + g O O O X O o X o & , g ! <.+ + O o . . X O & & + O o o O + o O + O @ o . o o O X + & X o O o + o . o + X O o X o X O X O X X o X o + O @ o X X X O o o o O + X O o X O o o o O o X o X + O O O X + + o @ o + + K e.&.e.c.z O O O o X + + O o O o o O o X @ O o o O O + O + X o O o @ o o O O o X O @ g , ; + o O O O O O o o o o O o o O o + + O o X o + X O ; ; + O + o ",
". X o X o o + o O g O o o   o 8 , ; O * ; 8 @ o @ O o X O X X + O @ ! + K V ....8 g z + 8 p., c.z e.c., <.K + O o + O O X o o . . o o V c.E t.@ , e.! @ * @ @ o * O o + o X X K g o o @ + X + o X ! 8 @ o X o O + X X X O X o ; . X . X + * , X X + X O X o O X o X O + + X o @ O o & o X + O X X O X X o o X o + X O . o . . O o O + + o + X o o X & + O + o o o O o @ V <.<.e.X + + O o O + O o o X o . O ; o o o O O X + g + o o O + @ O O . + + + o O + V ! V O + O + . X o X O ; X + X o o + o o + o X O O + o + X X X o O ",
"o + O O O X O X X . O o X . o + + O + X @ @ +   X + o o ; + X o & @ * @ O ! ! <.<.@ + K K z e.8 * & g @ V , + O o O ..@ O o o O o + O c.K p.<.V , & g @ ; K 8 8 ! g O , O o o & + + g O + + + + & ; 8 + + X + O o o o O X o o + O . + * g , , X O + + + O O o + o X X O o X @ o @ + O X o o X o + + o X + + + O o O o X O O O o O + O X o O O O o + o O + o O X O o , <.c.c.M.<.@ o X O O o + X X + o o O o X o O X o O X + o + O o O X & o V + O @ 8 + , K K e.! X O + + + o o o + X o @ O X o + o o O + ; + X X X . + O + . + ",
"O O X X X         . X + o X X o o X . + ; 8 + X X o + o o + X o O g O * g 8 * c.K @ * [ 8 @ V O o + @ o o + @ o o g 8 O O ; + g & o O K V * * 8 @ + O K K M.M.<.A.! <.V o o X + @ o O . o + O @ 8 O * ; g g O + o o X o + . O O + X o X & 8 g @ X .   O o + O ; o X O o + O + O o o + + @ O X X X O + X + O o + o O @ O o X . X X + O o o o o O o @ o X X X . o E <.z ..e.<.<.p...g ; + o g 8 o + O @ * + o o V @ O o o + + + @ @ X o X + 8 ..c.g ......<.e.A.&.m & O X X o O + O o + , g g + @ O o ; X O o . X X o O g + X o + ",
"@ o O @ o   @ X o o + o O + + O o o O X . @ 8 + O o X X O X g ; ; V K * & @ O ..! M.c.e.K @ O @ O ; , & + @ + O X O o O 8 + 8 @ V <.+ + o + K ; K V , K c.<.c.K e.g O + + o O o X + & @ O O + & o X o o o O * + o + o o O + + X O X o o @ , , , o X O     X X + X o + X X X O o o O + + ..K 8 + o o o o + ; X o o o O + X O O X + o . O @ X o + & X & O o O X o O 8 V e.e.V @ + <.* ..* O O O o X O o 8 K ! g V , X O O * ; + , g @ ! ! z g @ , @ &.e.p.c.F.e.V + o & + o O + * V ; + ; K V X o + + . X o + o O O . X o O X O o ",
"O o O O ; o o . X o O X O O . X O o o X . X . . o X X O o + + o + ..&.g 8 + X + <.c.c.e.& V o * & z & O X O o X + + X K .., @ , g ! V o o @ + ! K g g [ e.A.e.e.! ! ! + O o . O o V g z & o + o o O o + X o + ; O O O X @ o + O o X X & , g & , & X + o O   . X o @ + @ O O + + O O X @ g ..K O O O X O o O O X X + O . o X X @ X X O X o O + O O o + . o & . + + @ + e.K & O O * ! ..+ + ; + o o X o * ; K ; O O o o O @ * V g ! ..! g V O O o @ K <.e.p.c.M.<.8 o X o o ! ; m ..8 & g , + + o o o O X X + X o o O O o O O o + ",
"O O O O X X o X X O o X O o + X . . o X & . o o + . O + O o o X O g <.; + X o X o V g V g O O V * X 8 g @ + ; + X O O K e.V @ g V @ + . , & @ 8 ! * 8 p.c.t.! ..<.<.V o + O X o X K o X o & o o o X o + + X + + o o + + o + X o o X o . X ; 8 , + o + o o o X X + O + + O . o X o O + + @ + o X o o o o . O O + X o X + o X O 8 o o + + + o o o + o O . o . X X X X o * * <.V K ; + g ! X o o O O o O X ; K g o @ O X o O + * + & K 8 ! p., O V K <.c.c.e.p.<.t.* * , o X + O & K + O o + ; & O o o o o + o o O o o & O o O O O ",
"O + + + o X X X . o X + X . o o o X o o . X X o o O . O X O o o . & o 8 O O X + O . O o @ X O z @ o o X X O & O o X @ ! V @ K @ O O o X o & * O m &.p.e.<.O O V [ e.8 + X o X o o O O o O 8 O o O o X O O o + * <.+ o o X . O O O o X X o   O O . . O @ O O ; X o O o O . X X X + o @ o O O O ; o ; + X o + + + + o . X o   & 8 , X o O X o O o o + o o o X   o O o O X + <.t.* <.@ , K O + & O O O + o O O O + o O o O O * @ X O O ; c.@ * <.; & V @ <.M.c.c.c.V @ + X + O o X o O O + ; + O X O o O O @ O . X . o O + @ O . O ",
"X o O o O . o o X + X o . , o   * g , + O + X + o @ O O @ X O X X @ V & o X o o + O + X . O * O + X o + O X . o ; + ! <.! &.&.+ O o o + & @ K & F.A...c.K , @ K ..g g @ + K o o X O . o o + . X . o g @ O o ; @ &.* & O X X o X + + o O X X o o X + o o + o + o . o + + o o O o o X o X o + + o + o o O o + O + + X X + X . . o X o O O O O O . O o o + . X X ;   + o O V e.<.8 g ; 8 ! + . o X o X X O O X X + + @ @ o O o X @ ..t.e.! 8 + o + o X o @ c.e.c.c.! O @ o . O o + O o o X o + O O o o O . o o @ X . o o o @ + X o ",
"O O + X o o O o ; + O o X X . @ ; & 8 O O X o X o @ O @ o o X X O e.<.+ X o X + @ O X o O X O X X X . o + + o + ; 8 c.&.* ..& g & + + + @ ! K V e.A.M.e.! o X @ g g O <.& ! .., O o o @ X + & @ O O & @ 8 ..@ & & ; ; @ o , + X o o o O X X o o X o o @ O + o O + o X X O o . O X O o o o o O X + O o o X O & + X o X ; @ o . . o + + o o o + X o . X o O X . . O o @ o * g <.@ O @ g g o + O X X O o X & + o o o o o O o O X V & g g &.O X o 8 o X X + e.e.<.g K O o o O o O O O o + + o O o O X X O X o o o o X   X o X X o + ",
"o O O X X + + + + O o O o O + * g , V o @ o o o X o o o O o X o O o + , o o o + o + o + o X . o O o o O X O + + ! * e.e.M.<...8 O & ; g @ 8 8 K <.c.c.g p.g ! ! ..V ; ....c.e.e.&.; & + O K , ; + <...V p.&.K O O ! & o X o + o O @ O O X + o X O O . O + o O o + + o X X o . X o + O X O X O o O X o O X o o O & o X X X o o @ X X + X O + o O o o X o X o o o o . O o o + z @ ; + , , X & X O + o + & @ + + & @ g o * o o O + ; ; ! z o o X O O O O X g t.! g o K , X o O O + o o X + + o X O @ o X X @ o o O + o @ + o ; & O ",
"X o + O O O O X O O + O . . & ; o ; 8 O + o X o o X o O + o o o X + O O o + O o X O X o X O O . 8 O + + + * + O O * ; g &.z & ..p...! V * O + @ ! <...<.e.e.c.&.c.c.! c.e.c.<.A.M.& g + + & , g t.<.e.c.K <.* + o * ; o O X o o O + + @ & o o o + X o + O o X X ; o ; + X X + X + + + o . o o X X X o . O @ O + O o X o o X + o o O o . o o O X O X . o X + + O + . + o o X O X O @ + ; O o O o + o O + * ; O K e.e.O @ + + + g g + V @ o o o o @ O o o + + 8 @ @ ; * o X & O o . o O o o O o + O o + + o @ o O X O O O o & 8 o ",
"o X + + O X . O + + X   O & g O   + + o O o + o o X @ o O o . o o o X + X O O * * + O + X . o O + g & + , , V ! * X O K <...g c.e.....&.c.g g + O , g ..p.c.e.8 ..c.p.e.p.p.c.p.e.@ @ , + O & @ 8 <.c.! z K <.& + + X + O o @ + . O & + O X & o o o + o o o + o X + 8 o o o O o + + o X o o o X O O o o o + o X O o + O + o O + O O o @ + O + o X O o o O O X + X o X O O + X + o X O + + o + . o @ & ; e.K + @ , ..* O @ V + g * O . o o + @ o O o O K + O & + o * o + . X + @ O + @ O X O @ o O O o O O o O o o X o + ..O o X ",
"o o + @ o O O & X O X o & @ & , @ X . o o + o o + o + O o + O + . X o + + O o o K o X o X X O X O * + + 8 ..K 8 * + @ e.K o + ..t.p...p.& g g + X o + V K p.p.....c.p.c.c.! p.K @ o O + X . o o g <.c., & V g * ; O o + o X + X o + + & X g K , o o O O o + o o + & O X O o . O + o o . o O X O + & + + O o o + o O @ o o + O O O o o . o X X + . O . X o O X + . o o o O @ o ; * o o O O + @ o + O ! 8 c.8 + V <.g g + * K g K g o O X o X X O + ; + & V ; o + o o o X + O o O O + @ & o + X X + O X o + + + X O X o 8 8 ; + X ",
"O O O o X O o + o O + O X o . . O X o O X o o X + o o o O o @ o o O o + o o o * , + @ O + O o K g + + + @ + o + ; , g * + O O p.c.c.p.K X o o O o o X O , V A.p.<.c.e.p.....&.v 8 g g , @ o . O + K 8 O K e.8 O . o & O o o o . O O o + & ..! V + + O o O O O O o O X + . o o & o O X X o o ; + X o + o @ O O @ o @ o o o o + + . O O o o o + O O o . + X o + O X O O X . + O o O o o O X + + + o & K g <.<.e.e.e.K 8 e.p.@ o + + o @ . & o O X O O @ & e.K @ & X o o o O O o X O + . o ; o X + X X O O ; + O + , o O & + 8 @ & ",
"& o o o o O o o o X o X . o + + O O o + o X o + + O X + + o + g O . O O O o O o O o @ o O @ ..c.& O o . X + + o o @ c., + & 8 g c.V <.V O + o o + O o O o O V g g e.M...& 8 * + V e.&.O + o o O @ o o o + O * + o o O . O @ O X X X X + ..8 K ..V X O X X o o . o + O X O . X X o O o O o @ @ o O + @ + X X X + o + . X o o . O X O @ o , + g X @ X X X O O o O @ + + o + + o o O O + o X + + o + V e.<.e.c.e...e.<.e.M...o + + X O + o + X + O & @ ; * e.@ o + o o o o o o o . O o o + o o o + o . @ o + + + g ! O X g X o ; O ",
"O X & + + o O o o . o O o o O + o O + o + @ o o O O ; @ @ O + O X O X X X + g @ X + , + O , g & & o X o O V [ + O + g z t.+ + K e.c.e., & o @ + O + O o O o o X g <.g X o o O X O K * + @ o X o o O O + X o o . o X O X o o o + O o o ; K c.V g + o O O o o + o @ z O o o + 8 + o X O X X @ o + + o O . o o o o X o + o o X   + o o O o o o + O o O O o X + X o O + X @ + , O O + O X X o X o + K ..! <.e.K V A.c.g <.&.g @ O O o o O o O o O o + X + + * o O X @ @ o X + o X ; O O & o o + O + X * z ......e.g , & , g + & 8 + ",
"o o X X X o X o O   o X o o + X O + o + X O @ @ o + K ! g o o + O O . + + O + O O O + O o 8 [ + o O o ; * ! c.8 o o + & @ O + + + g K O o + X O + + o O o o . + K g g o + X X . @ + @ O X O X X O O X X o + o o O @ + O o O X o X O X + e.c.& ! & ! ..o . o . o ; v z X + @ ; + o + o + * @ o g & o o o . X X . X .   o X o X o O O + O o X X O X o X X o X X O + O o @ @ X & O O o X X o O o o K g K K 8 @ c.e.c.K + ! & + g o * o o O + O + o X o o O o X + + o o * o o o O ; & + * + o + O o + ; & c.<.<.e...V g g O @ e...+ ",
"o O X + o X o o o & + O X X @ + + @ o + X + o + X + & O o O + X X + + + O O O o O o o O O + @ + 8 8 c.......<.z + + O @ + o o o O + @ X o @ o O o o + + X . X O + o o + X O + o + @ X X X o O o o O o O X @ O o o o o O o . o X . @ & ; 8 g * g , , K K @ * O g & ! & g * K 8 g + @ o ; K g ; o O + o O X o + o X + . + o O O X X o X o o O @ + . O o . o X O X X . X + X o + 8 @ @ & X X + X X V O @ * ! p.<.g V ; @ g X . X @ o O O o + . + O X o X o o + o O O O o o O X X o O X o + X O O o X + <.V V V g ..<.* & X o ; ; o ",
". o @ & o X X X o .   X o X + X o X O X + O X X O o o O + + O X o o + @ o + o + o . o o + X X X g c.p.V g V V ! & O + 8 ..X X X O . o & o X o o + @ X z + o X X X O o X O + X o o + o o O o + O o o X o   @ o @ o @ X @ o O & O . X o o o O O @ + + * , , @ & p.<.p., o @ <.; + ; ; ..<.c.M.<., o o O o X + X o o O o + O o o O O X @ O o + o o o X X 8 8 & * X + o + . + X o & O + o O O ; O ; , o O , g <.<.g g V , X + O o X X o + o X X X o X o X o @ o O o . X o + @ o + O X + o + o X . o o g ..c.c.[ ! c.c.8 + X o g @ X ",
"O X o o X   o o O X & O X O + o X O * ; X O O o + O + ; X . o O O ; + + O + + O X X o X X o O + + p.! M.K 8 V K o O O X o o X o o O @ o O @ o X o O o o * @ X o o + + o + + + o O + o O , + O O . X   O + o @ @ + o . o X * * o X , & o o o O + O o + * ! ....e.&.! + ; 8 K e., <.c.e.F.p.e.<.+ X + O + X . X O o O @ + @ @ o X X + X + & . . + + + o & 8 + o @ 8 @ X X o o O o X @ X @ K V * + X X + g + @ + o O e.p.8 . @ X o + O + O + @ O o O . + O o X o . X O + X + O X + & . @ X o O O o O K V <.<.M.<.t.c.v X g <.[ V O ",
"X o o + X . o X o + O o . X o O o 8 c.+ o & * @ O O O X X X @ o O + O o O O X . o X o X . O o X X g K ..! g O o O X . o o o O O X + X O o * + o o o o 8 & g @ O o @ O + X ; Q @ o + o o o o . X X X X X O + + O + o g o O o * , o O O O O o O O O + & ..F.e.e.! + + o o + , <...g c.e.e.c.e.c...O O X X . + g X . + X X O X o O . + o + ; + X X + & O g & + g 8 8 * * O @ O + X o o o * * { e.& O O O z g O K + O &.* O ; O X @ @ O O O O X X X + + o X O @ X O + . X + & O + + X . O o . + O O o <.<.g t.A.e...g g p.K <...+ * ",
"X o X o o . + O o o X + O o o X * <.K + O @ + o O O O o O o o X + O + . o . O + o O + O O o o o + + O ; @ 8 g O o + + o . o o X o O o o X o O o o o O ; + 8 ! @ o @ + O X O 8 @ O o O X o o . o O o X o X . + + o X @ + X X o o O o O + o + o O O X X g <.p.<.M.e.m + O X & @ V V c.<.c.<.e.p.+ o X X X + + o . X X o X o + . O o O . O   O o . @ + O + g & * 8 O o + o o X + O o O o * ; o O o + O o * + g o + O * + + + O + X X + o o o O o . o @ @ o X O X X . + X O @ <.g ; O . O X X . X O O e.e.c.e.p.e.! e.<.<.e.! @ + o ",
"+ o o X o X X X @ X X . O O X X + g @ K , X o O X o o + + o o o O + O ; @ + + @ O X o o @ X X O o X O O + X X X + O @ @ . O X X O O o O o o X X o & o O ! * & + X o ; O O O + + * + o + @ o X O o + O X o +   o + @ + o X O o o @ o + X o @ o + + + X + <.c.<.c.....e.+ o O 8 + ; e.i.<...c.c.O o o o . + + O o O + o o X o O + @ o .   o + o O o O & o ; . X X o O X . + o o X o o X g ..O o o + V ! ..g O & + O O O e.p.+ o o o X . o X X o o X X X o o o o . o O o + + ! 8 o X @ o o o X o o + @ * O , o & O @ ..e.! @ + & O ",
"O O ; X o o ; X o o o o + + 8 & g O @ & K ! @ V v O o + o O + 8 O . o g , e.p.<.8 O + @ + o O o X o + @ @ o O @ g O O O O o X o + o O O + + + + o + O ; , @ ; ; o O o + + 8 X X * * + X . O X o o X o . o + O . o X X o o o O O o o O + + + O . o X X V c.p.c.F.e.E t.K * K o * 8 e.e.e.<.@ & & O . o . & o o o + X o X @ O O o X O + X + + X X o O X o X O X . + o o o + O @ & X . o ; + 8 @ & Q K e.g @ @ @ X + @ , <.c.K <.@ * + o X X o O X O . + o o o X o X O + + @ ..e.+ O + @ ; X O O X + + + g + + + @ z <.e.K <.g g o ",
"X O O o X + + O O O ; K ! K <., O O o ..<.<.....p.g o o + O g + + + . g p.V K e.V o . o . o o O o . o + & X ; 8 ..V X O & @ <.+ @ + X o o X + O O O O @ + o o . X o o o X + o + & o O o + o X o X . X o + o . X + o O O X + o . O + + + O X + X X O O c.e.<.<.e...e.c.p.& g @ V K <.<.g + @ o 8 o O O O o O X o o @ X X o + O O + o X . + @ + O @ o + o X o O X @ 8 , + o O o O O @ O X + g K , <.c.<., o O + o + V , p.<.p.c.+ O O o . + o O o O O X + O O o & o X o o + * g X o + @ 8 + X o X @ o + o o O O & @ ! c.&.<.V o o ",
"X O o + o + o O o ! z * * K K V c.! ..K + <.&.g g @ O o + O X X O O + ; O ; ! p.* @ @ o + O o O + o & * z + &...8 O O @ * e.& + + ; o o o o o O + X O o + o + + o o O o O + X O g @ X O o X o o o o o . X o X O O X X o O X @ O X + O O X o O O X O + ! c.p.c.c.K K e.g o @ + + , g V ..V ; & o + @ 8 o o X O o X + + + o o o X X X + O O X o O O O O   X . O X X @ ; O . o O . O o o o O 8 <.K c.M.M.@ O , V + + p.e.K g <...e.8 O 8 O X o O o O o O . O o X o @ o + + 8 V O o o @ 8 @ + O X X @ O + + V + + O + O O @ g @ o + ",
"X o . o o o o o X o @ o + <...e.<.e.M.g ..e...8 X + X O . O o o + * + 8 + O o @ O O X o . o X X O + + ! <.e.e.<.e.g X K K ! 8 X O O + o @ + o X + O O + X + X X o O X o O + + O X X o + o o   o O o o . o X o + X O O . O X + o O + + X o + . O O , K K , e.! ..g K g o X o . o X O ; c.V + X + X o X X X o O o X , @ + O g K o X X @ o o & X O o + . . O O X + X X . O X + + o o + O o @ V p.e.! p.c.+ o + ! @ & e.A.e.! V e.g g & + o + X O o o + * + o O X O O + + o g + O o X O & o O O o + @ o + * ; o + + o o O o O O + X ",
"X o o + o o O . o X O @ V <.<.e.c.c.c.p.A.<.8 ! , O o X + X X + + O O O X o @ & + + . + X o + o o @ + o g c.c.e.<.....c.c.* + + * X o o + O + O X o . X O X + + X o X o . O + o . X . o O o + O o o O + + o o & + o X O . + o + & + o @ o + & V ! + X O @ V A.&.&.<.; + O o o o + o & z ..; o o + o X + o o O + + z g + O ....g + + O o X o o O o O o X o X X o O o @ + o X . o + O + O X @ + <.! V , o * + @ X 8 K g p.e.g @ @ X @ O . . o o X + o O O o + O O o O O o O o O O o o O + X + + o X X o + + o X @ O o o + X o o X ",
"X & , O & X o o X O O * e.<.e.e.c.e.c.M.<.V <.e.g g o O + X O X O O O X X o X + * o X o o X . + + X O 8 8 c.e.<.! ! <.c.V , & @ g O + X o o o X + O O o + o @ O o @ X X o + O O O ; X o + o O o @ X O O ; . + o O o + + X + X o X @ X O X K t.! g @ o O ; ..p.<.! g O + X O o o + O + K o + + + O @ O o X . + X O . + , O <.t.c.K + O X o . X X o O + o g o O + @ o O O + @ X + + O O X @ ..<.t.c.@ O o O o & @ , * K c.<.@ ; @ X O O O X X   o o o o o O O o o . o o o X O o + X o . + + + o + X o o o O o X + o o o X X O X . ",
"o O o . X O o + O X + ..c.<.M...c.e.e.* , g t.* + K 8 + O o O o + O o X O O + o + O O X o @ O o O @ * + e.e.! p.<...c.e.8 K z ; O @ O o O o o o O X X o + X o O o + O o o X o O o + @ X + X o o o O o ; O . X o O @ @ X O o + & @ O . O g V V @ g + V <.! e.c.<.e.&.O o X o o + O & & @ ; O o X X o X + O + O O o o o K V <.e.e.g & g + o O o o o O X + o X o O X O o o + o @ @ X X o o & c.<...; X + X o o O + O * g * & ..! + . X o o O .   + O o O o X o O O o O . o + o o o O + o O . O X + O & O o + o X o + X X O + o o O ",
"O o . o + @ o + ; O g ; <.c.e.V + ..! ! , , <.g g <.t.! o + X o O o X O + + O o o o ; @ + o o @ @ K <.g ! K ! c.t.e.p.K 8 ! ! + + V + X o o . o o O X o o o . o + + o + ; o + X . X O + + O o X O o X o + X . X + O O o + X X + O o & + o V * , & ..<.! c.c.e.e.e.<.; , o . o o , K V e...O X & + o + O o O O X X o o @ + , ! ! V ! O X ; + o o X o X X . X . . O + X + O O O O O X o O , K K o o o + o . O o o O 8 g 8 + + & + X O o + + @ X X + X . X @ O O @ o ; O O , X O o X @ o + @ + X O O o o X O + o o o . @ + + + + + ",
"+ o + o O & . * g @ V 8 g <.<.K ! c.K 8 @ ..* , @ , * O X + + o O o + o O X @ X O e.K , O o O & z 8 V K K V g ! V e.c.K g + K ! @ o X + o @ O o O o o . . O o + X ; O + + + o o + X @ o @ . . X o O O o O o X O X   o + X + o X + O o * O X + o O K ! e.e.c.c.c.e.<.* @ O O X O @ * <.V g <.@ o   + X + + + X o o o o o O ; g p.@ 8 * o o X X o ; o X . X X + o @ X O O & + + + X + o o 8 + &.@ O X o X X + @ ..@ g * g K O o + o O   o X . . X o o + o o   X O o + X o o + + X o o X o + o o o X o o O o O X X O O o O + X o + ",
"X O O @ X o o o z + . + & <.c.8 @ @ + ! @ , g @ g g @ X + O + O o o O X o o g O + g e.O @ O V g + V ! ! c.&.c.t.&...<.<.c.@ ; g z o o ; 8 + & o o O X + X X X + o O + o + + + + + + O & X . O O o + @ O X o   o O o O o o o o X ..& . o O O O + o ..g e.A.p.c.e., &.<.& O O o , z ; <...V c.g o O O + o O + X O O o o O o @ <.<.+ O + o O O o X o o   O O O o o X O O O X X O O o o + + @ o , g O * o X . * ! @ g ; * K 8 o X O O X O + O & g   o + o X o o X @ o O O X . X + X o O o O + O o + o o . o o o X O o X o O o O O o ",
"X o o O O O ; g o O o o & v g @ 8 + o + , g & + z & @ o X @ O . o + @ O + O o V , K e...; 8 c.8 ..<.V ! z K K g ! c.A.t.<.K V V { * + o o + . o o O O O X O O O + g + o O g + o X O o + o + + X . o o o O X X o o o O o + O O X + + @ X o . O . X + e.c.M.M.e.V <.e.K V V 8 g m V K & @ + O O o o X o o X   . O + o . o * * e.t.K O o & O . O + o + O O o ; . + X o O o + o o O o . O O g + + g O X O O O X + , + o o O O X + o + o X . o X *   + X . O + + O O o + o O O V * o X o X + X o o X O O O o X X X X o O + o @ o @ O ",
"O O & o @ K & o O X O . X @ O o O + o X ; K V X * ! ! ; O o O o X O o o + & + &...K e.K + e.M.! + <.& ! ..K g ; K c.e.<.c.&.g O + + O O o X O O O o O o O X o * , + ; O ; ..K @ o . . + o . o o o + o X o   + X X + O X + o + O + + @ . + o o ; K X 8 K M.c.c.e.<.<...e.e.e.&.! ! c.V o o O + + O o o X   + o o X O ; o o ! g <...@ o + O o O O + X + O & @ o X + + X O o o o O O X O o ! O + V @ o X V 8 o X @ O O o + . O O o o O O o + o o . X O o X O & O @ O O O + o o O V g o o O o + O X O o O O o o X @ & X o O O o o O ",
"O O O @ g K V &.+ o O X @ O X O o o O o + ..e.[ c.K ! o & + + O o o * <.c.t.c.<.c.e.g , &.! V ; @ <.t...c.e...8 & g p.<.p.+ o X . o X o O X X ; O O O o o o + o @ o o + + ! K o + O O X X   X o + O O   o 8 o X + o + + X o + o X X o X + + g <.V g e.c.t...g c.8 <.<.c.c.p...e.&.{ <.+ X . @ + + X @ O . X . + O o g V & e.K ..&.+ O O + @ + X O o o + o @ o o o o o O O o X o O O o o + 8 p.g ; ; & * * + + g ! ; O + O o o O + o O o + . o X   O o o o X o . X o o O + O X g o o o X O o O o X . O X X o & o X + o o X o + + ",
"+ + O & e...e.V + @ + O + . o X o + + O g ..e.p.<.V + + o + o + o + + c.M.A.F.e.p.&...<.c.e.<.g <.e.M.F.c.e.<.<...K ..p.p.K O o O O + + O X X X O + + O O X o + K X O O O ..; ; o + O X ; . X + o o o o   . O o o @ @ X + + o X O + o + ..<.t.! * &.e.c.c.8 , O K e.<.K ..t.F.c.e.M.e.! + o o O + O O + O @ o O o O g e.M.M.p.c.! o o + o O O O O o o O o V @ + X X + O @ ; + o o X O O ; 8 K & + ..; + + O X ! ..g O & + X o O + o o O o . O o   X o X X . o . o . X O @ o X o + X O o o . o + o X + & 8 & ; . @ . o O o + O o ",
"X O . c.<.V @ @ X + + + X X O @ + o X o e.M.p.c...O O O O o @ + o o . @ 8 p.c., t.z ! K e...<.V ! ! e.p.e.<.z e.<.<.e.V g 8 ! @ o O O + + o X + + @ , + @ o X O @ o o X @ , @ @ o . X & + X . o   X o . + X X . o X + o o @ o o o o X @ + + ..K <.K & <...K * @ @ * * K ; g c.e.M.<...+ O o X o O o & + o o X . o o O <.<.c.<...e.g @ o O X X o O o o o o o O O + + o & @ O + O o . + + + + z o O + O & ; 8 + & 8 g + + o O X O +   O O o .     X o o o o X + o O o o o * X & <.V * O X X X X X o o O * , , + . o + . o X O O + ",
"o o O ..+ + + + . o @ o o X O . o o . + ; V K e.+ o @ o O O + + + X o X O @ V , <.K ..p.c.* g <.V O @ e.K <.&.e.c.c.<.V * g 8 + X + + O o X X o o @ + X o + X 8 <.@ O @ g &.8 + O O O o O o . . O g + * O + @   . o ; o O o + K ..g g , * O , V z + O O * v 8 ; O 8 o + g ; V p.e.g ; o X + X , + ; K o o O @ O o o o 8 g <.p.<.K K p.O o X X O + o X & X & o @ + X + o + o o X X o @ o o O X o X o O * @ o + o @ + o o O o X o + O o X   X O o o o @ X O o O X X o X c.! ..e.<., + o o O O o + @ . . @ @ . ; O O o X X O K + @ ",
"+ @ X @ O o o O O X O o O o o X X X o o V e.c.M.! @ O X . o o X X O o o . ; , [ e.+ + A.c.K K c.e.& , &.c.M.c.e.c.c.! <.! ! <.; o + @ & + ; X o + o ; X O X + o + + z K <.V e.& g O & o + O O + O . +   ; X X o + o o o o O O ; <.K e...& 8 + ; O @ + o X @ * ! g 8 @ + * 8 g <.e.c.e.K O + g g g X o @ o X . X O O * K K ..! + & + & + X + O o o X X + X + + X o o o . X o X . o O o O . + o O + + O o + o o + X O ; X o X o X X O X o . X O + + , O o O o o @ O ; ; c.e.c.c.e.O o O . O O . X X o * ; * . X + * o o + + + + + ",
"@ + O O O + + o ; O . + o o O X ; X . o * ..e.e.&.+ o + o . . o + o O o + 8 ..c.e.X O V K K * c.e.V + ..c.p.c.M.F.e...<.p.! K @ X o + o O + + O o X o + X o O @ + K * @ ..K * , + + o O o + o . X o X + , O o o o + o + o O o V c...e.! 8 o + V O . O o O 8 8 V { K + @ @ + , V V t...V @ V * K K ; + o @ O X X o & ; @ X + ..& O o + & + O O o O X X & o O o X o . O o   g , @   + . . . X o o O & @ o X O o + X + + + X O X + X o + o X X X o v . X X & + X + O g 8 c...<.c.8 @ X . O O o @ , z o ; o X   X , X . . X + + @ O ",
"+ O o O o o o O o o X X o @ O * z + o o O c.e.K g & + X X o o O o O X & ; & & 8 <.<.{ ..<.@ ....K 8 * c.F.e.M.c.<.e.<.M.e.e.K + X O O o o + o O + + O o + o X X X ! g { e., + + * O X + + O O . o O X o . O o X o X ; o O O X ; K z K <.c...! + g + & @ O o o @ o O X O o O @ ; ! @ & m 8 o o @ + X o o O o o X + o @ + o @ 8 ; X + O + K O O X + o O o O X + O o o m * @ + & ; @ X X . O o O + O X X o o + + o O O + X X . X O o + + @ o X . g O O O o O @ + O o ; * * 8 ..V <.O o o O X X X o o + X o o X X o o + o X + o X O ",
"X + X o + + @ + O + X + o X + O Q + o @ @ &.<.& ; @ X @ X O o + O + O & & V e.<.t.p.& p.z O O , ! <.g ! M.c.c.F.c.<.c.M.M.V & O + o o X . o X o @ O O o O O O + o & K e.p.* @ 8 , O + + O + . o X + X o O X o . X X X O + . + O O O z A.F.e.e.e.K V V @ @ X X o O o O . O + { + X O o ; + O o V @ X @ X o + X o o O X X o o @ X &.* * g * e.V + + o o o o + O o X o 8 , @ O . 8 O o ; .   . . O o X X X   . + + + + X O X O X o o + X @ O o o + . @ o O X o o * V K [ + + o * * ; o o X X   X O O + X   o X + o o O X o O X o o ",
"o o + & O , 8 g * + O X + o O X g + , O @ g , @ + + & X + O O O o @ + O @ ..! ! z g ; + o + O + , O O g K & O 8 e.c.p.V g o O O X o O + X . @ X @ o o +   o X . + o & e.e.z 8 * X O o o + . o X o O O   X O X . O . X X X O O O + , g & V <.e.t.! + X + @ o o @ o O . o + O O . o o X @ X O o @ @ o O O o o O o o o + + O o o o + o + & p.c.t.; O O O o @ o + X o + + + ; & 8 ; + O . o @ . o o . O o   X . . O o o O o o ; o o X + + O + . . + o . X o + . o ; v ; 8 g @ o + O + O . O X o O . o O o o O O o o o ; o X X O . O ",
"O o + o O o g <.g O o & o O o ; + , ..o o X , 8 O . o O X X . + + o O + o g p.K + @ + + X o X X @ + O & g O o + 8 <.<.g g ; + X o o o o X 8 +   O o O X + . . O O X & ! <.<.{ O X o O X o . + X X + + o o X . X O X + o + O + o O O O O V e.c.c.K o o X X O @ + + @ . o O + + O + + * o O o o o o O + o + o o + o o o + O o o + o O @ g <.c.c., @ ; , o o . @ o & 8 ; 8 8 * * & * X O o O X o o + X o . o X + & o O + o O o o O + O + O + O @ o + X + X X o o o + g ; @ o o + @ * O O + . & X + X o X O X + X o O + O o + O & + ",
"; + + O O . O o O @ + X O X o X + X o o O O + e.8 O o o o X o + o o + O * @ ..V @ O @ + X X o o O . @ , <.E + <...c.A.c.8 & O @ + + X O O   O . . o O o o X + X O + o g <.M.e.* o + + + + o   o o O o O O O & O . + O O O o + o + O + 8 ..c.<.e.<.@ + X o O O o O & O o X o @ ; O ; X o + + o @ O X X X O + O X X X @ O @ + O X O o V p.c.c.M...& X O X X & o X + O O ; @ * * & X X X ; + o O . O o X X X o . o o X O . . o X o O + + O O . ; O @ + + X . , g V ! &.c.* &.+ * + o O o O X o O .   X O o o O X + o O X O o O ; O ",
"o X o X o O + + o O g O o X o X + + O O O o @ K g g z @ X O O o O X ; & e.c.+ K + o X O , O X X X X + p.e.* , ....<.! p...+ o o O + X . X . X X . o X O O o O X o @ @ K e.M.c.<., 8 + o o @ o X O X O X o X + o X o O   O . X + X + o g c.e.c.<.<.o O + + X X O O o o & @ O X + O O . o @ O O @ O X + o O & o + O X + + X X + X O * z <.e.! c.<...O o g O + + o O + + @ 8 ; g * + X X g + X O + X X X O O + . + O o + . X o o o o X @ * + O X O + + o o O & g + O * ! c...V ; + + ; o o   o . O X o + O o + O O O O o o o o O O ",
"+ + X + o X X O o O g O o o O o O o o + + * K V ! e...@ X o X + O + + z e.c.....K + X K m + O O + O ..K K ..&.V & g X O g O + O + X @ o o . X X O o ; O + o o O o + o g e.<.M.p.c.g 8 , O X X O + X O X o o X O O o . O o o o X X . o V e.t.c.g + ; + 8 e.@ @ X o o X X O o X O @ X o + o o o o O X + X X o o o + o @ O O & O X o O + & ..<.t.! <.@ O o X X O X ; O . X O & g g g X + X + o o X + o + @ o o X + o O + + + X + o + @ @ + O o o + . O X @ O + O , ..; ! <.e.* & 8 V + + + o o + O O X X X + o X o O @ O X   . . o ",
"o O o o o . . o O & + + o + o + + o X @ @ 8 + ....e.K o O .   o + g 8 ! e.e.A.c.e.@ + + & O @ . o + @ , V K 8 & + o O o @ & V O X O + o X + X o O o O X X O o + o + o O <.c...<.<.c.! & 8 o + o . O o @ o + O X + . O X X X o X o O + ..p.c.c.g o O + e.g + o . o + o O X o + X O X O . + X + O O O o   X X X O X + o o o O o o ; 8 O o O g ..@ ..V + + o + o O O X X . o O 8 g & . + + o X . X o X o @ O o + O + @ O o O + O @ ..! g & X O + o X X + o X O O ; ; z K ! e.+ + g ; , & O o + O . + X O o + . O o @ O O + o o X   ",
"  o o X + 8 & X o O X + o X O o X X o + X X X + @ ; @ X O O . o + o o o * ! p.v g + o X O @ O O o O V K g & o O , @ ; X @ g ; & o X X + o O + X o + O + o o O X o o O g * c.e.c.e.K K ! 8 & o O + O X O X O o o o + o + O o o + X o O X 8 c.M.K g X X & V K e.; o o X X o O + . O o . O O + @ + o + X . O   o O O o . X o X O o + + @ o O V K + + + o + @ + o + O + +   O X   . X O   o @ o + + + ; @ @ O o o X O O + o o O O o O @ @ + + O o + o . @ o o 8 + @ 8 g V & & V g & + @ o O + X X o o O o O o O O O o + @ o O o o X ",
"O . X O + & @ O o + o X o + o o X + O o X o o o + * 8 O X o X X o o o o O , ; o o o X + O + O o O O ! @ X X O @ v e...+ o K + O o ; O @ O + o o X O + + . + X o o X + K V ..t.e.<.e.e.K 8 O X @ O o ; o + + O . + o O o + & + + + o O O ; <...& * @ o o , V O @ o O @ o X o o o O .   o + + o o X X o X . . o X o O X X + X O O o ; ! O @ o g X X o o * + O o X   . o . X o . o + + O + + X X X . o O + o o O O O O o + + o + + o g <.O o + 8 ! g & O O * t.<.K ..X * O O V , + O @ O & o X o X + X X . X O + X + ; + O X X . . ",
". X o o   ; * & o @ o O X o o @ X o o O + O X O o ; X O + o O o X O X @ o + + X + o ; o O . O O o @ + o o @ + o * ! g O O + + O o o O + ; o o X . O @ + o O o X @ O @ @ ! z ! @ ! <.<.{ ! @ O X O O X ; o O O o O o + o o + X o o O O + g p.<.K &.e.K g + * V g o + ; o X O O @ o o O o + + O o O O O O   + + O X O O . o O X & o @ K + O X o o + + + + X + o o o . + @ o + o o . X O X o o O o + 8 @ + o O O X @ X O O O + o ; O O o O o @ * g + + * ; g * g 8 @ O o O 8 &.* & + O X + o O o X . + X O o X O X O o O O X o   o ",
"X X o O O & +   O o o + + O o X O O V O O + o o O K & O O X O O o + O X O X + , V <.! o O O O O o & & o & V ; * + + @ 8 + o O o . + o O O o O o X o o o o o o O <.O O * 8 <.* t.......K @ O + o o + O O o o O o o @ + o . + X . o + & [ c.<.e...e.<.p.& V <.<.E + + O X o X o + + O o O + o o O . . X   o o @ O X g . X O O o ; X * ..X + X O O O o X X + X X o . & @ ; + X   . o . o + o o o O o K g o + o X @ o X + + o + X o o o o o O & ! o X @ ; * V t.V K + X @ + g o * + + @ o ; X o o o o X X + o + + O + O + X + X X o ",
"o X . X O 8 8   o + X X X + O X o o @ o X X X X o V + + @ + @ o o X o o X O o @ @ K O o X o + X o K & O o @ 8 O g @ z 8 & o o o o @ o X X + o O o X . o + o . o @ V 8 K <., 8 ! g + + 8 + + o + X @ o O O o o & o . O . + O O X O + g + & c.c.e.K g @ g g g @ V <.g * + O o o X X X o + X . o + @ o o O X O O + O o X   O + + o O + g o + + + o o O + O O o o O X X @ g X . X X O o O o O o X O o + 8 + + O @ o X + + o + + + o X + z + @ o O + X O O O g ..g @ + & + + & o + O o + O O O X O @ o + o . O X o + o O o o g , + O ",
"X   + g + & . o . ; o O + o X o @ X + o o o + o X + O X o + o o + X & + X o ! * ..; + X . + o O + , 8 O O o O + + O g ..@ o O o X X X O . O + o o O o o + o X + O K p.t.<.K V ..@ X o X O + o X o + + o + o + X O X o . O X + o o * ..V @ ! ..8 O O o + g K 8 , K K g o o + + o . o O o + o O o . o . + O X + X + X X X o X + O o X O O o & * + + ; ; O X & + @ + @ g O . o   o X O + O O O X X o + . O + o X o O X + o o 8 <.+ K K ! K O o o O O o o ! <.c.g + o &.g @ K + o + + O o o o + + o + + X o o O ; + O X X . . o g . ",
"X X   O + + & O o + o O + + o . & o X o + o + + o 8 o @ + O X X o X o O O V * 8 * <.&.; @ O o & , o o O o * K o o o O o o X o o O X + @ O o O O O o O . O O X X O z e.c.c.<.p.g * + O o ; o o X O @ o & O o X X X @ o X O X X + + 8 p.c.e.K * + X o X & V <.E <.c.K * o o o o X O @ + . O .   O . o X X + @ o @ o O o X O + + X . X X @ + g g V ! ; 8 o O g O o o X O @ O . X o X o o + o + . X . X + o o o + o O o o o X O @ + g * , O X + O o X * O , * e.M.p.K & O * O @ o X X o o X . O o O + o X + + + 8 @ 8 O . X + X o o ",
"o o X X . g * O O o o @ O @ X + + O o O O o . o O O + X o X o + . O @ + + ; ; ! ..e.M.O O o + , V o o o o * @ . o o X X + X o o X o O X O + + & @ O X + X o o o o @ & <.<.<.<.t.& O + o V + X O O o O o o . X X o . + X X + . & <.<.e.V g g & X O o O ! c.&.! c.<.Q @ o o O & X . O o X o o O X X o + @ O o O + o X O + X X + + O o o g ! c...e.p.K O , g O o O o + + o o O O O O X + O O + + O o + K + O @ ; + X O o o O X + O ..& @ o * + + @ X O O X , M.c.c.t.o o o O & o o O X X o o ; o O O + + + X ; + 8 ..* O + + o o X ",
"o X   X + ; X o o o o O . + X o o o o X O X o o X O O X + o O X X + o X @ g + g V c.c.@ O X X * 8 ; O X X o X X O + O O + . O + O o X o + o O X o O o O o + O + @ + <.+ ..c.c.@ + 8 V @ O X O X o o + o X o o . o . O o X + . @ e.c.c.g + ..e.& ; O O p.F.! <.<.<.O @ + O o o . O + X o O o O o X X X O O X o X + O & . . + + X O @ 8 e.K 8 & <.<.8 @ ..8 O o o @ . o O O @ O o o o . O O o O @ O o O . . . . O + + o + + o X ; g t., X O X o o o + O O + p.V 8 K + + ; + o + + O + o X X X O + O O @ o o X O , , o o O X o O o ",
"o o X X o o . O + o . + X o X o + o + O X o . o O + O o @ + O o @ O X O + O O ! ..e.&...g o O O @ O ; O O X o O X X + & o o . X o & o O 8 o O o o + o o @ ..<...z e.! & * <.K O 8 * K + g o + + X @ + o X .     O o o O o . O K e.K M.e...<.g t.Q + o { <.c.p.<.e.g K & X @ + O X O @ O o o o . X   . + + X + o O o o O + + X o + t.c.g + g , + z @ + & , o o & . o o O o X X o O o o o X X + X X o X . O o . X O . O @ O o o O V g g @ O o X @ @ + + ; <.K m O O X o @ ! K <.; X O O + o @ + O X X o O X + O o + . o X O X O + ",
"O O o o O O o X X + X X . X . + & X O & O X O @ + + + o O   . O o + o + & X + K e.e.<.K 8 o + X + o O O + + O O o X O O o @ o X X o o K @ @ & + O X o X O V ..K <.<.g @ + p.e.+ O ..p.<.& + o O + o   . O o o . o   o & O g ; g p.K V p.c...<.c.<.@ , ..c.e.e.; * t.8 @ + + K K + O o O @ X o + O X o O + O + o + + O O O O o O + ! p.K z e.K & + @ & + X & + + . X . O o X o ; O + O o X o o X o O & + X +   X O O O O + X o . O g @ X . X + O O O + O o o + X , . o + e.c.e.z ; + + o X . o O O O O + O + O + o O X O X o O O ",
"X o o o & X o X O X O o . X o o + X X + . o & o + o o O o X   o X X O X + X X g K c.e.K & X o O O & @ O o + O O X o o + X o X O o X o & & O X X O @ O X O ..& * K ..K @ ; + 8 , @ ! ..p.e.O X + X O X @ . o O o . . . O + @ g + , p.c.<.V M.& ! ! 8 * <.Q ..<.<.+ ......+ K & <.V & + & + X X X o o   o + + o + X o O + @ & + o + K V & K e.t.8 K g + + O o o o O O O O O o O o o o o + o + * X o o o o o . & O X o O . & X X X + , o o o O + o O O . o O X O O X o O , ..t.K o o o O X o X . o o + + O o + + o + & o O O o X O ",
"X @ o O X @ + o o o X O o + X O o @ O X O + @ @ O o + X X X .   O o X O O + @ * 8 O V ! K & O o @ O @ + X O @ @ o @ o + o O . + + + @ 8 o o + @ o @ O X o + ..V ..8 V K c.8 ! m + ; & + O , o X o O o   X . X o .   O O & K @ K O @ e.! @ V e.V & O O , <.<.c.e.V g m * K @ + 8 O ! o X o O o + O + @ O X X X o O o O O O @ O X O @ * * 8 , ..K K g O O O O O o + o O X o + & g + o O o & V , @ O o X . O & , O o . O X o @ X o + + o o O O @ X o o ; O O X . ! & + O O & K .., + + O + X o o o X O o X + O O o + + o O + O O o ",
"+ + o o ; o O o + & * o o + . o X + O O O o o o o o o X . X . . . o + X + X + o O O o * V & O O O o . o o + X o O o o X . O o + + V ; o X o o + O O O @ + , + c.K O 8 p.e.@ K v , 8 * + X X O ! + o + X O O o O X o O O g p.g O o X O @ & @ & O X o O @ * K * ! K & z * O O + g + g & o + + O O X . o O o o . o X + O + & + + O o g ; @ & K <.g * 8 * o X + o o . + O ; o * K ..p.X O + + @ X + o O . X X o o O O O O O o o O O O + o o + X o o X + O o X O o V & + o @ + z O O o X O X + O O o X X . o o X + + + O ; + @ + O @ ",
"o O O o o O + O X O O X o + O . + . o @ O o o O @ O o + o o o X X X + + o X O o @ @ O X o X O @ + O X & + X o X o X X o X O O o O O o O O O O + o @ o o o * ..V g + + ..8 O , 8 * , @ 8 O c.g X o @ o . O . o + + o o O + K K ..O + o o O g K O * @ O X + o + o + X + O o X + K O + X X o X @ o O + ; o X o O o . ; V @ K e.g @ O V c.V &.<.&...; ; O + X X O O o O O O o e.&.! & V @ + + X o O O o X X O o O + O @ o . X O + + o X o + @ + O X + O O X X & O O O X o o g Q 8 z + X O @ O O O . O X X o O O O + @ + + o o @ o o ",
"o o o o O O o O X O O o X o O + + o o + @ X X O . X X & O X   . O X O X X X o o . o + + X X o O z . o * O + g X X O X X o o X X + X o o @ X + X o . o X @ , e.g & & o O X O + o o , ..K 8 K + + + K + + o + + O + O X o K p.! c.& O o X o & & o O O o X X O X X o o O + X + o o o o , & o X + o o O @ o o o O o O + <.! p.c.e.<.e.<...; <.V & c.g * , o o @ ; O o o o X O c.M.<...<.K V 8 o o o o O o O . O o o + o + + o O + X X o o o @ + + X o O + o X . O @ + O + @ c.p...@ X X o O + O O X o . O X o X X O O o X o o o O o ",
"+ g o O ; X X o + + 8 + O & + O & & o . . O o + O X + O o X O O . X X . o o . X . o X + o o o . X O O , 8 O O O & + o + + o O + o + O o + + + o o o o + o o ; @ o o O X o * * + + O V ; & c..., O , g o o + O o @ o o & & ! e.<.* + + + & O 8 o o o O O o + o X o o o O O + O O o @ V + o X . O + @ o o ; ; o @ X & g ..p.e.c.! ..<...O O o * ; & @ O & 8 @ O g O * O + z <.e.<.8 & & 8 @ ; + O + & @ X + @ o O . X @ o + ; o + X @ + @ O @ O O + o ; & o + X . + + o o g * , + O O @ O + , O X O o + X O + o & & O . + o o + + ",
"O z + + X X X O X o + + o + & & + X o o X o o o + o X X + + o O + O O O o O X X . O o o o O o @ ; + o @ ; X X ; 8 + o O o O + O o + g * X o . O o O + O o X @ o & @ . o ; & O X O o X + 8 t.e.<.+ ..+ O o + o o o X o z e.e.p.t.p...e.g & @ X X X . X o + O O O X O o o X O . o O o + + O o @ o . + @ @ X O + O O <.t.c.v c.p.<.c.e.@ X . X X X X O O <.t.e.e.c.g g & K <.<.! ..+ * g + + O 8 X O + O . O o o O O O @ O X o X o o & o + O o @ X o X O . .   X X X + o . O X X . ; O o + O + + + V ; O O . + + @ + X + O O o @ + ",
"X + g + o X o X O o @ @ + Q 8 , & ; + o X o + , z + ..O o ! K o o + X . X O o X o o + O O O O . . @ o o o O O O K & & + O X o O . + @ & + O o O o + & o X + O O + X X + ; * g + o o O + e.c.M.<., O o o X O O . + O @ <.M...V K K * , K o o o . + + o o @ O O o O + X @ @ X . O X O @ o o X + X . X O O o o O O O , ! g V &.<.c.A.* g , @ o X + & + o g e.F.M.<.@ 8 + e.<.e.p.c.g @ + o + + ; O . X o X X O + o + o + , X o + O o o O O o X . @ o @ o X + & X X X o o o + + @ 8 g X o o X X + O o O O + o X o + O + O o & X o O ",
"o @ + O O O o . o o X 8 * @ 8 8 g + 8 g O o O ; ; &.e.+ O 8 e.+ o @ o o X & O o @ + o O X   .   X X O . X O O & g ; + + + + O O + O + ; , O O o + o O @ o o O X X X o O o o , ; o + ..v e.t.c...; + + o X + + + + o 8 e.M.; & c.i..., @ X + . o o X O + X + O o X + o O X o X X @ + O + ; o O o X . + O o o O @ K K 8 g ..&.e.A.<.M.e., @ X O @ + & g ! e.c.e.p.; ..<.z &.c.c.! @ O o & 8 X + O O X X X o o X + o & @ O O o O + X O o X O   X + o O + O * & g X + O O V ! * * z @ X O & @ o + o X o . o O o X O O X o o o o + . ",
"o + @ + @ @ ; + O g K , ..& 8 ..! e.g O + o + ; + V + O @ o & + o + o @ o o . + O o o O o X o X o @ + @ o X o O & X + X o + X o X O o + o @ + o o & + X + + + O X X X X O K O + + g c.p.e.g <.! p.O + @ @ * X X O + K c.e.g K ..e.K K + o O X O + O O X o @ O O o O o O O @ . X + + X X + + o   @ + o o o + g * O o ; e.c.<.e...A.e.g O X o @ o X O ....c.p.c.e.@ K K K c.&.e.c.e.z o O o o O O X o X o o o o o o o o @ X . O O O O X + O X o + + O O + 8 + , X O O ; o @ g @ 8 * 8 + @ X o o O O + X + O X X o o O o + X + o + ",
"O O @ . X o O @ O <.! O + c...! ! c.<.X . O o g &.+ & O X + o O . O O + X X X o O o o + X O O X @ X O o o O @ @ o + O X . . . @ O o @ X + & + O o @ * o . o o O + + + o X + V , * &.K ..c.<.@ O ; + & + + @ O o O O E & p.! g ..8 g O O + o X o + . + o o X X O + o * o X o o + + O . + o O + + o , ; + O ; o O X o O V ! e.g p.e.c.e.o @ o X @ o + ..<.A.p.e.V + g ; , p.K 8 K c.& . o X O + . X + . o O X @ + o o X X O O o o O o + o o O o o O o O + ; ; @ o ,   . o O ; O o + <.! O o O o o g @ o o X o O O X X o X O + O + ",
"O o + + + O X * + + g + O o <.e.e.p.+ & o + @ &.e.@ g + + o X o O o o X X + o . o . O X O + o X + o X o o , K K O & ..O O o o X . O X X o o X + O ..e.O + . + O @ @ + X @ ; , ; ! K t.c.M.&.Q @ + O O o V V + ; o + + , ! z ..! g g ! & V ..e.V O X X + O O O o o o . X X o X + . o o + . O + o @ o O + K g + O o @ O + V M.c.K g c...O O X + o O K p.e.e...<.c.V & 8 8 o O o K e.& o @ + X o O X . o @ O X o o O o . o o o o . X + O O . @ + O + . X o * + X o X o o o ; <.e.8 g + ; o X O O O @ + @ , @ O + X o o o X o o + o ",
"o + o o O X o X X + O * o + o @ ..& @ ; m O K ! * @ ; o o o o o o . X + +   X o X X + o O @ o X + X . o + ! <., g <.K X o o X O o o O + . X o + o V g 8 o + + + ; O X + o & * O + g + ! e...@ * @ o + o @ ..<.K o + + + @ + , <.+ g e.8 ..M.M.c.V O + + O o + X O O . o + o X @ + O + O X O + o O X X * g g o + O + O + g <.K , g ! ..o o o X o * t.K <.c.e.<.<.V ..8 ; + ! & ! , @ O 8 * O , O + X o . o O o O o O   X X X O   o     . o @ + X o o o O o   O . X o + o O V <.e.t.+ @ O + @ o o o o . o o X X O o . o X O o O O ",
"o X o o o O o @ o o o X O O o o o ; * , 8 @ & + & @ g O + @ . O O O X O o O X X o + + o o X o + O O o + + ..V ; g p.K X o o O O o + X O o O X & + e...O o O o + o o O 8 o O + X O & @ <.! O + O O * o @ @ + 8 + o O + + @ + + + e.e.p.* ! <.p.M.<.8 8 o O o O @ O X O O + X @ O X o + X O o X + X X O o X & o X + X ; X + p.& O @ e...o o O O X O , g 8 + g & g * * @ e.<.O ! ! @ O + @ o o O O O X o o X o X o X X . O . O o O X o X + O X O o O o + @ o o + O X o O + 8 ! ..K V + X o O X O @ + + o + o o O O o X X O o @ + o ",
"+ + ; &.& @ X o X + O + O o O @ X 8 K &.! + & o O + o @ o . O O + O O X + X . X o + o O X o . O X O + & & ; g p.! e.p.& O + + X & X X o X O X + c.e.+ X O + + * + o X 8 @ @ & + + O e...g X X + X ; @ X + + O O O + ; O o o o 8 ..! c.g e.c.e.V ! { ! g X X o O O . o + o X ; o X ; o + X O + X o @ + o X @ + @ & O O @ o X o O + 8 <.O O O + o & g ..* X + O + O V * <.F...! ! e...; & + X X X * o X . X o + .   X O + 8 . O + O . + X o O + o + o . . g X   X o o O O 8 c.e.! & * O o O X O o O o + o o . + O o O . . o g 8 o ",
", K g 8 g * + O o + X o O @ + + o K <...@ O @ + V 8 O O o o . X + + o X X o X + X o O X O X o K + 8 + K p.g & ! K A.p...O X O o o o O @ + o o . ; + O + X + g O + + . + X o o X g o o X X o + . ; V g & O & O o O + + o O & o o O ! K e.! K e.K K O O + o o + X O + o . O + O @ + o o O o + @ o X o o O X O + + @ K m g + O O X O * O o + X O o o X @ + X X X + g + ! <.c.p.<.c.c.K + + o   X .   @ + + @ + @ X O   O ; + O   . X o o o o O o X ; X @ . o o O X O o X + g <.V ! c.c.! @ @ o o o O + + o o X o @ X @ o O O * + & ",
"<.* ! & o + O O + O o X o X o X o X 8 ! g + O ....X X o o . X o o o o . o & X O o + O K @ O X X + o @ <.! + * ! <.c.p.c.g . . . X O & & + O X o + o O @ + c.K + & + + v O X o ; o X X ; o o O + 8 & ; z + o O o X . O O X o O X o & ..V p.K & ! e.o + X O X O O + o + o + + X o @ o o + o + X @ O O O X 8 ; @ + K V &.! g O O X + * + o + X X + X + * g @ X O * e.e.c.e.e.e.p.A.p.! o O X O X o X X & X &   X O o . . X X * ; . O O o O o O o + O . O o , * ; o o O ; + O g <.e.t.e.<.K o o o O X O o O O o X + + . o o o O O + ",
"o @ O o + + + X O . + + + X o O @ X + X o @ , + O o g o + O o o O X O o X . X O X + o + + O @ X O K * & <.8 . o @ V V g g + o o X O g V + O o @ @ g O * O <.K X + o + + + X X X + o X + X + + o + + o g o o + + . o o o + O O + O * & ! c.e.&.c...@ o + o O o + X + o o o + o o X o o X X + O O O o o X X @ @ o O ! ....O @ + X o o O @ O O X O X . o O o O o o & O , <.<.c., e.t.! + X +   o o @ @ O g O X . . o X o o O X   O X o o o . + + o X + O o X o X O o O O ; o K & ! &.g + + + o o o O + X . o X O . o + @ + + & K X ",
"X . + O O , O O X * o + o o O X + @ O o + g ; + O + 8 & @ + + O O X X O o X X o o @ ; o & g &.O + ! &.K O O + o O + o + O o o o O o o O O o o ; * , ..z @ ..8 X O o O o ; o X o X + O g &.o o @ g @ O O X + o O + + X X O + + O X @ ! c.c.e.e.M.e.8 @ , + o o O + + O o o X O o o . o + O O X o X O o + O X ; + + V g + o + X + + + @ + o o X O + O o X o o O o X O o K e.t.@ <.p.O . o o X O X o X o O   O o O O X X o & o o o X o O O + @ O o . + o X o X O X O + O o O o O o O o O ; o X X O X O o o . O & + o X O O @ &.<.o ",
"o o o o o X . o O O o + @ o o X o ; + o O g K O O @ O + V o X O o o O O O . o o + + o X o & <.! K K @ O O + . X @ O o o + O O @ . o O o + ; ; g g @ + g g 8 O o O & o o o o   X + O o o , K + O + K 8 @ O o o O , o o + . o O o o O @ e.c.<.c.! ! @ O @ @ O o , o o . * O o + + o o O O o ; o X o O @ o X + O X o ; p.V O @ O + o ; O o o O O o o + o o + o O O O @ o o + K z X o X X @ O X + X O O . + + o X O + o X X O X O O X o o X X X + + X o o X X X O X o X V g + + X 8 8 X o O g + o o O o o . @ + o o & X o & V 8 g X ",
"+ o o o . o O X @ X + o + O X o o O * O . o o o & o + , @ . O + O o o + o + o o o O X X O O o z K + O o X O + O g 8 + O o O o @ O o o o O o ; @ & & @ @ & O X o o O . o O o . O O + + o ; @ , K ..K &.K o @ X + + @ o + X X o @ @ g <.V ! <.<.K ; o o + O o O + O + o + o X O o o + O + @ o + o + X o ; + O o + o * e.e.K <.g o + @ o @ O + O X . o o X O o o O o + . + O + ; . o o o + o o O X O o + o + X X o + o O .   O o O X . o O O o + + o o @ o o X o o X + ! V * O o * o X o , e.8 o + O O O X O + + O + O + o , &.@ o ",
"o O o + o X , O o O , o + . + o o + O X X + o @ O O O o o O O o o + X + o O X o o & O + + @ + O o O X O o ; o + X + o o o + + . + @ + O + X @ o X o X , & O X @ + X o X X X X X + X o . X & , @ + ..<.@ O . o X o , @ O o @ o O + g 8 A.c.e.t.K K O X X o O . + X X . o X O o + O . + O O X X X o + & g & o o <.K * K ..V o @ & + o + O o + X o X   o o o O + . X o X O O o O X o o o + o o o X . o @ o . O O + o O O + O + X o O + O o o X X X O + X X O X O X o o + ; V + O O X O X o e.@ @ O + + X X o o o o . X o * ; o & + ",
"O @ o O , ! K O O + + * ! 8 ..+ + X X o O X o + o X X & X & O O O o + X o X o o O O + + o O O O O o o X o X o X o o X o o O X + + O X o X o O O O + o ..@ X O + X O O o X O o o o o O O X & e.* & ..<.K @ O o X O O @ X X + & X @ g ! &.c.c.c.....+ X ! g + X + o + ; o + . O X o X X o & X X o o ! c.&...&.z <...+ o + g X X o ; O o X O + o o . X o . o o O o o + o o o X O + O o o O o O X X X . O X X + @ o X o o O O o X X O O o X @ O . . O + o @ o o o + + o K + + O X o O o O & @ @ + + X o o o o X + o O o + <.* X + o ",
"+ * & + , * 8 & O o O o * ..K + + X o o X . + o o O   + . o O O O o + o + X X o O O o o O ; ! + . o + X X + X ; O o o X o o X o + o + o o X + + O X O X o o o . X X o X O   . X O   + o , + + Q t.g K V + o & o O + o @ O @ + X + O @ e.A.c.p.c.....! K , V O @ . o o + ; X + + + + O <.v + @ @ ..p.c...* ..p.K @ @ + * O @ o X ; o o o o o . o X + O X O . X O ; + ; o X O @ + o o X o + ; o o o X +     o X o O X o g O O o O O o X O o & X + o + X X . X o o o & @ + O o + X o * &.p...<.8 * X O o o . & + @ o g + ! & o X @ ",
"p.* @ + o g @ 8 @ X + + ..! g + O o o o O O O O O o O O O O O o X o O + + X X X O . o o o K , + @ o o ; X + O + o o O o o o O + X + + O + ; o O o X o o O X X O o + o X . o X X X . & O ; z + , p.O o V , o o O + , + & , o O X X o o ; <.c.e.c.c.c.e., z @ , V + & o * + * + O V + * v ; + & K p.e.p.<.e.p.c.<.c.+ <.& ; @ o o X O O + X X X o O , X O o o X * o o o + X X o + X + ; o o + O o o + g O + X O @ O X O , o o + O o & X o o o X O + X o O & o o O o + 8 o X o X o ; ; ! e.t.K g ; O X & +   . O o O ; g <.* O o + ",
"! ..K + X X + ; g o + @ * * p.e.K + X O O X . o + O o @ . o X O O + O o o o . O O X O X O o o O O O + X & @ @ O + X X . X + O o o o @ X o + O + X X O X ; O O o O + O X o X   X O + O + + , + g 8 K & + , + O X o & @ + O o o O + V K <.<.c.F.M.<.p.c...& g e.g @ ; & + o + + <.o O & & o o o O ! M.t.c.c.c.<.<.+ ..e.K + + & O + + + X + . o o o X X O o . o X o X o + O + o O O X + X X O o X X + + X o O . o @ O O o + . + o o o + o X O X + X @ o o   X . + + + o * + o X o & p.c.<.! ! ! ..O + o + X X + o o ..g @ + ; o g ",
"+ + & o O + + o + ; g o o K c.<.; O o + + o + O o O o o @ @ + . O @ O o o X X X o + @ o X X . o X X * X X . o O + X X X O o o @ o + + O + ; o O X o X X O O o + + o X o O + o O o * X ; , g g ; @ ; + + + g g o o + o g O o O o + ..e.&.p.M.c.<.c.<.K <.! K <.g o + X O o X o * 8 @ O O o X + ; @ c.e.p.<.z @ @ + g c.! + + + o o o o @ X o O . + . o . X     o O o o o . o o o O + + X + o o + + + + o @ O o +   o & X o o o o + O + O o . , o + o + O O X X X o + . X o o o o V e.<.g & Q p.&.* g o + @ o X X X , K + & + + + ",
"X o + o O + o o @ @ ; K 8 o O , ; O & o X X O + o X . O O o + ; + & o O o o . X O X + O X O o O o + X X + O o X X + o + o X o + o + + O O O O O o O O + O X + O + + o + X o o + X O . + + X X O ; * e.O o ; @ & + + O ; + ; O o @ K ! <.e.c.e.p.c.<.! ! g 8 8 @ + O + + * + + O + + 8 8 8 O @ K K p.c.p.! O O + * , V V O O O . O O O @ o . X . X O X o o o . o X o . O X + o o o O @ O + o + . O o o X o o o O O o X X o o + + o o X + o * + X o + X O O O O o O O + o X O g + ! o o & g K <.<.@ O O + + o O O o + X + , , g + ",
"+ X O . @ o + o o @ O @ & X o + X V ; . o + X o O + + + O . + X + X X O O o o . . X O + O O X + + g g o o X o o X o X @ + X + o O O o o o X o @ X + & @ O X X . O @ O & O O o @ + X o X o o . + + @ e.o . g ..! , @ o o O + @ o K g & e.! M.M.c.c.<.g K p.K & O + @ g + o + + o X + + O o O * { <.e.! <.@ . o O K V , O O o O @ O + O @ o o . @ + O @ X & + . X X + o O O X O + @ O + 8 X o . X + . O & + O X o O + X @ + + X o O o o . O + X o @ o O o + . o o o O O + O O X + + O O + @ & g K V + X + O o X o o + + X O o + X ",
"o o + O ; X o + o X @ o o @ + X X X o O X O + o O + & O + X o o o + O o + X O o + + X o O O X O + 8 p.& , K + + O o + o . @ , X @ O O + O + @ X O o O o O X . O X o O o + o @ o X X O @ O O O X O o @ ; ; @ & X X O ; O o X + @ g & g <.A.e.e.p.c.M.c.@ + @ & O o X o O X O X o + @ O o o g & + * g ; K 8 o X X + + O @ @ o + o O o + + O O o X o   o O o O X X + o O + 8 X X ; * * 8 g 8 o O o O + + O o . X o X . o X o o O + o o X X o X X o O o @ O + @ O O O o X X O X + + O X X O * + V O O O + O O O . o o o o X . X o O ",
". O + + o X o O . O + o o + O o . o O X o + O O X o X + + + X O o + O + + X . X o + O o . o o X + V t.! ..<.&.@ @ + + + ; + o X O o O O + @ O . o ; o + + O + o . 8 X O O X o o + + @ o + o   o @ o O + , + o + . + X + X @ + & & @ g ..c.<.e.<.<.<.v @ O o O o + o O o o o o o + o o @ , , o g * o X @ + o @ o o O X o X + O @ . O O O .   O   o o o O X O O @ o + @ X + o + @ g O X ! t.g K o X o o X O o . o O o + o @ X X O X X o X X . o X . O + + o O o X X o + X + o X o & O + o o 8 @ + O + o + K o @ & X ; + o o o @ O ",
"X o + o X O o + @ + @ O O X   O + o o O X @ O + + o O X o O @ o o X O & o O X o + X @ o o O o O + X o ; V g 8 e.&.; + O g . X O + O o o X o + X O o o + O o ; . X o . O o + O o X o O O . . o . . + + @ o + 8 o + @ + g g g ! * * @ 8 g p.e.c.<.e.c.<.@ o + X o + O X o X X o + X o X @ 8 + @ , @ X X O & X + o + o . X X O @ X @ & 8 o o + O O O O . O o + @ + X + o O * z g ..p.<.K + ! X , ; O . @   o o X @ + O O O @ + o X o X . . X . X . o . X + X O O X ; O X o o O + o o X + + p.c...g + o X o + O o o X o @ X O O . + ",
"X o X + + O o + + o o . X X X O o O + @ o o X O O o + O o O O @ o ; @ X o ; X X X O o o X o O O + o o O & ! [ ! K ! ; & O + o X o o o + O O ; 8 O O @ o + & + o + . o o o + O + X o X o X o O o o @ O O + + g o X + O 8 8 X O g + K O K V @ ; ..8 <.t.@ o + @ o O o X X o O O O X O @ O O O o * @ X + O g V ; * o o o o o + + o O ; g * X o + + o X O X X o X o o X + g z c...g e...p.+ O X O ; X + + & X X o @ + O O O O + o o + X + o X O . + o X + o X + O X + O . O + O X O + o + @ g <.e.e.K + O O o & + + . + @ @ O o   o ",
"o O o O + O X X + o X . o o o o o o o o o o o o O o o + + o X X o X + o + O X O + + O + o O . O O O X @ ! g & K * @ @ + O X + o o + + o o o O . X O o + O o X . X @ o o X o X + O o X .   X . .   . o + X O O o X o . + O + @ O o + , O g + @ O O O o O o ; + ; o + + + X X + o o o + o O + + O X X o O . * + O X + O + o @ X O X o ; O o o . O X o . O o O O O o & X g ..K & & , * g V ; + 8 8 + o X o X + o   o O + @ o + o + o . + O . . . O X o O O o + O o O + o o O o + O X O o K t.V O g V ; X X O O o o O o X O ; o   o ",
"o + o O o + O + o . X X X . o o @ O O o X o o X O + o . + X O O X * o X X + + X X + o o + . o + . o o + ....O O @ X o X O O X X O + . . o O O X O o o O o . g X X o X o + O O O + o X o X X o X o o ; + O o X o + o o + o @ X o o & g o + X O o O o + X & o X @ X + O + X o o + O O O o o g O + + + @ + + ; + 8 o ; o O o o o + o o X X X +   , O   o O X o + ; @ O o { p.+ O g g O . O @ * & + X O o X o + X . X o O o O + X + o O X & . o o O o X O + o O . o O . X o o o o + + X + @ o . + X o O O O o g g + o o O + * X .   ",
"X o o O ; o O X X X O X + o + o O X O . * O O @ o X X X O + + X O X o + X X O + O + o O + X o X + O + + O & , + X o + X o @ o o + o X O ; O o O . o + O X * + o X . O o + @ O O O + 8 g + . + X o O o o o + O o o @ O O X X + X @ O @ o O o O o + X . O & . O X o O X O @ X . + + X O + O + o g <.c.* + + g + + o O O O o . . + o .   + O X X o g g + o O + + g 8 + g e.e.V @ o X O . X + V ; O + O X @ + X X X + o X + @ o @ O @ X + o o o + + @ . o o + . o O O X . + o @ + o . O X o X & O + o o o * 8 * + o X O o + o O X O ",
"@ o X + O X o @ , O X o X + o O o X O o o o X O O o o X o o O O X X + & + o O O + o O O o X . . X & o X X ; O O + O + o O X o X o o o O o O X o O o o + . + z X o X O @ X + O o O X * O o o g & g + o o o X o X o O + o o . X X o o o + X O o O o O   . o + o o X X @ o + O O + o o O O O X O ; 8 ..<.@ O O * O X o X X o X o X O O . @ g o X X + & * X X o V c.c...& e.! + o + @ X + X ; g @ X O X X ; , o O o + @ X X + o O O O o O o O + + + X o o O X o o o O ; & @ X X o X + . + o O + X o o X X &.* , O X X + + + + + O @ ",
"O o X O + X o o o o + O O @ X + + . X X X + X o o O o @ + o + O X o + X O 8 o o X O + o + O X X O o X + X X o O @ O X O ; o @ o . X o   X + o O O o X O + + X . X o X O X o + o + o * o 8 8 + g O ; O . o O + o X o O O o @ + + X + O X . X X O O X X o X X o + + + O + o X X o * + & O + + & g V g g @ @ + X @ o O o o o o o O X   X O + . , 8 & + . + O 8 , e.e.c.@ @ O o X O + o O @ O X o o o o X o o o O O + o o O o O . o + X X X + @ & + + o O @ o . O O o + X X X X O o X O o o + + o O + + o c.@ O + O X O + o O . O X ",
"o o X   . ; & o o @ X O X o X O o o X X X   X o o O * o o o . O ; o + o . X O + + O + X O X O o O O X & o @ o ; X @ O + O O X O X X o   O @ o o o X o o 8 * O o X o . + X O + + o ; . O o X 8 * O X X * ; . . . O + o o o O X o o O X o O + , , @ X o o X   O + . O + X o o o + ! g @ O * 8 @ , O + X @ & o + @ X + + O o X X O O @ + O O 8 * @ 8 X o + @ p.e.c...+ o o @ o o + X o o @ 8 X O O o o O X o X + o O o X @ + + @ g ; & 8 <.; O * + 8 X + + O o X O o O o X . X 8 & o o o @ X O X O V o , + O + X o o o o o O o o O ",
"O @ X o o . O X . O O O X X X + o X . O o * * , X X o + + . & . O O ; O + X + @ @ X O X X o o O o X + O o O + ; X O + O X o X O . o O @ @ X @ + + . O o + @ * @ o o O X O + X + X X X . o X X o X X X o X X & X + . & + + + o o O + +   + 8 & g 8 X O X X X . o O X o O & & @ , * O + + O + X 8 ; o g ; @ & K + @ o o X o o O o O X o o X g X & o o o ; g K e.e.& X + o + o + . O + X O X + X O O o O   . X . + O O o o o + @ @ ; ! c.g z + o X O . o + o O X X + o X X 8 O @ @ & o o O o O O o + o + o X + X o O O o O o o O + ",
"O X o + * O O * . X O o . X O o o . ; o X X , m + X X X . o O . + o + + o + o o X O . X o X O o + ; + + + o o O O O X o O + @ + X + + o + O o O + X + o + , g & @ o + o o X O X X o o O . . . X o X X o & 8 @ @ O o O @ o o + o O + g X o * , + . + o X o o @ o   X + X X 8 O V & @ o K O O X X o , ! e.e.c.8 o @ O O X o o O O O O O o .   o * O + X + , <.M.c.! O o o o + O O X + g ; o O O X . o o o X . O X O X O o + O o O g ! 8 V g X O o + O o o + o   . X o X @ @ g g 8 g   o . + o + + g ..g O o + @ o o ; X o o + + O ",
"@ X X O   g & + X X o o X @ X X o O + O X + & 8 @ o o @ o X O o X O O + O X o o O X O @ O o . X O o O O o o O X O . o . o + O O + + o O + X + X + o o o o . & + O @ X o O O O X O X O O X X X + O o & ; + + g X O O @ O o O X o X o &   X O X X . O & &   o . X + O O O @ & + <.V O O * @ X O o o z <.g + , X @ + o o + X + o + + * X X O 8 + @ . X o + ; 8 ..t.<.g + O @ O X o + + ; o O X X O X X X X . X + o o o X O @ ; O + , + o o o o + O o o X + @ X O O o X o X o + + 8 8 * * @ o o O + + + + o O X + O o + + O O O O O ",
"o O O . o   @ . . O . o & O O X o O o X   @ + * + o o . o @ ; o X O + O + O @ o O X X X O X o o . . X . . @ O X o O + O O O O . O + O o + X . o O X + X O X X O O O o O O o O o o X O . + o X + o X O . o X + X X . O O O   X o X X O O + + o o X o * O @ X + o o X O X & V &.+ O o O X X @ @ X X @ e.O X @ o & * X o X X + X X O + o o + . o o o X o O + O , t.8 <...+ X X O O 8 & + o + . o O o . o o O O X + O o O o o O @ o o X O o X o O O X O o o o X o @ o + X X . o * g + . . o o O , & @ o @ o X + X o @ o @ o O g ; X ",
"o O O @ X . o . o @ O . X O   . @ X O O ; @ 8 & o o X o o X o . . ; + + O O o O o + O X o X o + X X X O ; O O o o O + O + X + O O X O + + O O o . + o o O O o . . + o o o O O o X O X o X + . @ X . @ o X . O X X o X + . o O o X O o O o X o o o o * + + X o + o + O X X @ @ O + o o O + O ; @ O O @ g O + O o O O + X + o o X + o O o O X o O X X o o X + O o o O 8 X X o O O X O . o + + + o o o . o + X @ o X O o X + o + o o o o X X X X . O , + + + o o O o + @ + . . X o . X X + ; & g & O o o + X + X + O + O O @ ! <.+ ",
"X . , & O X O o O o o + O .   o X X X O 8 V , + @ . .   X + @ o o O + o o . + O O o o o o + o O o O o o o o o . o + o O + X O O + X + X + O o o O O X . O O o X . X O X X & + o ; . O X o o o O O o o O X X     . ; . X o o o X + o O X o o X + . & + + + . O X o o o o o o X o o X X o + + o o o . O O o o @ X O ! O o o X X + + o O o O X o o o X + + + o O + @ O o O o o X @ X o X o O + o o o X O O o X O O O O O @ o o o O o X O o X o o o o & o * 8 o O X o X O X O o . O ; o o X & ..<.V o O . X o O o @ O + * + o ..K o ",
"O X . O @ . X X + + + O o X X o O X . o . O @ X X O o O O o o o + + O X + o o O X . O O o X X o   X o O o & O O + X o O X o + o o O * o X . + X O o X o @ o + @ O o X o o o & O X O @ O O X O o @ X o + X X O o . .   X + o o o o + O o + o + + o . X O . o o   + O @ X o o ; @ X o o o o X O o @ X O X o + + + O * , o + O   X o + o X + + o X + X O o X X O O o X o o + + X o O X . + . o O O O O o @ + . X O   @ + o X O O O @ X o O + O + o * g z + + * g + & O o o O O X + O X o o O g ; + o O o X O o X o o K @ o + <.<.* ",
"O o . o + + + O . O O O o o o o X X X X X . X + X o O O X & O o @ + + o o ; o X O X * o o   . @ O o X + + . X + X O O <.@ + o + O X @ O o @ X o X + o X o X o O @ O @ o O O ; X O o o O O o O X X o o . O O + X + X + + O X O O O O O O . o @ O o . X O o O O o o X X O X o + + + o + o + o O & o X o o @ o X o X & g o + o   o     o O . X + X o + o O + @ o + o X O O o o o o o O O o o + o @ O O X + X X X O + o @ + X X o O O ; @ & X X + X O { g g * K ; V + + o o o + X o O + + + X @ O + O o o O o O X + o K e.O O O O @ ",
"O o O X + @ ; X . X X + @ . X X X O ; @ o o . X . o + o o + + O + o O + o o @ X X   . O . + , o + O o X o X o + o o o + @ ; @ O X + @ @ @ + O + o O X o + o X +   o X o + o X O @ X & + o O o + + O o O X + X O o X o o o O X O o X X X . . O o + X O X ; O o @ O X o o o o o X o o + X o X o + o O + X X @ + o O o o ; o O o . X + o + X + O O o X . X o X o o o X X X X O + o o O + X . X . o o o + X o & O o X O . o o o o O O @ , @ O O O + <.<.g ; K ; & + O o O X X O o O o o o O + o o O O X o @ + o O o ; p.; * o + o & ",
"o O o X & * o X + + * O O X O @ + O o O X . o X X O o O O @ + O X + O X O X + o X . . . X * g + + + X @ o X X + o + O + g , V o + + O O @ o + + + + o o o X X o ; X O + + X g ! g , o @ O o O & & + O O O X X & . o O X X   o . @ X X @ O X . O + o o X . o o @ X X O + K o O O O + X   . o X X o o O + o O X X + O + o o + & O o + O X O * * X o X X O o + X O o o + X o O X X + + X O @ @ O + + O @ + O O O + O + O O X O + X o ....! + X + ! ! p.! <.{ ; g + + O & o + O + O + o + ! + o o o O + O ; & @ o + + z z @ o o o o ",
"+ O o O O ; o   + o + + o @ o X . o O o o . + @ + @ O + O X o X + + O O .   X o O O . o X @ * 8 o o + O o O X X O o o o o o + @ X @ + . X X o o O o o O + O O O O O O X O c.K V K .., g o X o o + . + X o X + o + + X X o + O O O . o o & + o o o o + ; O @ O + + O O * + O + X O O X o + o + X . o o o O O o o O O @ o . @ O O + . O o + o ; + X o X + . + o X X . o O & + O O . O O o + K ; + . X + O o o @ o + o O o + X O o & @ & + @ o @ V @ K @ @ & g ! + g O o o o o . O X + X @ + o X o O O O X O + O + o @ e.c.& o o O ",
"+ . o o . O , X o o O + X O o O o O + o X o o . . X + + + o X X O O X + + + @ o o + o O o g 8 & 8 X @   O O @ O o o . X O . X + ; @ & o o . o O @ g + X O O O X X + o o ; c.c...K e.c.& o o O o g O O o o @ + o O o + o O o O o + o o X o + @ . . o o o o o + X O + Q V * + o o + o O X * + o o + + + o + X + o o o + X O + @ X O o O . o o . ; @ + o o o O X o o @ o K g X O O X O @ X O K g o o o & . o + o . o o o o o O o X X + + g + o X O ; X . + O o o g + o @ X X o + X o + o + + o O o + + X @ O . O @ o ; c...+ O O X ",
"+ @ o + o o O o + X . o + o O + + @ o o o O X O o O O X . o & O o o O O O O . . o o O o o @ & @ * @ X + + o o X X   o X o X O + * + O @ ; O o O X X X X o + . + o o o o 8 e...K ! p.c.g o o + O & @ @ 8 g @ O O ; X o O O & o X & O O o O + o o X o o X + O O X @ ! V <.K & + o X O X X o o O o o o + X + + o + o + O X X + + + + O o @ @ @ O @ X O O & O o X o o + V ..! ; ; + o o O V ; ..& o X O o o O o X O o X + o O o o O o + . O @ & + O X o & O O O & O O o o o O o O O O o o @ 8 X X o + @ @ + X o . O X @ ; + + @ + X ",
"X X + o o O + X O X . o O o O o o O O X o X X X o o @ o O & + ; O o X + ; @ o o o + O + o z & & * , O o O o o + O X . o o X X o * O o & @ + O o o X O o o o   @ O O @ K <.<.e.p.c.<.F...; <.8 @ @ ! ; O & * ! O + X o O o O X o @ O O . . O + o O O O X + . X + o z g e.K ; + X + o o o o o + + O + o X X O o O + + X + O O O o o o o o @ X o o + @ @ & & o O + + &.e.e.g + @ O + o @ o , g ..X @ + o O o X + + X + & X o o X O O @ O O * p., , + + o o @ O @ X ; + O X o + O , ! K , &.<.X X ; + , g ; o X   o + ; ; o o o o + ",
"X + X + X + O o O O * o X @ o X + + + @ o   & . o ; X o o O o + o . o o X X o o o o O X o , @ g O X . X ; X o o . o . o o X X o + + + O O o O o O X o X + X X X X + X g p.<.t.z <.M...c.<.p.g ..<.e.8 + @ ; ; & X X o X X 8 + o X + O X + O X . X + o X O O o o X X , V + g ! O ; K @ m & + + O o X O + + O O O o + o o @ + + X X + & O + X O o @ e.! 8 * + @ O o t.e.A.c.! O @ g & + o + 8 + O @ O o ; . X X o X o O + X O O O + X o o O g * 8 8 + O o X o o + + X X O & + V K K @ z + @ K 8 O @ + o + @ O O + X . + X X O X O ",
"@ @ . X o X o + X o o + + o o X O o @ o + o o o . + + o . O O O + o + + + + O ; @ . o O X g g & + O X o O + o . O O X o o o + o o ; + , V . o X O O o + O O + o X + o ..e.{ e.8 <.! <.e.A.g g g g 8 ! & + g g & X X X o + ! & o o + o o + + o o . o o O o X + o O O o + g <.e.c.e.e...p.Q . O + O o X + O o O o o O + O + X o + O @ V @ o & X X ..e.e.e.t.@ + + ! g ..A.c.@ + ! <.<.g + X X o o o O o o O O O X O @ + O + o o @ + O + + o O + ..g X o o O + + X o o O g <.e.8 8 O o @ X + K + o + @ o + o o o @ X o X o o O . o ",
"O o o X o . X o o O O + X o o o X + + X o o . + o X o + O o o o .., * K 8 @ + & o O o + . @ , 8   X O o + + + . + o X . o O o + 8 ; g ..+ + @ O + g + X o X o + X 8 + ..F.&...c.c.t.g e.c.e.c.e.<.p.* X o g ; o X X + & , { ! + X X X o O O O O X O O X . . X X o + + + ! c.<.<.e.p.t.K + 8 * O O X o O X O + o X O O @ o O o O X @ 8 X O X o o + , K e.& V * V e.c.e.M.K + @ ! p.<.g K @ * ; O + ; + o . X . O X + o X X * V o ; @ + o + ..* o z g , O o + . + . o @ <.p.<.& g O <...@ o + , + o ! g + X O X o + X . X X o o . ",
"o @ o o o o O & @ K 8 X O + @ + O O o o . X o o O o o O X X O + ..<.@ & * @ o o o + o + o o @ @ O o @ + X @ o O O X o o X o X + O + g c.* O ; V & * ; o X o o o + 8 g e.c.c.e.e.A.p.<.K &.c.e.c.c.! O X + , @ + o O + O ; m ! g @ o X + o o o + @ o . X . o + X O X + V K e.c.M...g V + o ...., O X o . X o + O o o o o O X X o o + + O o O o + ; + , K g o O c.p.<.c.<.<.@ o ; @ ! + K @ + ; o o 8 g + O O + o O o O X o ; ; + o z g O X O + , g { K g + o O . @ O + ..g e.! & + ! ..O O o + + & + p.& X O ; o o O o O o o + o ",
"o o o o O o @ o O * + + + + + o o X + o X o o + o X X o o o + o ; O O + @ X . X + O O o o + O *   o + O o X o   @ O + O o O @ O O o O o + + + @ * O @ O X . O O ..<.! V p.c.c.p.c...<.e.K t.<.p.M.c...+ o + o @ O X X O @ K K & + @ O + o X o O O o X o X o o O X X ; O * e.c.c...K <.e., 8 @ O + o X . X + o o + o O o o O O + o X o , @ o O o + K ! + + O V ..<.c.M.e.e.<.g & p.! @ @ * K + o O @ @ @ o + o O O X o o X + o + o O o o O . O O O V & o O o o . o O 8 * @ t.! c.; 8 @ @ K O o @ + o + @ + o O @ O & o o X o X O ",
"o + o X X o O + O o o + X X & X o . X X X X o + O . O O + O O . . + o X + + X @ X + O o o o + O O . . O X . X     X o o X @ o X o o . + X o O o O @ o O X O + V ..<.<.<.p.p.K V g ! <.A.<.K c.e.A.<.e.K + o O * + O + X ; K ! , , & o o X X O O o   X @ O o O * @ + + & <.t.e.M.t.<.e.* + o o o O + o o + + o O o + . o . X O o + + X X o O X o X X * + + O X g ..V <.! ! <.V <.{ <.g + z o O X o @ o o o X @ . X + o o O + o o o X + O O X X o * ! 8 V o O o X o o V <.<.c.c.<.e.@ & V + X @ O @ + O + O @ @ @ @ o o + @ O O @ ",
"o + O o o O O O + + O o o @ & + X o X X O + o o O O o o o . O X X o o + o O X @ O o o + o X o O X . X o X o ; O O O o X O o O o + o . O X + & X X + X + X + 8 ! ..<.c.<.<.g @ ..K & ! A.p.8 K V c.c.c...o o O @ O + X @ + g + + @ @ O O + X + + O o X X O O g K K + , t.! ! e.g p.e.! + o O o @ X o O + O O o + o X O . O X O O O O * @ o + O @ + o X O O X + O + + O X z ..e.e.....p.e.! ....+ X + o o o , & +   o o O X X @ o O o ; o . o + + @ 8 p.8 X X o O . o & p.M...c.e.! <.& V + + O O O O + o + O ; o X o . X X & + X ",
". + o O + o o O O o O o O o o + O + + . X @ @ o X + + o o @ o O o O . X O o X O + O o O X o X X o . o   X o . O X O . o o O O o X X o O O & + X o O o o + c.c.<.t.A.<.A.g O O <.p...V <.<.E p.K g e.A.e.8 @ o X X X o X + * o O + + O + ; o o O X . . X + + o + K 8 z <...<.&.v c.! K + X + o o o o X X O . o O o X . X . . X o + + g g + + O @ o o X O + o o O @ o X . @ z V @ e.i.g c.c.c.&.O @ X + . . , , & X O + O X o o @ X o X o o @ o @ & + & o O X . O X K ! e.t.F.p.e.K ..* g @ O o + X o O o X o X + o + + X X + X X ",
"O O X O + O + + o o X + + o o o X @ o X O X O .   X . . o X O X X o + o o O O ; O + + o X . X     o X O X O X X O o o o o o X o o X o + o * <.o o o + & K <.M.e.c.c.<.c.c.&...K , , K + ! g E g <.t.p.<.O o O O O X O X o o + X o + o @ X o o o O + X o @ K * ..+ X O K + + * V K V z + o X O O o + O o @ + O + O O + X o X X X O X + V <., ; X + + O o . O X O o o O X O ..<.@ K 8 @ * + & @ o @ O o o o + o o o + @ . O O o o X X + O O O ; o O V , @ + + @ o @ & V c.M.c.c.<.g @ O . O o X X O o + X . o o X o o o o o O + + ",
"o X X X + + o O @ . o + o X o + O & + o o @ O o X O o + + o + X X . + o X @ * @ o o O + + o X @ o X X O o o o X ; O . o o o X + + o o @ + 8 ! + O + z K c.<.e.e.<.K ! p.c.e.e.* @ K @ o X g V + ; <.! g o + o . @ o O X + X O O X O O O o . . + . .   + @ <.c.c.! O O O O + g V K @ o X o g O X o + O X O o o X o O + O o o X o X ; + + o X O o o X o + + O o X O O X O o , K @ @ @ X X X o O O + O o X O X   X X o + o + , @ O . o o . g g o o o + + + g + X + + 8 & z M.M.....+ + X + o o o O X O & + o X + o o o + X + O O O ",
"+ o X o X X O o X   X o O + X o + X O X O O + + o o o o o X + @ O O O X + ; + + . X o X O o o X O + o o + X X   O X + o + X @ X ! M..., @ ..@ O o @ ; c.M.e.! ! ....! c.K F.c...! + O o + e.e.8 ; <...g o + + o O o o o @ O X O + X       O O + + . O o @ e.e.; X o ; X + V 8 O + O X o X @ X o X X + X ; O X O X X O + X o . O O @ + o O O @ o O . X & @ X o o O + X o X X X , * + O o ; o O O X . O O o + X o o o + O O o X o X o + O O o ; + O * 8 + v K + o V e.<.e...* O + @ X o O . + o o X X O o @ o o X o + + o o o O O ",
"O O o o o o . X + . . X o . + O + O @ O o o @ o X o . O X o O . o O + 8 z V + o o + + + O O . . o o o O O + O X + O X X + O O O V ..p.8 + K g O O * ..! c...<.e.A.<.K F.e.c.....O o X O * p...O X g 8 g + + X + o o X o @ O o O . o o O + + + X o + O X + ! <...V & * o o V ..@ + + O O X o X X o + + O + + + + o o X o O o o @ o o o . + o o O O . + X o + X X o O O X O X X o o X o O @ O X O O + o o X + o X O . , X @ X . o X o o + X o o 8 g + + o , & @ @ & ..c...8 @ X O O O o + X O O @ g + o @ X O + @ o + X X . O O @ ",
"X O + X + . X o X . . o   + O + + @ * X + O o O o O O o @ o X o X o o X . o & X O + V o O O o o X + X o O O . O X O + O X O o X & z 8 o + O + + @ K e.c.<.c.c.p.c.A.M.t.[ e.c.e.& g @ X O @ ; O o + + O o o o X O o o O X X O X o o @ O O O ; O + o O @ @ ! <.8 + O O o o O g @ + + + X o O + o o o o O o o O + X ; o + o + . o O + o & o O + X @ X o o X @ + o O @ + ; + o & + X X O O X O X O O o O @ O o   X . O + o @ o   X o o + X o + O + O o O o O o o o 8 ! ..! + o O O + 8 O + o @ o & & + o o + O o O O O O O . X + + ",
"  X X . o . + X X X   X X O , o O O + X o X X O + + . + + o X O o + O o O X + O o O @ o + O O ; O . X @ O O O ; X + o o o X + O @ O + + @ + o O O ..c.e.* <.p.e...! c.c.e.e.[ z + O g , & + X o o O + X + o X o o + @ o . X X . o O X o o . o @ o O o o + & o + g o o . + @ X o o o O + o o X O O ; . + O + O & O X X o o O O X + @ + X + X O o + O X     X o X + O O + @ O O o O o o X o + o + o X o X o X + o O . O X @ O + o @ O & O @ X X @ O o X o + . o @ t.K 8 * X o O o ..c.[ ..<.+ X O + o . O O o + O o o X X O + X + ",
"X O + + X X o O O o + O O O + X o . o o o O + & X o O ; X X X & + o + X o + o & o + @ X X O X @ O + O . o O & O + o * O + o O O * + o @ K K z g + c.z g & ..&.e.c.c.M.A.e.e...; + g 8 + Q o O O O + O O o o O X + . O   . . + o o O o X O o O O + X o o O o o o + + + o . O X O ; + O o X + o o X o o O o O + + X o o + o X @ X o . X o + + + O o + X o o X + O O ; o o X X o o o o + + X + X X X   O 8   X X O X o + X o o o O O o O X X X + O ; + O X O o o * , + V ! & + @ ! e.<.g p.z o o o O o o X o X o X O o + X o o O O ",
"X & + X O + @ O o . o o o O g o X . X o + + + * O o . O + O O o + X @ o + + g + o o o o O , & o O O o + O @ g + + & g @ O @ O g V @ o @ ! ..g @ , &.K <.e.K K g e.<.M.M.p.e.K O + O * * * O o + o 8 + o . o + + + . o X + o + o o o & + . @ + o o O . O o + o X + + X o O @ + X + O + o O X @ O o + + o , X o o o X o O o o O O o + O + X + O o X O O o . . X o o O o X o o o + ; O X o X + o o o & @ X X X o o O + + o o X o O + + O + + + + X O O o o o o + + o o + O O , g K ..@ + { <.O O * & + + o . o + o X O + O O o o o ",
"o . o O X o X o O + o @ o X X + g & + 8 ..V ..* o O X o O X + + o + O + O + . o o + O + + o + e., + * + ; K V K * V V o o o O O O * ; O V o + . @ ..K c.! c.t.& K e.e.e.t.c.K + o O o O o + O o O o o O + O o o X   o o O + X o O o O o X O X o + O o O X O O X O O O o o o o o O O o O + o o X O o O & , O . X o O X g & + X g + + o O ; + O o X o . * g . . X O X o o o X + O . O O O o O + + . X X O @ . X O X o o + X o + X X X X O O + O + + ; o o O . O o O X X o o X o + o X o , . X o O + o X & X X o O g g V X + O o o ",
"o X   . o X X X O @ X X o O + ; 8 & g ! V <.e.* O + X X + + X O X X & O o O o o O X O o O X + g c.M.<.8 + @ g + 8 8 g + o o + o X o o o + O o o + g <.c.c.c.p.g + &.& c.c.t.e.<.O o o + O O . O o o o + + X O @ + O o X + O o @ O o X o O o + @ + o X o X O O o + @ + o X O O o o . o O o O o O O O + { @ . & . X o O K <.O o V * + O + o O + o O O + O , . X . O X @ o o + V * ; ..V + O + o o O o X X . X + . + o o * + O O X X O + o . + o . + O o + o O X & <.8 O + O o o o o + X X O + O + X O O O + V ..@ o <.K X + o O O ",
"o o @ @ X X O o O . O + . o O @ & + @ @ X @ ..+ @ o + o o o + O X O O + o o + X X X O X o @ ; 8 , p.p.c.M.M.M.K o + o O o + X + ; @ o O O   o X o V c.K e.M.p...K , ; 8 ..c.e.@ o o . X o O X + O + X + + O X o + . o X o X @ + . + O 8 + X + + + + X + + + o X . @ X + X + o X o . o o X O o + X & + + o o o O o O o @ p.@ O m 8 ; + o o o o o X . . + * O + o O o o @ & c.8 ..K , 8 ! g + O o O O X X o X X X O . X * z * g g V O + X . o X @ O o X X O K , * + + O o X o O X o X X O o X X + O O X o , g ; * @ e.+ ; + X o X ",
"+ 8 ; O o o . o o . o o X + O z + @ @ O @ V & o o O O O + + O O O + X o O O o . o o + o o + @ <...<.M.e.Q ..c.8 X X o O o o o O o + o X o   X + O & e.V ! M.M.K ..@ o O + c.e.g X + o   o o o . O . O + O + O O + X X o X X X O + ; o + + o o X O O O X O o + X X X X + O o o . o O o . o X O X o X o o X @ o o + O O + ; & + V <.& o o X O @ O o + o g g , g o O + X + g @ , ! p.c...g 8 O @ . o O X O o X X O O o X ; K ; @ ..& X + O o ; o O . o + X o 8 c.V ; O + o + @ g + X + O o O o O X @ + X X + O O X @ * + + ; X + X ",
"o X + O X o X X o o + o ; @ g O + e...<.@ @ ; + + + X . + X O o + o X o o X X . o + + . o g e.e.<.g g p.c.e.<.K o o o O o o O . X . O X X . + o o * ..K ; e.e.e.+ X o z ! , V g O O o X X ; O O O O X o O O + o o X o O + + O O ; O @ o o o @ O o . o + X O + o X o + o @ o o O O X X X O O O X @ o o . + + o X o o + V ; g @ K K ; & o o + O o + + o + + X .   + o o o & + ; ..<.* V 8 8 @ X o O o O X X . + o o o O X o . X + O o X X O X   O @ O o + O g ! <., 8 o X o o @ O X + o X X X o + O . @ o @ ..g + O X X o o o O O ",
"X O X O @ X X X X o + o O K ..g * M.t...g + + + + o o o O @ O O O X X + O + O o o X o O + K t.<.<...@ K c.e.c.c.@ 8 o o O X o . o o o + o O O o X & , @ & e...& o O @ + @ ; + ..+ + X o o & o X + X O O O + X X o o . O O o @ O @ g O o o o o o o O O o o o @ O O . O X ; O + + O X o X o o + + + + o X o o O O o o + o X + + O g + O O + o O o O X O O o X o X O + X + o & ; @ + @ & 8 + O X + O + 8 X o X + O @ + o O o o O O @ @ @ o O o . + X + + O @ O ; O O o X + o O O o o o @ O o . o X + X + + + , * X o o o X o O o X ",
"o o O X   . O   X o . o + @ e.K K t.K * @ X o o X o + o O @ o o o o O o O @ O o + o O + o o K g V e.K <.p.e.<.* + + O o O O o X O + o + O O + + X X . 8 ! A.c.& o + @ <.z O o X . X o o X X X O O O X o @ o @ O o o @ o O o @ + . o X X o X o o O o O + . + . o o o + X O O + @ . + O O X O o o o O + X o o o 8 & ; , + + X + o + O + & O O o + . . X o + + O @ o O X + o o @ O @ 8 + . o X X o @ o X X o O X O o . O o X o O O o + + X + X X X O . @ o @ o X + g O o X + O g X X + X O X O + O O o X + o o O O o o O O X O . o ",
"o o o o O o o o + o X X o @ K F.p.@ @ 8 X X o O O o o o + O o o + O X O o o X o + X + + @ + + g ; K <...<.<.p.z + O X O X O X O @ + o O O X O . o X + * e.p...@ X + + g + o o o O O + + + o X + O o O X o O O o @ + O X . + o X O X X o X X o o ; o o o o X O o X o . o + X . X o @ & O O X ; X o 8 & 8 , O X K K , + & o O o o O @ . + @ + X . X + X o X X X X + o + O o o o @ K O o O X o o X o o o . O & o o O . X X X . o o o . o X O o . O X o o O O o o X o o . @ @ ; + + + + + + o o o + o + + + o o o + o o o o o O X . ",
"X O X o o o + o . @ + + + <.t...p.<...+ X o O o + X X o O . X O o & O ; X . O X X o + o + & + & o + <.8 t.c.<.<.g + O o o + + O + o + O o o + o o O + g g @ V & @ . o o @ + o X o o + o + O O o + O o o X O + O O O X O X X o X X o + . O X o o o @ o + o + + X + o O X X + X o o o o O o O O X O o + o + o o X O + K o O o o O ; o + + o + @ . o O o @ . o O o X o o o O + O O X + o . X g @ + . + X O O O X o o + . + o X O 8 & X X o + . o o . O X O + X + @ X + X o g g @ K g + O o o + ; @ O O @ o O ; X @ O o O + + o o O ",
"+ X o o o o . o O X X + & c.c.K t.e.p.o O + o o + X X . o X . . O X o X O O o o o + . o o o ; X o o o @ g ! * ! e.X @ o X + O o X + O O X O O X O @ X ; , o o g O O + + o o o o + o + o o X X o + X o + X & & O X X O + O o + o ; O X X X @ @ + O o @ & X o X o X O o X o o X X o + o o X X ; o o . X X O O X o o o o O + . X + ; O @ + o o X . X O . X . X o @ . O + O o O o O O o X o X @ * o + o O + . O X X X ; g 8 8 X X g ; X X o O @ o X X . o X o X X O @ * , 8 O + K ..g g @ + + 8 z @ O ! ..O o X O + @ X o O X X o o ",
"+ X + + . o o O . o . o @ ..<.p.e.! [ + . X X @ O O . o o + o . X o   O ; X X o o + <.O X o @ + o O X o o O o o o + + X o X + o . @ o + + o + o o o . + @ X o @ O o O X o X X o o o o O O * , ; O X o @ X o O + X o X + X K V V O o + o O @ & o . X O . O X O + X X o + X o O + O o O + X o o X o + O o o O O + o O + + X + . + o @ , X @ o X O o X . X o + + O O @ O o O O O X O + o X O @ O @ o O X o o O O o O   . @ o , * X o X X . X O X . X o @ o X   X O X O + o 8 ..e.! & g .., g * * + O 8 ; + o X + O o o & o + O . . ",
"X + O . O + O o O o X + X , g e.M.g + , O o o @ O + @ o O X o o X X o X + O O + X V z O o O X @ o o X O @ o o O O O o o + + O o o X o o o O & * + o O X o o o o O o o O + X o o o . O O + V v X O X X o o @ @ + o o + o o 8 e.K @ o o o O @ , @ . o X + O O o + X o @ o o X O o o o 8 O o o o O . O X o o O o o o o + + O o + + o + + o o X . o O + . O o X + @ . + o + o + o O o + O O X o + & + X + O O o . O + O + + X o o . X X + . o o O o O * * + g X + X o X g o g <.p.<.K + & V g ; @ X X O + O o O O X @ o o o o & ,   ",
"X X + + O o X X . o O X X & e.e.e.K O o + o O O ; X     X o . + X o O o . O X X o + o + O o + + . @ o o . @ O + X O + O O o o o X O o O o + o o O + O o O o @ O + + O X o + O o + X o X X + ! + o o + + & + @ ; O o X o o K p.@ O + & X o O + o & o + X o o @ + + X O X @ X o + o . + X + X o o X X o @ O o . o X o O X X @ o + + + + + + X X o o . O o o X O O . X o o O O . o o + + X X X O @ o o o ; X O X o o . & . . O o O o o O * X o   o .   ,   + . + @ o o o + X &.<.! e.K @ O & p.e.K o X O O o o O o + o + X o + + . ",
"o X O X X X O o o o . o + o V ! V & ; + o X o o @   X O o O @ . O X X + X o o O o o o o @ X X O X X o o + g X X O o O X X O X , @ X ; O o X o O X o o o O o + X O o o X X . o + X O @ + + O o o o X o o + + * & O . O o O g @ ; & V * g & o O @ O + o O + o o o o O . o o + o X O . X O O o o X O + o X O o X ; o o + @ ; o + X O + o o X O o   o o X O X X o o O + o + X o +   . O o X o + + o   + . o X ; o + + + + o o o @ g @ @ & o + o O X o X X O O o O o @ o o + X + @ g * c.V X + <.<.& o O O O O X X o X X & o X . + X ",
"X O o O o o o O o O O O X O K O + o X O X O @ O + o X + , . @ O . . + O X O o X + o o . o o + o o + + o ....@ g O X O o . . O o + O o O O O . . @ X O o + X o . O + O + O @ o X O O   + O O o + & O + o X + O o + + O o o + * e.<., ..Q z g , O O + X X g 8 <...g O X .   o . . o o O X O o o O @ + O o X   X X o o * X t.g , , O o O + O o O o . . o O o X o O + o X @   8 X X . + @ @ & O o . + g * X O o X X o O X o X o o . @ 8 & o + X X X O O o X . X O o X + o + X + + o @ { , @ o ; , X O . X X   X o X + ; O o X o o X ",
"+ + & o O o o O + @ + + X o o O o X . o * + + @ X O o o   @ & @ O . o o o   . o o o + o X X X o O o o o @ g ; @ o o o O   X . + . o X + X X + o + X O O + o o o o + O + O O o O o o 8 o O O O + o O X O O o X o O o O o o X + + e.! <.<.g , & O X + X O V e.e., O + . . X o o . + O O o + X o O o + O + * X . . o + o & K ..8 @ o O X o o O O X O o O o @ X + O O o X o o o O X o + o o . O o 8 , * 8   O o o X o O X o X X X O X & , o + O O X X O o X & X + O o X O + O X o o K & @ o + X X O X X . X X o X o @ & @ + X o o o ",
"O O + O o o o o . o O O @ X + o + o + o + o + X + O + . o O . o X o o X @ o + o o o ; o O . X + @ o o O O @ + + X + o O O X o X . + & o O O X   o * + + + O o . X o & X X . + X + X . O + o + O o & O + o + O O O O X O @ X + K e.c.e.e.<.<...& + V m e.e.e.<.V X X . O X . o . X + & X O X O X ; + O X X   O . O O o g ..K X + X X X o O X X o + O @   O o X X X + o X . X .   + X o O O . X . X o X 8   . O o o O O . o o O o O o O O 8 X O X O X o O X . o O X o o O o X . O o o o X X O + @ X o o O o X   X X O ; o o o X . ",
"X + O X O O + @ o o X O X O & + o @ + + O o O o o X + + O o o O O * X o X X O o   X o o O o X X O @ o + + o o o X + o X o O O o . + + @ o o o O o X o @ O O + . o X + o @ X o o X +   X O o O O + ; . + X X + + O ; O O O . + ! K e.c.t.A.c.A.K g ! e.t...c.<.* o o X X + X   + X X . O + O X + + o . X X X     . + + + ..& K o . O O + + . O O + o o . O o O O o + + + O o o + X + + & o o . o O   o z * , . X . o . o + . O X X O o @ ; o + @ o .   . o o   + o O o o o o X o X X o X + o @ O O o o o X . X   o O O X o O X . ",
"o o . + o . o . o + O O X + + + X o O X X + X o X o o o o . X O + O X o o . X o .   o o + o o o + O + + O o O o O &   o + o O X o o o o O X O o O X o X   X O . o o + ; X X o o + O X + o + + O @ o o O X , O @ O o V 8 & o & e.! p.c.p.c.F...e.e.* , ..@ @ V O X . + o o . o O X O o O O + O o     + . X + O X ; o o + 8 O o X + & O o + o o @ O o O o . O O + o X O o @ + O X X X + + o o X o o O g + 8 X o + * , & & 8 , & g * O X g @ O X o . X X .   o O + o o X O O o X o o X X X + O O X . . . @ O , 8 g . . O O O . @ X ",
"+ X + + + O @ O o ; o o X o + X o X + + X X O O X X O O + o . o X o X o O . @ 8 + X o X O O o + + O O O & o * X & o O O + O   o o + O o o + O o o o O O o , ; + + O @ ; O X O X o O o O . O + O o o O O X o O + + V ..g + & g e.<.<.M.e.<.c.p.A.c...K 8 & * @ 8 & X O + X X   + O o o O X O O . X . O o . + + O o o o X o + o g ..V g + ; o . X O o X o + + O X X O . . o O X O . X . X X o X o o X g X + & X , O g * . @ g * + 8 X . , . . ; X .   ; . X o + X O . + @ O @ + o + O o O o o O o O o X X + 8 + @ o o X X + + O X ",
"O o X o X o . O . O o o O X o + o o o o o O O o + o o o o o o O   O ; X X o o + + X O o o . o + O X o o . X o + O o . X O o o X X @ . X o O o o o o + o o o O   o O + o . O o o O o + o O o o @ o + O o o O O 8 * @ * O O + + ; K p.<.e...e.c.t.V { t.t.e.@ o V + o O o O O O O O X X o . o O O X o X o o O O O @ . o o @ o @ O <.K g o + o o o @ @ o X X o X o + X X o O @ + O O ; + o O O O . 8 O O g &   . O , , 8 X , 8 8 g + . o X . o X O X o o o o . o X O + * O X o O X O O O X X + X O X o o . X 8 + . X O o X o + + O ",
"+ @ o * O o @ + + O O + O o O + o O o + + X o O @ O X O O O X O O + @ o + O o X X @ o O X + O X o @ O @ O o * V + o O X   X X o O X X X + . . O + O o + o . o . + X + @ O + o @ + O o o o + O O O X * O + + O O 8 @ + O o O + * o 8 V O z * ! & * <.c.M.<.o X g g X o X . + O X X . o X o o O X o o O + O X . o + o o + * o O g K <.! o + . X X + X o o O O + O @ o + + + + o o + X . . . o o   O @ . 8 X o X o O & * & g o X O o @ O X o X o . o X .   o X o + X o 8 @ + O X + & o O X X O O + o X X X o g + X O X + @ O .   o ",
"o o X + O X . O + o X o O o o . O o O + O O O X o O X o O X X X o + + o O X o o X X o . X o o X o O O + X ; X X . + o o o O . o o + X . o o o o + O O X o . O X O . o + O + o O + o X + o o . . & ; , o o + @ @ * O + O O O O X + + ; o . o + O o g M...; O o o , , O O + O O o o X X o & + o o . o X + X o o X O o X o O O + X X O O O O X o   . O O + + o o o X o X X o O @ o O + , + X . o X   ; + o X O o X O X ; 8 @ @ O + 8 * 8 o o X + * + o o . O O + @ o o O O o X + . o + X o + o O O O X + o . & + + O O O o o o O o ",
"+ + ; + O ; & + + + X O o + + X o O z g , X O o + @ o o X o o O X O X O X O o + O + + o O . o . X o O + + + 8 X X O X X O X X . X O X   . O X O o + O X X O   X o O X o O X O o o O + O o + O X + @ @ X X + , @ X o o X O X X + + <.K o O + o o @ K g ! * o & , ; O + + X o O o   o X o O o X o o X X o o X . @ X O O o + o + X . o X + X o o . O o o O + o X @ @ o o O O o O O o X X X . @ O o o O o O o O X O   .   + & * g * V ; + . . + o , + o o O + O 8 8 @ o o o X X + + o o o @ + O o & O @ X X . .   + o o ; @ . O + X "
};
