/* XPM */
static char *_f82dcdefd404492b671d41cdc132b4eQYiITS0L3HkzHeZY[] = {
/* columns rows colors chars-per-pixel */
"256 256 155 2 ",
"   c #262525",
".  c #383635",
"X  c #3D3B3A",
"o  c #413F3D",
"O  c #43413F",
"+  c #464442",
"@  c #484644",
"#  c #4B4847",
"$  c #4E4B49",
"%  c #514E4C",
"&  c #53514E",
"*  c #565351",
"=  c #595654",
"-  c #5C5956",
";  c #5E5B59",
":  c #615E5B",
">  c #64615E",
",  c #676360",
"<  c #6A6663",
"1  c #6D6966",
"2  c #6F6B68",
"3  c #726D6B",
"4  c #76716E",
"5  c #78736F",
"6  c #777370",
"7  c #7A7572",
"8  c #7E7976",
"9  c #7F7B78",
"0  c #807B77",
"q  c #827D7A",
"w  c #86817D",
"e  c #88837F",
"r  c #8B8682",
"t  c #8A8581",
"y  c #8C8682",
"u  c #8C8783",
"i  c #8C8783",
"p  c #8D8784",
"a  c #8B8582",
"s  c #8D8883",
"d  c #8D8884",
"f  c #8E8884",
"g  c #8E8984",
"h  c #8E8885",
"j  c #8E8985",
"k  c #8F8985",
"l  c #8F8A85",
"z  c #8F8986",
"x  c #8E8986",
"c  c #8F8A86",
"v  c #8E8985",
"b  c #908985",
"n  c #908A86",
"m  c #908B87",
"M  c #918B87",
"N  c #908A86",
"B  c #918C87",
"V  c #918B87",
"C  c #928B88",
"Z  c #918C88",
"A  c #928C88",
"S  c #928D89",
"D  c #938E89",
"F  c #948D89",
"G  c #948E89",
"H  c #948E8A",
"J  c #958F8B",
"K  c #948F8A",
"L  c #968F8B",
"P  c #958F8C",
"I  c #938D89",
"U  c #95908B",
"Y  c #96908B",
"T  c #97908C",
"R  c #97928D",
"E  c #97928E",
"W  c #96918C",
"Q  c #98918D",
"!  c #98928D",
"~  c #98928E",
"^  c #99928E",
"/  c #99938E",
"(  c #99938F",
")  c #98938F",
"_  c #9A938F",
"`  c #99948F",
"'  c #9A948F",
"]  c #99938E",
"[  c #9A9490",
"{  c #9B9490",
"}  c #9B9591",
"|  c #9C9692",
" . c #9D9692",
".. c #9D9792",
"X. c #9D9693",
"o. c #9D9793",
"O. c #9E9793",
"+. c #9C9691",
"@. c #9D9893",
"#. c #9E9893",
"$. c #9E9894",
"%. c #9F9894",
"&. c #9F9994",
"*. c #9F9995",
"=. c #9F9894",
"-. c #A09994",
";. c #A09995",
":. c #A09A95",
">. c #A09996",
",. c #A09A96",
"<. c #A19A96",
"1. c #A19B96",
"2. c #A29B96",
"3. c #A29C97",
"4. c #A39C97",
"5. c #A39D97",
"6. c #A19B96",
"7. c #A29C98",
"8. c #A39C98",
"9. c #A49E99",
"0. c #A69F9A",
"q. c #A49E99",
"w. c #A6A09B",
"e. c #A7A19B",
"r. c #A7A09C",
"t. c #A7A09B",
"y. c #A8A19C",
"u. c #A9A29D",
"i. c #A9A39D",
"p. c #AAA39E",
"a. c #A9A29E",
"s. c #ACA4A0",
"d. c #ADA6A1",
"f. c #AFA8A3",
"g. c #B1A9A4",
"h. c #B2AAA5",
"j. c #B6Aea9",
"k. c #B8AFAA",
"l. c #B7B0AA",
"z. c #BAB2AD",
"x. c #BEB6B1",
"c. c #BFB8B2",
"v. c #C0B7B2",
"b. c #C1B9B4",
"n. c #C2BAB4",
"m. c #C6BEB8",
"M. c #C8BEB9",
"N. c #CAC2BC",
"B. c #CFC6C1",
"V. c #D1C7C1",
"C. c #D3CBC4",
"Z. c #D7CEC8",
"A. c #D8CFC9",
"S. c #DBD1CB",
"D. c #E2D9D1",
/* pixels */
", q 8 w 2 , 3 , u T < , ; 0 < 2 ; 4 , 4 t +.n n t , 7 e q - 8 , : 0 - ' J w 7 ( 7 6 q t ( w w t e c 8 e 6 6 2 3 2 8 6 6 8 : 7 8 t 0 2.c > t 8 t p J n 2.c 4 0 e.( T T c 7 , 0 P n e # < t 7 7 8 2 4 ( #.U s c 7 t = ( 8 q c u t w u D w 8 C 8 0 J ( w 8 u t t t 8 8 8 ( D 8 4 7 0 t t 0 2 J w u 8 n t 8 3 3 2 , 0 q 8 6 : w , 2 2 , 2 e n $.$.u n ( u t w t c u w D n e w 7 7 4 2 3 : 7 t q : 4 6 q 8 0 0 > > 3 u 7 8 , 3 #.( , 3 0 +.2.d.J 2.b.c 4.8 3 ; h.3 0 3 2 w 3 - 3 J 0 w 4 3 c 2.n $.4.( c c 7 , 6 7 u.( ( c t #., 2 4 ",
"8 w 4 4 8 J n 8 8 6 7 4 4 4 4 7 q 7.+.r.D u w 8 8 ( , 2 7 U q 8 0 4 7 3 u 4 n U ( 2.c ' { 2.e.J t +.+.0 7 2 > 7 4 6 t t e 2.0 ( c 4.q.e n c ( u.c $.u.e.u.T { 7 t n +.7.{ 2.n D 4 4 , 2 < > 4 3 3 3 8 B J ' q.c 8 B t J t n c 0 ( 4.U { e n t q t ( J D ( ' J t 0 0 t 7 7 0 3 w u u 8 3 3 w 8 0 { ( 8 q 8 7 8 : : w 0 8 4 8 8 1 8 q 8 w n c w B t 7 8 w 4 p 7 2 0 7 4 4 3 4 4 t t 8 B D t q 7 0 0 3 0 D 3 3 , 2.c +.( D 0 2 0 4.7.T U +.c u.2.0 0 w 3 2 7 8 4 e u 7 2., J w e ( 0 4 J c +.2 q 8 8 t 2.D e J 3 t 7 e 8 w = 4 t w ",
"u c J u { 2 e 0 $.2.w ( D { { r.2.2 u , , w 8 0 q 8 3 6 5 ( 4 8 4 4 8 D u.T ' B u.q.{ T 2.7 0 t c 7 w 4 8 7 = 0 , 0 7 3 0 c s.#.$.q.h.2.q.w $.c t 8 w n T 7.J J D ( T e +.2.( u.f.T 4.{ D t T J +.J ( J 7.q.+.J w D u +.c J 2.2.2.( J +.q.7 q.j.h.2.( q t T 0 8 w 0 J u 7 { 0 ( { +.T 0 t B J 4 J T 2.+.c < 4 c 3 : 2 ; 7 2 6 8 0 T u 7.n 7 8 D D 8 c 0 u e c 0 e t 3 D c T #.2 u ' 8 t u p w t < 8 { h.c t t +.w J D 7 n n n t T D u c w $.q ( T f.2.0 ( d.+.h.k.2.q.k.2.d.h.' 4.r.U t 0 2.J 0 P d.5 3 8 #.c n 8 t 4 0 { u.c 7 ",
"2 1 c T 3 0 > 8 D w e 7 p e D n w 8 7 c 0 0 0 0 0 w 7 2 4 2 t 8 J c t t w u.( +.D J 3 4 ( n 0 q.B 8 D +.8 0 , = e e 3 6 n u { e.2.k.{ J ( ( J u q 7 w u { { g.u.u #.d.f.2.d.p.2.T 2.u D +.q 8 J 0 { ( +.+.q.d.n +.D +.( n ' u D { D J { T r.2.j.n 2.T c c u 0 T D u 7 D 7 T #.2.( 7.( t 0 w T ( #.( #.$.+.q.T 0 8 4 , - = 8 > 8 6 { T T 2.q.+.4 c D P w T D c q q e u c w J { 7 7 T n e p t { D 8 e.h.4.T n 0 e , c c n , 8 4 0 0 J 6 t w +.p ( x.u.f.u.4 , B m.( z.v.z.z.z.2.( u.k.4 u.c ' > f.h.w D u.c w 0 t t 8 t 6 2 u.7 7 ",
"; , * 7 w e 0 n > 3 3 : 0 0 0 p ( T D c +.u t e 7 3 3 c c 0 0 7 3 n c n 0 d.J 2.t k.p.e.J 7.( { e.w c 0 0 7., & 4 2 7 7 4 3 < 0 8 8 4 D q.r.u.t { 2.n e 8 q 8 w { d.j.f.h.k.z.$.q.d.7.e q.n ( J B $.0 t 7 s +.u D D D w 0 u 0 e q n q 8 U T q.e.u.{ ' n 0 t 8 0 9 0 2 4 7 e e { +.D n u u w { q.{ D e.+.T n D c U 8 9 8 0 4 3 > t 2.q.' w t 0 J n > 0 0 0 q < ; * 4 0 8 0 D , 7 8 7 c T D q t T t 7 8 8 7 n n 4 t B 8 4 8 0 e c n 3 t n 0 n D t t J e.h.l.u.2.h.q.h.4.T d.2.z.+.w d.b.b.D ( 0 d.l.m.m.V.k.+.q.u.C U e B 4 > X $ ",
"0 u.e q J 2.+.e w D > 7 t t , q D q t u.' J u 3 0 8 n D t J c n { 8 c ( n +.#.u.j.q.t d.7.$.4.c t w 0 c w 1 * , 8 , , , 4 { T ( 4.+.T u D n c u.n ( z.( p.$.{ u.{ c 0 n D u ( u w 0 $.2.n c t T q > > 0 u 0 t e C u 6 q { c c 7 D u p.+.( w ( t q.' t t c q.+.q.T u { n 8 ( J u { +.D T c n U n t c T q.u w n 7 3 7 8 e 0 0 4 7 4 p ( ( t { u T c U 8 3 > , 8 4 3 < 2 7 , 6 4 n D 8 0 +.' q w e D 7 w #.T +.+.8 B t n 2 7 4 u n J n #.0 0 +.6 t u.c 2 ; w 4 c J z.z.+.e.7.7.h.l.u.C.u J T t T 0 $.N.d.J 4.c 8 0 u e 0 e t u e h.",
"D > 0 t D 4 < 0 4 w 2.t w q , t 0 w c 8 t T { c t T D t 0 c n q.t T 3 0 T d.u.7.+.p.c u.2.J ( n D t c c c , & , 4 4 7 : 0 2 3 7 4 : > 8 J T c m.q.q.' u.u.u.+.#.#.+.q U c J t 2 w 4 < , 2 8 q 4 2 u J 4 w $.n t { n J t w w 0 c w #.t ( $.T D u.q.u.2.T ( +.J w u n 0 8 0 3 , 3 { 2.+.8 0 J D D C ( u D 7 8 q D 0 2 3 1 2 4 7 t 8 8 T { T J e D ( t +.q , 3 n c 6 4 7 : : t n #.c +.c 7 4 8 D #.t u u , q 7 7 : c t 4 2 1 ; w 8 3 ' +.w T 7.d.x.h.k.x.m.u.m.x.x.m.v.x.d.q.u.q.d.l.( 2.q.f.7.T z.b.D +.c D q k.m.T m.u.h.f.7.7 T ",
"2.D 2.0 c U p w t 8 B 2.{ 2 J +.c t d.u.e.7.2.( U n c { c n w t 8 8 7 t T $.c c 7 t 2.{ u.q.J t e 8 0 > - 2 > , : 8 2 2 * - 6 7 t u.T 7.r.q.2.T J $.7.q.r.{ h.q.+.J +.q.3 c u.{ $.{ D w ( t B c c c B 0 ( C J J { 2.t 0 ( t 0 7 ( ( n q.T k.u.( s 4.( ( w B w u J t 2.$.+.2.( u.d.q.T c T U ( t D t 2.u.D ( n T ( w 8 8 3 s J T t ( ( 2.T w 4 3 4 8 7 p c w 0 3 0 c 0 c q w 8 4 < 3 8 n D D 3 8 t t 2.+.d.$.T U J c w 0 3 4 0 2.{ t p 0 8 D +.$.w q.s.t.k.l.g.d.d.h.U u.0 2.k.s.d.u.$.h.x.d.k.+.q.+.c z.3 2 n k.d.z.7 q 0 t @ g.",
"w : , 3 8 > 1 8 - , 8 c 2 > - J 7 4 2 8 t 0 8 u c 0 w t 0 T 7.w t 0 , - 4 +.J { e.D w $.+.#.u D 4 3 2 w , 0 3 7 7 , 7 2 u 8 > 6 4 - 7 8 w J t D n u.e.d.d.( u.h.0 c p.c 0 u w u 2 7 t w n u.t w q t t c 7 8 u u 7.c D t n c +.w w +.#.u.J D s 7 h.u t $.J J c n J n t D J t t T ( ( n n s +.n 0 4 2.J 2.+.$.T { c 8 7 q : , 2 3 2 8 D D 2.q.w 0 3 w t D ( B 8 c 8 6 8 4 2 c n D 0 w 8 w D n u t c e.2.w t 8 T n w 7 w t 2 2 7 3 0 w ( D J +.2.q.n 3 8 w J u N.p.v.u.z.d.+.+.f.z.d.z.+.h.c w ; l.2.- 7 0 , w t w 3 u 6 w q % & ; ",
"2.2.0 0 u 0 { w 7 w 2.7 n T t q.8 8 T d.l.k.2.2.c T J T ( 0 t 7 , 2 7 w ( u.d.q.7.T d.p.+.u.T 0 7 8 4 3 3 3 3 6 $ 7 6 0 w J u ( t d.d.u.c r.2.2.c D e.( u.J h.u.p.z.7.{ d.d.f.T q.2.{ e ( J T 7.' 8 w T t n D T n +.{ w T p c c 0 w q.4.d.z.P e.d.{ ' 2.c n 4.n 4 0 w { J n D s n D D D +.( w t D 7 q.' T T c e 2 n t > 3 3 7 7 8 7 $.+.J n { +.n D u 8 6 7 8 0 w 8 8 w w u t w c u w w c q D c t t q +.c J [ D 4 7 4 e 8 3 4 3 8 4 3 u u J e.w J J $.q.7.q.+.( t ' P $.u.+.t u w 0 k.7.d.N.k.x.( l.e.V.Z.v.2.g.d.k.( q.s.> J $.",
"k.u.0 D c T 0 0 - e $.n q.h.q.+.h.s.q.u.k.+.{ J { J n ( 7.2 q w 2 3 w +.u.T 7.p.+.( D 4.{ h.D e 0 2 > 4 1 3 3 < : = 4 > + - ; 7 $.f.{ k.U q.{ 3 , 3 8 ; % q t ( h.+.e.w B $.( c 4.+.u.t 2.+.{ +.0 c +.4.2.( J #.+.c ( D ' ( t c p c J $.{ D 2.+.7.k.q.q.T d.q.T 8 +.( $.t e w n w e D 2.+.h.[ q.J J 7.+.D n 8 D 0 2 8 > < q 7 c t B 7.q.{ { c +.u u 8 2 u 0 2 w 4 t c c c n t c w t n e 0 w u w 0 J 0 u w 0 +.n w t 0 T $.c 0 2 0 3 8 D ' p.u 2.p.u.h.d.( d.2.h.k.e.+.q.$.4.J J c l.d.u.( u.l.+.V.f.k.c.J T ' D z.r.u.z.J ( { l.",
"2.z.e.q.4.q.t +.r.2.{ 4.u.0 w 8 q.d.+.$.q.f.+.$.+.u { t ( t 8 4 4 c u ( e c 2.q.+.d.2.2.0 p 7 4 7 7 , 2 4 = 3 -   < % - - , < 8 7 2 +.u.2.w q.q.' t 0 0 7 t u.D +.+.7.w 0 e T c n T $.J D 4.s.n J t { ' q.t t t w T w u T s ( D q.U D t q.h.n 2.h.T q.u.4.u.+.T n u 2.T ( c T T 0 n ( #.+.c D ( D $.q.$.2.D c c 3 8 2 2 3 2 4 0 4 3 0 q.#.' c n 2.0 2.( ' $.c 0 c 8 t t 0 0 c 0 c c t t 3 0 4 0 8 D +.( T T D D t 7 t 0 w 0 8 q 0 0 t 7.$.d.J ( r.7.k.g.{ u.z.n D q.q.$.c 2.$.k.x.z.2.0 2 8 8 u.h.V.k.N.n w 3 u.8 J v.x.u.4.k.x.",
"> w 2 , # , c #.+.e.+.#.u.2.4 s c.h.u.u.h.T +.D q D J t J 2.4 0 7 6 w w 0 w n p.$.q.0 T p q n 8 8 e q 2 : 3 8 6 3 : - , # # & , , 7 [ 2.q.J h.{ +.3 0 C 7 4 k.d.q.+.q.h.c T c e.( n #.D q T { 0 c ( D 2.0 p 6 D ( { t 0 q t +.n 0 w { T D t t t T q.2.n +.d.[ B t 7 t n 0 D w 7 e T +.8 c n { +.T 2.$.q.t n 8 3 7 4 2 4 7 8 J t w 8 4 w u T u.n T t +.J D +.n w 8 3 q 8 t e 3 w 0 D e D 6 7 0 c t c 8 t { d.s.+.{ C $.p D J 8 8 8 7 t ( 6 { 2.0 e n r.2.u.2.u.u.f.q.4.h.2.s.( f.h.h.z.h.l.x.N.x.2.z.n ( $ t 7 t 7 2.q.u.- > 0 > ",
"U ( , 4 2 u e T k.r.' n d.0 e 4.J k.f.q.' q.7.8 4 0 T c w +.7 n T +.J D e.$.f.e.+.4.d.#.q.' T 2.u 0 4 t u u : : 4 3 2 0 4 D 7 , 7 u t e.q.( J u.T 4 8 < w { ( 2.h.u.h.c q.2.+.q.u.$.0 c ( +.c 8 D T t c 2.+.J T T +.u t 7 C e 8 T w D { T $.k.q.2.u.c 4.J D +.D +.w 4.T c w 8 w D q w w w 0 T t B J J 2.c 0 q t 8 7 7 4 t 2 w t 8 6 7 ( 2.$.D 6 q w D 7 0 > 8 7 8 2 4 3 7 0 c t 2 1 8 4 c 8 w 7 w J 7.D t #.d.P ( c #.$.J +.{ ( c 7 3 c t +.{ 0 D q.e +.( 2.J c J D r.f.q.T h.j.D f.h.e D q.z.l.k.v.u ( D +.t +.e +.T D l.v.r.J ",
"N.x.2.q.d.u.( 2.u.$.z.v.k.k.q.J w T c t 7 q.#.U 0 c c ( w T 6 s 0 c +.u n #.( u u.( +.( T D 2.7.h.q.h.h.q.c 8 w q 4 , , 4 q w q $.2.T 2.+.r.r.w 0 7 8 T J J 2 q 6 2.J q 0 J u p.e c c n +.0 t w n u t c [ e w q J +.( D 0 8 t D 8 D D { ( k.g.7.l.z.f.d.q.2.{ c t c 2.$.{ c C e n e.n u.$.( t ( #.2.D P T ( t 8 8 0 4 4 w c t ( { +.2.U D U ( J 8 8 t 3 : > 6 w 0 3 , 4 4 4 3 2 0 T $.0 4 3 w 2.J 2.2.h.+.( e.e.D 0 w c J ' e.t c T +.n 8 c 0 +.t q.( f.u.h.0 +.2.u.u.p.q.q.h.l.k.p.+.u.p.+.b.x.d.u.d.+.h.+.f.m.h.2.2.h.u.z.N.u.",
"q.u.q.h.z.k.x.z.k.h.k.h.h.k.q.r.d.$.u.2.+.$.u.e.J C 2.q.J T 7 t u q J t 7.q.J h.u.e.u.k.d.' { c t t ( t u < & 0 4 3 8 8 w ( 8 c 0 J r.( n r.k.$.u.e.c u T 1 4 , w w 7 +.t q.q.T ' +.q.[ { #.w w d.w c D 7 0 #.+.{ e.d.U 0 4 c w c J U J t 2.j.d.u.h.k.d.+.2.n u 0 +.c ( T J ( n q.( 2.7.q.u.h.$.J e w 6 T D c c t t w 7 , 8 7 c J ( { $.( w 7 c c 4 3 : 7 n 0 8 0 0 $.0 ' D 8 3 w ( J t w 7 3 2.q.( w q.h.u.h.#.J 7 < 4 6 t T u ( q.4.J 7 4 +.e.{ 7.z.{ l.u.n c p.2.d.h.d.u p.+.c d.u.z.z.f.g.u.{ d.d.{ k.u.f.2.N.S.A.N.j.k.x.k.",
"u.k.r.7 u.+.J #.p +.z.n w q.D D $.l.d.{ t u.#.{ J T T J ( 2.8 t t 0 w c e q.2.J +.t c B $.2.k.+.+.w w t > : - 0 7 : , 2 w 7 4 0 8 7 - ; 2 n l.T J u.c d.u.f.J ( e.#.w 2.t +.q.{ ( { n T J u t p.9 { w D { J n q.2.q.e 0 q.c 0 t t q.' q.J J d.c 7.( t d.d.d.n r.#.0 +.q J c c d.2.p.J $.#.( D t c t 0 $.J ( t 7 7 9 8 0 3 c 7 4 8 0 e J t s J T u D 7 c u 3 8 n t U +.+.4.c T 7 $.J u c n c n D +.0 6 7 4.c ( +.u.T < c 7 , 0 w w ( +.u 2.( q.{ ( q.2.+.z.2.C 7.2.2.e.q.7.2.J J u.m.2.0 2 0 7 * + = { J 2 0 4 > 2 0 ' J T ( T t ",
"N.Z.b.N.b.b.z.k.z.d.u.U $.d.h.e.q.d.n J ( d.+.u.e.c w u u.q.( 4 7 w w J T u ' e.d.4.D J 4.( 4.( t 8 4 w & - , 0 ; & 4 0 2 2 0 w c w +.n 2.4 u { 2.T T u.D n T 4.( D $.n n 2.q.' t 7.u.{ u.D u e q 7 J n p ( ' +.c 7 D B u D w t n D +.2.d.k.d.p.7.q.u.u.p.d.2.w 2.c 8 w 2.q ( t +.( 2.' +.+.c $.{ ( 4.2.p D +.7 u q 0 4 , 8 q J T 0 t q u D J c 0 2 7 4 w U D 0 D ( c w 7 7 2.3 D q 8 8 4 T +.' J t J w +.0 ' T e t 0 t : 7 4 0 w n e t T t e ' D +.+.f.l.p.u.p.e.q.e.u t $.e.( T q.N.m.+.w d.v.k.b.z.c.n.N.T u.z.N.N.N.C.z.h.b.",
"b.z.x.V.D.S.S.Z.C.S.Z.S.p.z.d.h.h.s.q.q.2.h.$.4.J 2 D +.D 4.w C t q u u T 7.{ q.T D ( u.+.+.q.n ( #.7.7 0 + : 8 % 2 3 , 4 e 4 T 4 8 4 0 +.u.( h.T +.u.d.T k.D ( w 8 c n J 2.D w ( 2.#.{ J q D n 0 7 D #.u ( c n u p w J T u 7 0 u { +.t.r.k.q.4.k.h.D q.+.{ t c 2.T +.n #.$.2.U w 0 8 w t T J J +.h.T T J J 0 8 3 7 4 < 2 7 3 6 w T J ' c 7 n t 8 , 7 w 8 , 2 9 4 0 3 3 8 T 7 6 e 0 e 8 T s D w $.0 u n J q.#.+.n 8 4 3 8 8 7 0 q 0 n 0 > s < +.8 u w 4.+.T u.7.h.n 2.p.d.' h.k.( g.u.x.z.w N.h.q.z.v.k.m.u.V.N.z.B.k.N.N.B.V.N.",
"m.m.v.x.h.x.m.k.v.d.k.h.u.d.d.e.h.q.q.q.+.+.2.D u 0 { 2.{ D 8 4 p w t J 0 u.k.2.$.+.2.q.4 t q.c h.q.u w { +.s D 3 w 7 1 , 7 7 2 0 c ( +.t h.2.D 2.t d.q.J u.q.{ t +.' c J +.T ( J q.u.2.+.d.w u D D T c +.0 J D 0 D J n n w 7 8 c D J 2 t ( ( { #.{ c D 2.q.+.D D D +.{ 2.2.c e.( T ( ( c u.$.p.c c ( T D t t 7 c t q 3 0 t 8 q 4 t +.t J 8 w 6 > 3 , 3 4 B 0 w 4 4 4 8 e n t : w w 7 4 4 J p 8 0 0 e.n +.+.+.( D u 4 7 4 0 t 0 u n n t 3 4.+.d.q.d.2.p.q.g.q.q.j.d.7.( T w z.+.r.z.2.d.d.k.J 2.h.N.m.e.( h.T T e.l.2.z.u.M.V.n.",
"$.k.s.d.+.e.+.4.t T n $.D #.w q.{ q.q.2.J 8 w D e c D 2.( 8 = , w ( t e J 2.+.t ( 2.( 2.2.D U ( +.J c n e w d.8 2 4 , > > 0 J w D q J T h.q.D h.d.q.c w n u D u ( ( J t t D T 2.D D 2.e.w t q u { t T ( n t { p w +.0 t w T q e #.{ n n T +.n d.d.( +.s.( c 0 7 d.d.+.T u.( t $.$.e d.( n D w $.q.J u h.h.u.h.u.2.d.$.( 6 8 B D J { { ( w n 7 3 3 4 : , 0 : q w c 0 w 0 t c t , 6 , q 3 3 +.n , 2 U t { #.u.u.D $.2.q.( t e 0 8 8 0 J ( 6 +.2.w , c ( T d.u.h.( 4.r.+.e c u.k.h.x.$.q.c c q.f.$.h.z.e.z.h.e.q.z.h.c.j.l.z.k.h.k.",
"2.u.U T c [ ( D $.+.+.T ( n t e D +.+.+.{ ( P ( U 2.0 8 t 3 w > w w e $.$.$.{ B T q.#.{ t 0 c q q T 7 T 0 , 2 : : 3 2 < < w 3 8 w c +.+.T d.h.$.T d.2.2 , e J 0 ( c n D J 7.{ J e 7 D 2.T u c t 2.J ( c w t p D ( D c $.( J u.T J 2.J e.( T f.q.h.u.7.{ 4.u n ( J 2.$.t 2.P ' $.D u.n e.p.( p.{ P 2.D 4.T q.( ( ( 0 , 2 t u c n n ( 2.{ C t w 1 = 4 2 3 2 , 3 7 w q e D $.c 0 { 8 0 3 3 0 t J n e.s.T k.2.d.+.{ J h.( r.e.2.8 : 0 q.r.c 7 q ( +.4.w u.q.u.e.+.2.d.g.q.p.2.u.2.d.#.$.u.c J l.d.T d.x.( z.( d.x.x.z.l.T +.+.D ( d.",
"4.e.h.h.d.e.T J #.( D u.( D c e c D n ( +.' +.t ( u c 0 8 3 , 3 0 0 w c D r.u.u.u.T n t J n 2.t 2 4 ' J w t 6 > : > 3 2 2 w w n T t $.T t t c D u t 8 4 7 = 3 ' q c n t 2.p D c ( c n J ( { { D J q.#.J t c T { J c q 8 C c +.J J e.J e n D t 2.2.$.+.h.h.d.D ( d.J q.p.u.T T ( t 7.J d.2.+.2.( { T w w $.$.+.P q 2 - , 7 u 7 t J D c J D t 0 2 > - , 8 < > 2 7 7 u c c 4 w 0 t 4 7 w 7 0 p , $.7 e +.2.q D J J 2.2.q.+.e [ 4 > 3 3 w t q c { q.d.r.j.h.z.( d.u.h.q.u.h.u.h.d.u.0 d.k.x.h.{ u.( z.p.z.h.N.m.c.z.f.e.h.b.v.h.u.k.",
"k.T 2.B d.q.2.c +.+.d.( +.r.r.T j.n J { { q.t $.2.D +.n t 7 3 2 0 8 n t c +.q.+.7.$.{ 2.q.3 e 7 7 e - 4 4 > # , 3 2 > 2 : 2 0 0 8 w e $.J n d.s +.2.J 7 c 7.J w f.c q.( q.U ( { 2.t J g.$.D +.t n ( +.{ +.{ t p e t D J ( B D J ' c e.d.$.+.h.( e.T d.r.{ D c q.J h.u B c U u.+.u.u.{ +.{ d.u.p.2.+.#.e +.( 8 0 3 = , 7 3 0 c 0 t 2.{ T n 8 8 8 2 - 4 7 3 , ; 4 7 c D w { J 8 6 +.n 0 u 3 8 s $.D $.q.u.+.c J d.u.D w 0 < 7 8 w 8 c e T $.D 2.u.z.z.{ n { $.d.z.k.u.T p.2.p.u.u.h.u.$.T J ( q.( e.+.l.8 l.z.z.k.x.e.+.q.v.2.l.7.",
"m.d.k.l.k.+.2.U +.+.$.q.#.J D J c J u q q.T n w T B c t 8 0 8 3 0 0 w t { ( u.q.7.q.+.{ c 4.e c p 8 3 q 8 > , > 8 3 = 7 , 4 w , 2 4 0 c q.+.r.$.2.u.u.d.( D ( 2.e n u.2.+.( #.J $.J +.u.7.{ T q.+.J +.T T u D n u u u n t t D c c ' +.u.k.d.c x.u.x.e.u.q.( +.C T 2.' q.2.n $.g.q.2.' n D 7 2.( T e B q ( ( n q c u 3 , J t t e c D q.4.D q 0 > 8 2 4 2 8 , 7 0 4 4 ( J 0 q 0 8 0 D 3 0 7 4 ( C c c T { ( { U +.$.( ( q 1 : 0 8 u c w $.D ( 7.h.k.d.q.q.4.+.s.u.k.z.k.d.s.e t +.2.U z.7.q.+.h.T c e 7.z.h.z.J x.z.z.N.p.e.q.u.b.",
"$.k.d.h.q.q.k.z.+.q.d.f.p.2.p.d.e.+.u 3 8 J +.n J ( 8 3 0 4 4 8 6 0 q c $.+.q.$.u.T +.h.T f.h.t 2 0 8 3 2 > @ 6 , ; & 7 2 > 6 : , u ( { ( J k.r.q.d.q.l.{ u T 7.( ( c J 2.n ( J D c +.$.{ U n C D D n ( 2.s C t $.T T 7.+.n 2.T ( { 2.7.{ q.( 4.2.{ d.h.q.{ J u.( T 7.e.d.e.u.+.q.J J D D U u 2.u.c n +.t D t 7 , , - 3 q D q 0 n +.n n J 8 t ( t , 4 7 D 7 n 0 e 0 t 0 0 n e 8 { t 2 7 3 8 +.c ( q.T +.+.2.0 { 2.T w w 3 > 8 8 2 w 0 e 7 u +.$.7.p.q.u.e.$.l.h.u.d.d.d.2.2.d.k.D d.s.u.p.p.( h.h.q.( w +.{ p.{ p.u.m.m.z.d.s.k.",
"b.m.B.Z.N.x.x.+.d.2.#.' q.4.{ t n 0 c 7 0 w u 7 w 3 8 q 2 7 8 w 3 w D c T f.e.u.+.u.$.c q.h.d.t D e 0 0 0 8 7 2 u 7 % e q 0 { 7 8 2.h.h.q.2.+.d.4.( 7 0 8 ( #.$.4.D ( 7 D t c $.0 8 ( ( +.t w ( w +.n +.c 8 0 u c J ( u +.2.t 2.w D D $.h.' D c [ q.2.q.7.q.D ( 2.4.( J 2.d.p.+.2.c ( 2.( 7 D +.p.' t n J q J p e ' U t q q t t { J 2.C 2.c T c 8 2 3 6 +.7 q T e 6 3 7 4 D $.7 D 4 6 0 2 u ( t u T 2.d.q.+.D $.$.q 0 { q.e 0 0 7 q w J w t t { 7.u.( e.2.z.k.u.q.2.' u.h.P q.$.( T ( p.U k.p.d.7.r.2.$.w p.u.e.2.d.4.x.m.h.2.s.",
"2.T D u.k.u.f.c 2.u t 2.$.7.4.c +.0 e 2.J J w 2 n t 8 2 > & 1 t 8 +.D 2.{ { h.g.d.2.$.{ p.h.u.c c t 4 u w w 8 8 q 7 4 2 6 0 4 t w u w 2.h.+.u.u.' ( P D 2.{ q.( J ( J 0 r.{ w t +.c w c q.8 0 2.0 7 q T D J u t T J w 4.u c e 0 0 +.t c 0 3 0 ( +.k.2.q.2.J u.$.h.h.u.2.+.{ 2.u.$.e 0 q.g.u.$.c u D +.t t +.8 e t D D q n t u c 2.n c q.$.c T +.t w 0 q 8 c 0 6 4 8 8 8 6 0 0 D w 4 q.J D $.w c n 2.{ d.7.T J t ( 0 3 D 4 8 0 4 3 4 s w 0 T c w 2.q.u.+.d.f.h.7.2.c T D J z.q.u { $.p.h.{ 4.u.d.z.n w u.x.t q.+.{ r.T z.( m.x.D ",
"h.l.( D 2.{ n C { 0 T w 3 4 t 3 w 0 6 c t +.D T 8 D 7 7 4 ; 2 p w t J t w t T D 4 w 7 8 u J D 2 6 e 0 8 T 2.8 , = 8 7 ; > 3 w { 8 2.w U u.d.d.7.0 , 4 2 3 2 7 8 J c ( { ( w t ( 0 0 +.n , q q n 7 u u q e t 8 $.+.q.c T e p 8 w 0 e 0 8 w 7 e s { T D u ( J #.{ u.2.J 7.e.2.u T q.4.4.u.p.d.$.7.h.$.{ +.( w n J ( d.u.d.u.u.' J n { 2.c u c e B 0 : % 3 4 8 p 3 3 8 3 7 0 e 0 T w 0 7 u J $.U J 2.q.h.{ #.D J w q.{ J $.T ( 4 C 0 t , 3 t t t $.C 0 w n c c +.q.n ( D t ( $.$.c n q.$.2.d.q.d.v.u.2.2.' q.+.J ( u d.x.d.{ ( 2.k.",
"d.l.w 4.e c 7 0 n P w D ( ( 8 u 3 4 e t u 0 T t n u t 7 J 2 6 w J $.{ w e w 0 D ( d.u.u q.J ' t 0 w w J 8 c 0 7 - # T 7 : 0 2 4 w 0 J c D $.h.#.{ w T 6 0 e c 7 0 J D t J T $.J D +.D 4 7 0 t 0 n u J u 4 0 D c 3 7 0 7 D t n c u 7 e t n t D u +.J u.q.q.h.( ( #.d.h.d.h.7.+.n { u.7 { d.t +.+.d.N.r.k.h.x.p.e.q.( D 2.w t u D $.$.T D ' U e D ( c : c 0 2 4 w 0 0 8 : 3 4 0 0 +.w c 6 c T 0 4 8 8 t n 0 7.T r.s.d.J +.0 4 e 8 0 e 0 4 U +.{ n d.w ( 2.h.h.k.2.+.2.e.2.e.q.2.p.2.p.f.g.p.z.z.k.( d.q.n q n j.n l.2.$.v.b.e.q.' ",
"h.#.( 7 q p p D P D J w t t t 0 t t T ( t c T w q w c D t 4 3 u 6 w u 4 , 0 3 q D +.( U c { c w ( ' { T c 0 , > 2 < 7 w 2 8 n 6 t 4.r.( 7.h.d.u.2.2.u.q.c 3 8 c 0 J t e #.7.u D +.0 7 w t n w e 8 w 0 t 7 4 w u n n 4 7 6 7 u e e B D +.+.J t n 0 w { ' D T u.e.d.p.d.h.2.2.n n 3 8 t T ( h.u.t 0 T c +.2.2.n c q u U +.( u D ( D D e +.J e u +.B 2 2 0 7 0 8 8 4 > 2 8 0 w t T n c 0 3 n 8 7 t D w 0 D T 2.t $.d.+.( ( $.0 0 3 3 8 0 q J T +.+.#.P D J f.+.c q J 0 c t q ( 0 q U 4.u.q.z.7.z.p.n r.z.l.d.t t h.( ( q.q.+.p.d.l.",
"h.q.{ J { { u ( q.U c 0 2.q q t D c ( { e.J J e n w , 0 : , 3 7 3 , 7 7 3 8 0 D D T { t 2.7 0 ( c c c 2 - , - < : 2 ; T 7 8 0 T j.2.s.u.d.e.h.r.{ ' J 2.u 3 0 t D +.D +.{ T u.+.' 0 7 8 t 8 u J D T +.D D t T D t +.D n 7 8 $.J w ( d.d.h.m.u.{ q.l.D r.u.( e.+.h.$.h.k.d.w #.t T 3 w t e.u q.+.q.2.C +.2.+.{ n w 0 0 n +.n c c 0 T ( 2.c n T $.n c D 7 e 7 3 c 7 : < 7 n w D 0 7.e T 8 c J 2 2 2 3 3 8 c 2.{ n T { q n 2.{ u 3 0 7 c 2 2 w 2.D u.r.n +.( 8 w 3 3 7 8 n 6 q w u J 2.{ u.e.$.q.h.( z.0 7.D 6 w u h.n z.D 2.+.t u.",
"z.z.f.k.x.k.f.d.0 D u.h.h.p.q.c +.0 D q.+.$.J #.t 0 T U 4 2 q 3 ; 0 0 2.D [ #.f.' +.D p.t t T w 7 0 4 4 2 4 3 4 < , 8 ' 2 3 8 t D 8 4 c { z.s.k.T J 7.n t D 0 ( { D { n 7.U q.2.U +.n c +.2.J D { J +.2.{ 0 0 +.D t D +.c 0 t +.4 n D ( 2.q.u.q.d.2.w 2.h.( s.7.J ( d.p.t T { D D 4.4.2.2.u.w u.2.2.D ( J D B c 8 8 p 8 > u q 0 D P $.( 2.J D c 0 4 c 3 3 2 0 4 7 2 3 0 w 3 D 8 p 7 n 3 J t t T 7.T 2.r.$.$.D t 7 0 0 c 2.' 0 8 q 0 w 8 0 e 3 ( ( +.q.z.q.d.d.d.h.q.f.j.h.D U g.h.h.T f.z.k.r.#.( n t D 2.N.x.d.t ( q.t 2.$.( h.",
"q.k.d.f.c 4 0 c e.q.u.j.u.u.w 0 +.c +.t ( J +.J q c w 8 8 7 p 4 8 8 7 w 0 s t T 7.2.c u u.D w n P 7.$.8 , , ; > % 2 7 0 4.q.u.h.j.u.p.D D c ( D t 7 D e.T C J 2.t 0 +.h.d.q.d.2.' +.u.p.u.{ 7.( T D +.e.( T #.7.{ J e 7 7 J D n t 4.u.c T +.t D p.2.q.n J U q.q.r.D J u { u.J ( 2.#.n c u.{ q.q.7.u.$.j.r.$.d.{ +.D w t 2 7 T c q ' { 0 q 8 0 w 0 q e : > t 0 , 8 , 2 6 n n n D c 9 8 q 8 8 w 4 0 w w t c c c U q.2.0 4 7 J 2 , , ; 3 7 0 0 D 0 8 C u.f.k.k.r.J h.2.g.4.+.7.e D p.d.b.7.s.2.+.+.p.h.k.( J u U z.v.n h.J #.v.k.{ ",
"2.2.e.n +.8 { r.2.r.2.u.h.q.2.u t < ' { q n D q.D 6 7 c 0 3 w p u +.0 w e P ( 7.e.4.+.u.p.J c D T +.n 0 3 > > > - < 7 2 7 0 2.p.f.q.d.f.D +.+.e.c w c T D d.( D T T +.2.q.r.$.4.q.e.t u.u.u.t T ( n c 2.{ n D T ( t u q 4 7 w D +.p s.u.+.f.q.p.q.d.( D p.f.2.q.+.d.h.{ 2.u #.D e ( #.T u.7.7.p.0 t s ( d.u.w 7 0 3 8 e 0 t w +.+.2.n u t 8 w 0 0 7 D 2 0 0 t w 0 8 , 3 w u u.0 T 4 8 0 q t 8 , , 8 4 8 T +.h.J q.D u 3 t 3 3 4 3 > c 4 , , D w { e.c t e.g.#.T T d.( 2.q J t q 8 t d.( e.j.g.u.l.u.2.2.e , q.e U J +.d.k.' 4.h.",
"f.h.( t 6 n w u.2.p D B w 7 6 , u 8 0 q 4 +.0 { q.0 u 0 0 8 < c 7 0 c 3 e 8 [ q.2.n c u.c ( $.T +.C 0 0 D t w 3 , , 8 > c 8 2 ( 8 7 7.d.u.T u w n ; t 3 u 1 w ' n D C w 7 p q.2.u q.7 ( T f.J $.r.t q J s 4.8 u 8 t $.0 w 3 7 w q.T q c T e.{ n q e.#.k.p.l.u.+.r.+.u.z.f.2.D k.h.v.f.d.h.t +.h.u.h.d.4.2.e.D 8 t c D s u u t +.$.2.#.0 D 8 8 w 8 8 w 4 < e w +.D n ( e 0 q u 0 n D T J u u w 0 ( e D q < n n d.t 8 T q D 8 w D 0 3 +.U c 4 7 ( T d.2.h.7.2.u.h.d.( ( 7.e +.J 4.2.u.m.+.z.x.d.h.f.l.p.q.2.q.( 7.k.{ 0 ( T k.+.f.",
"( t c e t T t u.q t ( w c n T n +.q 7 w n 8 0 2.0 3 t 0 7 w 6 q 0 8 t n c ( T q.q.D D 2.J J q 8 D 7 2.+.( c : 4 = > 2 > T c 7 u.+.+.( ( ( #.P w T ( 2 T 3 n U u B 0 p 8 n c 4 8 t u.$.+.$.J n e { c { $.t 0 0 7 0 n D 8 6 n 7 q ( U 8 ( { q.8 q.w e c c e.e.7.d.2.t z.u.t D u U w 4.c { q.D +.D ' e.u p.d.k.u D D c n 8 0 4 u 7.$.{ 2.e.{ T t w e 4 7 n J ( D q.$.c u t 2 2 3 3 4 q w 0 t c e 4 0 c J w ( 7 d.D U T d.u.e q.8 7 u q +.q.2.U 4 t t w 0 +.( k.s.p.q.f.J n q.( $.2.d.T $.2.g.b.u.k.D d.0 7 { +.r.$.h.e.4 0 J 2.2.+.",
"c 0 w 8 0 3 4 t { 2.t 0 T +.2.#.+.T t +.+.{ #.2.T +.q.t 3 0 s 3 , 7 +.7.e.J +.d.+.r.h.+.T 0 u 4 c J { p 0 q * * - 2 8 3 T 7.4 ( $.d.J 0 J t t +.D D P D #.n T c w w 7 c u { d.d.e.( { T ( ( J w $.( t 0 8 t u { q.J n J 7 2.w t 0 n T T J { e.c $.J h.p.C T t +.f.q.D $.( k.+.r.t c D e c u U #.t D J e 2.p.d.u.2.2.{ w w t B t 0 D { ( c n u q 8 2 8 > 0 t 3 7 6 4 8 8 2 4 3 8 t e 2.t q T t n t 8 t 2 7 2.c T q.J 0 ( ' 7 T t 7 7 0 4 ( D 3 , 4 u w 2 t u.q.k.h.7.h.( J D 2.u.h.k.k.p.q.+.v.$.u.h.7 7 7 7 #.e.2.r.h.7.d.d.8 h.",
"g.q.n.P ( 8 7 e k.q.d.( ( t w c D J ( D 7 t U 6 3 3 n 3 : 2 c 2 9 $.n J 2.J +.e.q.( { n T w t 0 e 0 0 0 u 7 8 3 + % 7 3 7 $.T 4 8 u +.+.D ' 2.n 2.c D u c D w c w 8 7 t t t t 8 t q 6 3 ( t D 2.$.2.t 0 n +.$.+.D $.T u u t u 0 n { { ( 2.c u.r.J D w U D 2.0 k.( D n h.T +.e.( $.$.$.J D J { +.2.J { #.T 2.2.+.8 n u 0 C u 8 t t u D u c D t 7 7 2 0 4 , 2 0 t 7 e 0 0 0 w 8 8 0 w J 4 0 2 e { q.u.p.p.( D q.#.c J w u.8 0 3 7 u J w w 3 J 7 8 w T w 0 ( h.n J +.c n J n T 2.+.+.s.h.4.s.h.h.2.z.s.k.z.C u.2.e q.u.f.q.f.q.D x.",
"u.2.c c { p u n u e.7.t +.n ( T n n c e ( 2.p.+.u ( T s c c 0 = > t 0 +.q.k.d.h.{ ' q q.2.+.n w 5 7 3 3 7 3 , = # & ; 2 - , 6 3 3 0 T J n { e.( +.J B T ' 2.T ( 8 w T { j.u.h.2.w t u J t +.t n 2.d.+.+.+.k.q.p { ( D D w D D n D +.u #.D j.k.#.w { h.$.f.d.4.k.h.h.h.7.f.T 4.( $.d.q.T q u ' T t ( J d.q.7.u.u.p.q.2.4.h.z.e.2.T 7 q J 8 t 8 3 4 3 2 7 7 4 8 3 8 8 0 D D 8 c c 8 8 8 w w J 2.' +.+.q.p.7.d.T e #.C $.u t e 3 n q 7 7 T $.2.u J D { ( D $.T h.h.k.+.2.+.{ T 2.J e.T d.q.z.h.q.z.q.q.w U u.q.u.+.q.n q.p u.t $.d.",
"d.8 c D J q c $.0 n J 0 t 7 c D D w w 4 u +.d.6 p T 0 2 3 3 0 e e 2.c c #.+.+.z.c $.{ t T c ( n u c p c 8 6 8 2 * * * 3 w n ; - ; 7 w q 2.{ ( ( c 8 w c w e u D 3 w w h.2.q e q.p.2.+.T q.k.( D c n T ( D J 4.D ( $.( ' w c D w c u T ( 2.2.2.7.8 4.c { T u.2.h.{ r.[ u ( +.f.+.u.j.( q.{ +.C ( $.u d.T 2.e.r.J u.T J t t J n e 0 7 D w t 7 8 0 , 3 - e 3 , 1 , 2 8 w e e D w p 4 8 T w t n 2.q.u.r.p.+.2.4.$.g.4.e.$.c 7 8 7 9 0 5 ( q.{ 8 w T J ( ( 0 e J q.d.e.p.u.l.k.u.u.( +.q.e.v.( q.+.q.7.z.s.q.2.h.u q J n 7 0 7 u f.u.",
"n 7 4 t c T w ( T T J t w u u T 0 6 3 t D 2.2 3 1 9 4 3 < 4 4 D n J t c 7 0 2.{ e ( ( $.J t u e { J { u 0 e 7 2 ; # 4 , t J T J w T n ( D { { D n 0 0 D D p D w 4 3 n t u { n q t u w 7 c t 2.D C u ( e.e.2.r.7.$.D ' u p D ( w ( c $.( { ( q.k.u.T { 7.q.h.d.+.{ k.h.e.e.{ g.u.{ q.B ( t ( ( w D c p J T 0 C $.n w 7 8 8 0 8 0 t D ( t w 8 t 8 2 3 , J t 2 2 3 7 w u 8 < 4 3 u 8 4 ( ( 0 , w 8 e 0 0 c w T d.u.q.2.T w c e w 0 3 8 ( T J T t J +.+.c 4.e.d.D ( D T q.+.J T T ( D D T w 7.2.$.J u.u.T u.e.$.t p J J D J D T c T ",
"d.2.D t , 8 7 0 0 7.( ( ( 4 8 0 7 3 ; 6 c 7 0 7 2 t 2 > 6 6 7 e n 0 c q n q.u.U T q D n t 7.n q.h.u.u.+.l.J u #.; & * = % 8 e 7 9 c u 8 7 4 8 8 0 7 c q 3 t t 3 : , q D t g.u.h.T T U 8 0 c 7 c ( D D c q.#.4.$.q.q.q.T J w +.4 T f.q.c 2.4 h.d.u.0 2.{ g.{ r.e.n d.l.x.d.h.q.q.u.{ q.q.$.( e ( T U t w w c t t c 0 0 8 7 1 2 3 q J J 0 t n c s U 8 9 J 2.$.0 t J +.( ( 8 , , u c 7 e n , 0 u w u 8 8 J q 0 T T [ +.D 8 u 8 3 4 7 c n T ( w 7 q 7 D s D 0 c +.$.7.D J d.q.4.J ( q.4.7.D $.+.t ( 8 { k.r.J 7 2.q.2.0 0 { D 2.u.( ",
"c { p u 3 w 7 c w c t 7 4.( +.c , > 3 - , +.3 : 4 4 w 2 < 8 4 0 c u.k.h.e.+.#.t D 8 T n n n D +.( ( T J 4 7 7 8 - : ; ; 3 2 7 c { ( D T c D e 7 8 7 w n w 4 t u c 3 2 c 0 { t w T c C t 0 t u c w { D ( r.q.u +.+.( T c e q t 3 0 +.2.D 4 J #.$.q.2.+.t q.k.+.h.T h.h.x.{ ' { J q.q.c 2.u.T ( T T w u n u t q t 0 c n 0 w 8 0 J T 4 D ( #.( D c 1 3 t q 0 > > u t J $.#.T B , q 8 8 0 8 t J 2.$.c J u w w 7 t u T J 0 0 3 4 , w 0 3 2 4 8 0 w 3 ( u.d.s.q.2.q.u.q.U ( 2.2.u.q.$.+.T q.h.u.q.h.k.q.J T k.u.d.q.k.u.l.q #.u.+.D T ",
"t e t 8 t t 0 c u.h.e d.7.2.0 , 4 4 : 6 7 #.p 7 3 n D T w e c e #.d.2.w w t u 0 ( D n ( c $.+.d.+.c J 2.7 > & ; ; : : < , 3 w t 8 { t 8 4 0 w 6 2 2 0 2 +.w , 4 7 w : : 4 T u.u ( ( ( w q 8 w n c ( 7.c ( 2.h.#.t t D 2.D c t J { 8 D $.( w J { C #.e.2.d.h.v.k.z.( u.u.h.u.2.r.q.#.D f.d.q.$.+.( $.+.2.D +.( T J +.q.+.c u w 0 ( T n B 8 t q 2 q d.2.' T { e 4 0 w q 2 8 J D e 0 0 8 q w 8 w w J 2.{ B c 0 3 q { c D 2.u.c 4 4 7 0 3 7 7 t 7 D 2.p.2.D +.( U J { +.2.( q.( 2.' 7.2.d.( { T ( h.T #.h.4.z.s.l.h.2.h.J h.D n c T ",
"t c h.+.w 7 3 w C 7.J 7.6 3 2 0 : , > , , t 0 q c e t c $.0 7 U T q.p t 0 q n q D q.J { w 4 e t t 0 4 D $.n 4 7 4 7 w 6 +.' D 0 0 n $.J U t u 0 w 0 6 c 0 0 6 6 w 4 c e 7 u +.7 7 u J u c 0 n c e +.e.D T h.$.p.q.3 P q.0 c 8 $.+.D e.q.+.+.7.2.D u 2.$.h.d.T q.q.u.2.u.f.2.$.+.u.u.+.7.s.J 2.c q.( ( J w 2.+.T #.e.q.p.0 e e 2 7 t P +.7 q 3 3 0 d.n $.6 < 4 4 8 3 4 < : e T 7 7 7 0 C q 0 u $.( +.T D u u 7 $.+.0 n J u 0 4 c 6 4 0 0 8 7 u 0 8 e 7 8 7 c B c ( +.{ c +.#.7.q.( J u.2.2.+.+.u.+.w U ( p.( J 7.{ $.D J u.P c u ",
"u.7.' p.$.e c ( 3 3 q 8 0 u 0 , & * : 3 4 c 0 7 4 2 0 2.2 7 < e q { q.2.t T u { q 8 t c C e 4 4 8 8 n 2.q 0 0 7 u t e s 2.7.4.J t T J 8 8 0 0 0 8 0 D T D 0 0 0 8 8 4 w 8 { c J w 8 n t c e 2.#.( d.{ w q.{ t t T 4.e.f.w n u 2.e n +.2.j.0 2.q.2.q.q.2.7.' q.d.4.u.$.J 2.T $.#.J c e [ q.J c J +.t ' J J +.t J D e u J t 8 3 3 4 J ( u u t 7 3 , 3 w 0 w 0 2 t t 3 u w 2 w J u c J 8 0 8 8 8 t n n q { t 2 n $.D P J c w w t , 4 2 8 w 0 q w { t n D t 8 U c r.e.( T u q.$.( J d.u.t t 8 U 2.n +.D t ( 8 0 n D n t w D q.e.p.$.",
"( t c 0 +.w w , 7 3 q q 8 p n D D { w c ( 4 0 7 s w 0 7 , 3 8 t 8 c u e w D c 2.t { q.( w C T n J ' 2.( p 7 8 0 w t D { { { { +.t > 4 7 8 7 7 c 8 0 w t 8 0 e 2 6 3 w 3 q 8 q $.D 8 8 w t 2.T n ' 2.D u q.w w J 7 0 7 c t t T n t t ( u h.k.n ( { u.2.+.u.( q.( ( 2.q.{ q.q.+.2.J d.+.+.+.$.q.J t T 4.T { c u n 0 0 t w w 7 3 c { n n w 0 w 8 3 : 0 w 0 2 u t 2.D D 2 7 t t +.t D u n w > 6 w w J n p +.w J { +.+.0 8 c c ( c ( c 7.D w c t t D T J 2.T $.( { #.D +.t q.J 0 n #.c ( p.D 7.h.d.p.4.p.u.q.u.r.$.4.T J w 2.w c w q ",
"z.d.J q.t u.+.2.T 2.w T $.2 2 8 0 n { T J t 2 7 2.2.t T h.$.7.u 0 T #.+.u.0 D J T 4 : 3 ( D q > ; 8 q J c c w 8 8 0 0 T T D r.u 8 w c $.+.w e ( 7 w D w 7 7 0 8 u 8 0 8 t 7 J t u c t u 0 3 ( e c f.t +.( 0 c 8 q 4 T 8 0 ( ( U p 2.+.2.z.$.{ 4.( D T q.q.u.q.T T w { p.7 D c #.D u.J J n q.{ 2.c 4.8 T n J q u ' c D ( u 0 7 w T ( u w 7 8 < 8 T D 7 7 3 w e c 2 4 3 4 w q n 0 w t e 8 4 7 w w p.D { 0 q.0 0 +.( u D e 4 , 3 c 8 0 4 0 e t D c n D { w 0 u.u D +.s.c c c c n $.+.t 2.p.q.2.k.l.k.h.0 t d.e ( d.2.2.4.k.2.( D h.",
"q.w 3 e c w D c 0 D 0 n 8 3 t D t 4 4 t 3 0 6 w 8 q.2.f.l.' +.f.T D { $.2.c q.c ( 2.2.' T J ( T b.$.j.m.q.e.c q u c w J q 0 0 e w 8 3 2 t 8 e 0 3 0 8 J 8 8 t 3 7 8 8 w c 0 : w D w 8 u T t u t ( D T T 7 8 w 2.( c +.q 0 +.w D ( p 8 P e.h.2.r.u.( $.u.p.$.p.u.+.d.2.u.f.u.f.k.z.k.z.{ h.h.$.7.q +.T { q.e 0 c J u p w 0 u 0 P u T u.T c t D t D 7 t 2 4 0 8 w e w t c t 4 T s 0 7 8 t c 8 0 u u t w u +.7.7 2.D ' n 3 8 7 t t e 0 0 0 w n { T 0 D T J +.u.T u w ' u.2.T p.d.+.t r.c q.d.z.u.u.u.u.q.D c t +.0 ( D e.$.J e 7 { ",
"u.q.J C d.u.+.J 8 u w $.0 0 0 c { B n q 0 3 D 8 3 > 0 8 u J g.c D u J ( e.T p T T U w > 8 3 0 p { t s e w T t 3 > , 2 0 J { J { 8 3 w u 7 t 8 0 q 8 t 0 w 6 0 e 0 8 w 8 n p 8 p c c 8 s 0 U 0 s t e 0 +.{ u.$.u u.B n e w w ( ( p.$.8 { q.l.2.#.T U T r.u.' u.n ( h.2.2.u.D D D u.2.+.2.D D u.2.2.U D w ( { n u D u w w 7 0 0 u ( t #.q.{ c J n B 8 4 8 7 7 7 4 w 7 8 0 7 7 0 w 3 3 D w 8 6 e n u J 7.2.n 8 +.c B ' ( ' 4.( ( ( 4 8 8 7 D J B w t e q.{ #.T +.+.' q.4.D q.e.q.( d.u.+.$.7.q.h.q.q.2.u.q.{ q.k.u.q.v.z.u.u.d.U c ",
"h.+.T U u u.' u e 0 T ( t 0 8 0 t ( 8 3 3 n c , 8 2 4 0 u 0 q t w 0 { u.u.J 4 w 0 t 8 ( c q.d.f.u.s.D ( T 8 3 , 1 < 8 T u +.D 2.n e s w 2 2 w 7 q 7 4 0 0 w 0 4 w 7 0 7 J J D D ( u e e t 7.( u.{ 2.' n t { ( t ( u t B t 4 D 4.J u c 2.$.d.0 p.T 7.+.B f.d.2.+.p.n D 2.+.7 J 2.e c t C d.p.4.4.e w 8 8 c n J 7 T q w 7 8 7 8 t t 6 u.{ u.+.u d.+.+.q.r.p.e.2.( 2.s.J ( D T ( n 7 0 6 w 7 0 u c ( t T { c { 7.t.u q 4 3 2 7 7 c , 8 7 4 0 , w t B #.#.2.c t u.7.d.( t ' q.x.( q.e.+.C e B s.4.l.d.z.p.2.q.2.( D +.D ' 0 h.l.d.J ",
"e w w 4 7 J c 6 w , 4 2 7 7 3 : 7 w J { +.D q.J J d.d.d.d.u.u.U n 4.q.$.k.+.T 8 0 0 0 T D D T ( q.T q.D d.d.u.n w J c 0 7 8 n ( 0 q 3 3 7 w , 0 0 w 8 8 T q 8 0 8 8 3 , 8 6 J t 8 u 3 0 e J D T $.2.D D p 2.r.t +.U 2.p.n ( { u.4.8 J 0 e B 4.u.x.k.h.f.+.' $.f.q.{ h.7.j.2.h.{ r.2.e.D T u n e D c J ( D u.n w T ( q.+.0 0 8 0 T { 2.{ D J 4 7 n 3 w U { s e 0 0 t c t u.h.J D w c w 0 w C u n 0 w 8 0 w w D u.u.u.+.u.d.q.q.{ T $.d.+.2.2.U w 7.2.2.J t t { ' { t c e 7.u.d.k.p.q.h.d.d.q.q.q.k.g.d.( c n n D +.7.D D D w w 0 ",
"l.{ z.$.{ T t w t 2 7 0 > 7 0 4 , 0 w t c q 2.4.J c f.u.+.D t e { #.u 4.7.u.( q.c u.+.h.k.d.+.c q.q.h.{ { 4 7 3 3 3 8 c t c t 0 w D u 8 4 t c w 7 7 4 t n t c w c c e w 8 q 3 U 7 8 3 , > 8 n D +.D T 3 7 2 c w [ J p.T w c J +.D c { < 8 w 4 D w 0 u.l.u.z.T d.+.$.c e.q.k.h.f.2.{ c ( n { r.( D ' c w 2.T J c u.u.0 t u ( +.q.$.d.q.q.d.2.q.8 n 7 4 D +.n 2 8 t 8 D 0 ( $.t 0 D 0 0 D c D c ( s c C 7 7 8 0 $.+.k.+.q.u.2.2.T D { q.D 2.( e ( r.h.J ( s J { T q.q.d.+.+.J 7.h.d.J h.T 7.2.( u.q.p.k.0 c e ' T d.d.+.2.D D 4.q.",
"3 7 4 q T { 7 8 8 7 > 2 4 , , 2 5 4 0 $.2.t n c +.0 q u n n u t t +.8 c 2.d.p t n 3 { r.m.d.r.u c { 0 h.{ q.q.u 3 , 7 e 7 8 t 8 w 8 e w 7 q T 0 > 8 c 4 w D 7 4 4 0 , 3 3 u 0 U J 8 3 0 8 4 4 w 0 t J w D c c c t d.2.' ( D u 4.J w T ( J J +.$.+.d.u.7.( d.2.h.f.d.#.D r.r.4.h.j.h.T e { h.w 0 n c $.{ e q.w t +.0 e 7 3 n w c 8 t +.2.D w u t 2 ( 7.{ +.D 4 , D 7 p D 2.{ q e +.0 w e +.D c D t n T D t u t J 2.$.2.u.q.$.c 4 e D ( +.w 7.8 7 c #.7.c J 8 ( ( h.q.u.r.( $.+.q.+.' ( #.8 t 4.T d.T q.( d.d.p.e.{ q.{ $.( +.w 0 ",
"w 3 q B +.J 0 8 8 7 8 0 > 4 < 6 7 ( D 7 T #.2.p.h.d.J B D - u.4.t h.T u.$.2.{ J p.T T n +.( c D n w 4 8 8 4 u q 4 > 4 6 w u e 0 J c w p p t { 3 8 4 , > < 2 : : 3 2 , , w t 2 0 c c w w u u +.{ +.J c c q.J d.e.#.+.J $.+.2.B [ D q w 0 u.j.j.d.r.h.( 7.8 2.2.z.z.h.+.2.+.2.d.d.q.2.8 2.2.p.2.#.n t t 7 w 0 8 q w w 0 0 w 0 T t q { t w 0 +.U 2.q.2.4 n 4 8 0 4 ( ( h.2.#.0 c ( w 7 4 u 7 c 2.+.U 0 +.J h.r.4.f.( D 6 7 2 2 q 0 c 2.U u ( ( t n ( n +.u.u D w 2.q.+.( t 8 d.r.e.h.k.m.h.2.h.h.j.+.2.d.7.#.d.u.q.$.( T u.T ( 0 0 ",
"8 8 t J D T w w 8 8 w w 7 , 3 = 2 7 0 u n f.7.3 D n J D e.d.T $.t J #.q.{ e c u ( $.( ( $.m.q.h.e.0 c 8 4.( q.w t 7 4 8 7.$.7 8 w c c D u T 4 7 8 , = 2 8 : * , < : 2 2 8 D 4 q 8 7 u n 8 q 7 n T 8 c t J h.T e.T e.e.#.e.q.2.( t e D P D d.q.{ #.[ h.h.q.T ( p.h.u.e.q.{ h.k.T f.e.0 2.g.f.$.T +.0 q.2.e t { e J u 0 t 8 w 0 8 8 t w w , 3 7 3 < , c t J t 7 e ' T D { D n T 0 8 7 n +.' T ( ( +.P 2.s.( $.$.c 7 w 7 2 3 8 6 c 0 w 8 0 J 6 q 8 t 8 c 2.t $.{ s.p k.J 4.[ b.q.k.d.h.j.q.h.p.q.d.d.T $.2.d.0 q.7.t u.T s +.$.q n ",
"4 w e ( w c B { t 8 c c 8 8 , : < 0 2 0 u q.q.u.q.2.J 4.+.2.+.r.+.h.z.p.n r.u r.k.f.{ { q.w t w D u.q.2.k.z.b.x.k.l.h.7.0 3 , 7 u c J t 2.0 e 7 8 > : 8 e 7 > : q q c 3 , 0 6 2 6 0 u 0 t 3 3 8 q t c ( ( $.7.+.7.+.( 2.+.q.c +.u u 8 7 c D T 2.2.h.+.k.k.$.s.2.b.7.2.e.q.u.z.v.z.r.7.u.u.q.l.j.h.T $.e.q.n ( +.e T D { $.2.( D c D c 8 0 0 t ( n 4 4 , > 8 ; J T q 7 7.u.h.d.q.D J $.2.+.$.f.d.u +.w c u.8 2.+.c t 2.q.2.2.q.T J +.+.J c J n c ( n J +.u T 0 t h.T $.q.e.u.7.2.c +.z.x.l.d.h.p T d.d.+.d.2.D { J { +.D T u u w ",
"p q D J t w D 0 8 4 7 3 0 7 4 0 c e t 2.f.u.$.w u.0 7 n q.+.8 $.d.$.7.J d.p.D D d.l.c $.+.+.+.( p T 7.< 7 * 2 2 - c 0 c 7 4 8 0 ( n D t e 4 8 7 8 t D t 7 p 7 2 > 0 7 7 : 0 8 0 w 0 4 3 w q q D u.c { J J ( q.B D c > { ( D +.{ +.u 2.d.B h.2.4.e.r.2.h.e.( #.q.T l.p.q.u.7.k.k.d.f.g.r.2.D u.2.d.q.+.0 e D c 8 u.d.D { u D C 0 3 8 8 +.c { 8 7 7 0 8 0 6 8 < q +.' D ( +.( 0 0 w 3 u c D { T q.p.2.+.C u c { +.2.( 2.+.T t J 2.#.T u.J 0 u ( c c ( D n $.J q.w ( u.c T 4.J p.e.u.{ t q.+.( p.u.u.q.u.n D { e.h.7.2.n J J w t c ",
"D ( n D w t n T ( q.P 0 1 3 , 7 0 c n #.( 7.f.q.u.+.0 J D n 0 0 u.P +.q.q +.q.n e.u.u.2.T w w 3 4 8 3 0 6 3 - 4 > 6 : 7 8 2 4 q q.2.( 7 3 w 0 8 7 n t e 3 > 2 < 2 ; 8 2 ; < 8 3 2 3 , t 7 B 0 0 t 0 u t u J D J w ( w c 0 w n n u e B u.( k.4.2.q.7.+.h.d.g.( ' $.#.2.d.+.d.e.z.z.g.7.u.q.j.h.u.D ' u.u.d.q.c D 2.j.( D ( u n ( w T 7 q.t 4 t , 7 : , 4 , > , 8 q 0 T t ( t q 4 t q c J D ( q.c n u q.#.h.q.2.' 7.+.u.c 2 , , q 2 ( c e t 8 c ( 0 p w 0 +.u $.t q.e.D 0 4.q.s.j.q.d.u.h.2.t J p.2.D ' ( +.#.2.+.+.e.n +.t c 0 c ",
"( T D c D D ( c +.u t 8 q 0 4 t 0 n 2.q.w f.d.u.w u.8 n $.h.q.r.q.D ( s $.2.n w 0 t n 4.( T c p 7 t +.( J w J ( n #.e w t 8 7 7 1 , 3 0 t c 8 D B 4 4 2 c 8 w 6 n 3 2 3 4 : 3 7 , , < , 7 e t c 4 w #.+.t e q c c c t 2.u T c w t 4.( u.c T n D e { c t w 0 J D q.7.T 7.q.z.7.$.z.h.q.d.d.f.+.c q.2.u.2.h.7.d.u.l.$.h.x.r.p.{ J T { u 7.w 2 : u 0 4 ; 3 7 7 u c c t w 2.n J t t ' $.0 e T 7.t T n D J 4.J e +.u.w +.q.#.u e ( +.( U 7.D w 8 n D D J D J ( J t q.d.2.q.k.{ { T +.T h.z.+.2.D z.l.2.2.( z.f.u.z.d.h.q.u t D D D ( ",
"t 3 6 0 t [ T +.T 8 t w 7 8 7 0 w u r.( k.q.$.n 0 T , P c ( t ( u.2.J k.u.d.t u 8 t t $.+.t c { e.k.2.T 7.u.( D J T t 6 8 7 7 7 4 3 q 8 8 , - @ o - > 2 # & = 2 : : 4 2 - : , 4 > , , 0 2 e ( $.J c t ( T w ( u T ' ( $.B t 0 n J ( n n ( w J T w w D u 2.u.f.k.h.J q.d.p.h.d.d.d.d.k.j.+.7.2.J +.$.u.J n t D $.n s 4.+.T 2.( t u u 0 d.q.w n 3 > 4 , 0 0 w D { $.J ( 7 D +.d.7.( +.+.h.k.r.D J ( J 2.$.+.T +.t e J +.J 7 n D w 2.u ( T D p 2.+.u.( +.c #.{ c u.q.2.4.+.2.f.u #.+.2.+.2.u.f.+.e.u.e u.e.$.#.t #.2.( D t #.B t n ",
"B c t 4 c q u +.0 { 8 e 8 8 t D 8 c P #.k.T T J { p.e.$.q.4.2.+.d.q.q.c T #.t 3 e J 3 c t u t c 8 8 2 4 0 c D 6 w s { { w 5 4 3 w { w 8 - * , # > 3 = - % - $ - - < , 3 7 2 3 0 8 8 < , 2 u T ( U w T +.d.D 2.2.c q U #.D e n n ( D +.q.h.7.e.z.u.u.u.q.p.' 7.D D c e { 2.p.2.k.d.k.u.+.+.h.+.2.{ D u.2.D $.( c u w t U { T 0 t 8 0 w D w q J t w u u 0 2 , > w 0 w +.t n T n ( 8 e ( 4.q.D $.d.c ( q.$.B t J 4 t 0 8 t 8 2 ( D t ( e B T 0 8 c e t T t #.u.{ U ( q.2.C 2.q.f.( q 2.z.s.d.n p.+.u.D +.c c { 2.d.k.u.q.+.#.T D c ",
"D U q T t c $.2.t D u 7 2 7 0 7 4 s T +.u.q.h.d.j.h.2.+.s +.( 2.( t { q.z.u 4 w u s D +.u c 7 4 7 - , ; , < , 3 7 7 0 t { e 4 0 4 ; = 3 e ; 0 0 n w 3 + - 2 & : , ; 3 0 4 3 t u 6 2 , = & * 3 1 3 : 4 6 $.4.( q.J 2.D t w t T w c 7 t J 4.u.#.U c r.l.d.T d.J w c n u.d.k.4.7 c u.h.u.k.h.q.u.d.u.+.q.h.D t f.+.e.d.$.u.u.p.u.d.( $.k.f.7.7 c s 8 7 3 : : 6 p T n +.q.n J ' ' 0 7 q c c 4.u ( ( 0 0 7 J t +.( 2.e.2.c 7.t u T D t T $.{ $.( +.T $.c s B +.{ t n w w u c T 2.u.w q.+.h.q.u.q.4.h.T { p.2.t.u 2.#.e.l.q.4.2.s 0 e ",
"w 0 u J , J c c u q 3 3 7 , 8 0 , 7 u.2.u.z.h.+.q.T c t w 2 0 c $.+.q.[ 4.{ 2 8 8 0 4 3 q D t 2 T u 6 0 2 2 3 8 6 8 , , 2 8 , 4 4 , 7 8 3 4 > 4 7 7 < 4 w 7 4 : 2 2 1 , 4 3 6 q 0 8 0 T 8 7 c U q n 0 D ' u J q t c J n p 0 0 T n ( ( +.7.u.$.2.q.l.u.2.( D J ( +.J +.d.h.u.2.( q.k.d.J u 0 U $.u.J t e 0 q 2.2.$.+.J t t 2.{ u q w #.+.( : ( 0 q 0 +.2.+.c , w w 0 c 2.c q 3 2 0 9 0 c T +.{ e c ' #.4.q.e.7.( n J q J c ( e 8 8 w J ( e.+.2.2.J T t c $.e 8 7 t w J D r.d.e.8 ( c c D c u q.w u.u.T h.T 2.0 ( { $.u.#.d.{ J t ",
"#.U T U T t t 8 7 8 8 q 8 8 0 t 0 U { e 7 q t 8 7 2.T B 3 4 2 c +.t c c ( 0 u 2 0 J t c c +.u t w n 7 2 7 0 0 4 8 w 2 , 3 - 0 8 6 D w w 4 3 4 : > : 8 7 4 : ; - : 7 c q 8 0 0 4 3 2 7 t u 0 n ' D ( t q.q.D ( ( J 8 0 t n w c w 0 c D c +.{ +.4.T 4.T c h.2.d.r.+.2.+.f.q.h.d.d.2.2.q.u.U J ( { #.n t D 7.J q.J T q.p 0 u , t e 7 ( T n J w 0 ( c #.c t t 4 > 4 7 C w 2 D 8 t 8 w t 2.D ( +.t u D J 2.q.d.u.d.r.C { ( ( $.s u 8 w n 0 0 u n u u 3 w e c n n w t { P c 7 { e.[ ( f.2.( D 4.q.+.s { D d.$.u.u.c q.q.( D n D J ( U ",
"+.0 0 J +.n t 0 u 8 , p T { n 8 w r.( T h.2.' +.u.T T 0 0 , $.T { q.t t c 3 2 u 8 3 t 8 > , 4 8 n w 3 8 7 e 8 2 > w > , ; : t e t u ( n w < 3 4 w t 1 4 > : - 2 - 3 , 7 3 3 4 , 6 7 4 2 0 J w 7 7 8 0 T c t 7 t D 0 0 0 D 0 w 0 0 D 4 D +.h.2.J T 2.( h.7.l.f.q.u.q.q.J k.r.e.q.J { q.d.7.r.{ u.T h.h.h.2.P t +.J J n t q e t { q.$.( w J 2 8 7 3 t ( 0 w w e 4 2 3 J D 2 8 7 D B { c t u w q q +.B T q.p.( +.2.( e.( 7 , 0 0 0 3 p n 8 +.( q.n ( ( u w ( J t $.d.h.h.t $.d.D 7.d.z.{ d.q.$.d.d.2.+.p.l.k.4.( 2.( +.J T $.q.+.( ",
"w w J t J ( w T t 0 e $.T w c ( $.J q.p n z.d.g.q.+.D 2.$.J u 2.e x.q.+.{ 2 w e 8 8 e 8 u 0 7 8 w 8 7 0 n u t t 4 t 3 3 8 , e 7 7 3 2 3 4 : = 7 < > , , 1 ; 3 0 0 w ; - 8 - < & 3 3 : & 2 t t 0 0 4 n ' ' k.2.n D J ( 0 t ( D T { 7 w w 8 +.T p.u.{ u.d.k.f.2.4.2.' q.u.q.q.u.+.+.c j.h.2.u.+.q.h.j.h.( h.k.g.q.{ { ( n w t e T ( 2.$.t 0 T +.0 6 w 0 w D J < 8 w 0 2.D ( 7.T p ' D c 7 T n u e T 0 0 t 4 , t n 2.w D { +.D T u t 8 ( 8 #.t 2.2.s 4.t c ( 0 0 0 t.$.q.2.u.d.+.h.( 2.+.T T d.d.z.p.l.2.7.d.e.u.T c n s.h.q.+.2.+.",
"p q.+.u.T B w c w w J ( { D 0 { #.' 2.{ q.x.h.d.u.u.( c J #.T u.( D 2.( J q , c e 8 t n T ( 7 0 D 3 3 3 t t D q 0 4 , < , % - 7 3 0 8 q D 7 4 w < 8 : 4 7 7 t c e T w 7 D 8 t 8 4 3 2 > , 0 3 4 : n +.d.2.7.t e ( +.q.T 2.D s t ( T 7 6 w +.8 B u 8 0 $.h.h.u.l.q.T h.f.u.p.u.p.u.s.u.q.d.e.2.h.e.T +.+.' +.c 0 D n ' J w c 0 D U n t , ( 7 T +.e t 3 8 4 6 w 8 T 0 +.B +.q.t { ( c q e T 0 D { 2.2.p.p.{ +.4.q.7.+.q.q.T U D 0 p +.$.D +.+.t D D c T D T c ( +.( 7.{ u.7.v.c u.n l.{ J f.k.f.c +.u.8 7.p.D ( c J +.+.d.2.7.( 2.",
"$.( D w w t +.D c 8 +.' c D w 8 ( 2.d.7.7.z.D J T 7 3 w U t t 7 C l.z.7 , J 8 3 t t 4 u 8 w 0 w D 0 w 7 c e 0 4 c 6 3 4 8 t 8 6 : 3 > 7 t 7 4 * > < , > , < q 8 3 3 3 : t > , 6 e 4 2 0 7 8 7 0 +.c T 8 0 0 T 0 +.( ( +.D w w 0 e s D 8 J D s.z.p.4.v.p.k.l.k.d.u.q.p.q.q.e.q.{ u.q.h.4.' ( T q.2.T 7.2.$.t t J c w J 8 7 t J w t w 8 U 2.q.D w 8 4 0 e w 4 7 2 ; 8 0 t 8 P w 0 8 t 7 8 t c 6 q w n w 6 D n 0 4.$.4.+.T D ( n n D w c 2.#.u e 0 t T < q 7 4 w J +.+.k.f.d.k.f.m.h.k.T 7.f.h.h.+.h.u.e.t ( e.+.' T +.2.+.J 7 t 8 ",
"k.z.h.( 0 4 t w t n +.t.{ B T e t 2.+.D d.l.u.f.2.c +.k.b.f.c 7 T t D n t u.{ 3 J n ( 0 n t +.t t n 3 6 7 7 6 7 6 7 4 2 4 c t - , : 7 e 4 2 9 3 8 , < T t w 7 0 2 4 & , 0 , 3 7 4 0 0 0 t T ( T $.t T +.q w w 7 2.J n t w D w 3 0 t p n J e 4.r.7.7.q.$.$.2.p.x.{ z.+.p.d.d.( 4.+.p.7.2.u.u.2.D D ( h.+.d.l.h.k.u.k.2.7.( c U 6 3 4 3 { J D 8 c t 2 w J u.q , , 4 7 u w T J $.+.4 e c +.2.e.c J D ( r.2.l.h.r.T 0 t w { n J q 0 0 8 J +.( e 8 0 7 c u e.( 3 c t 8 0 u.T e.h.j.v.k.u.k.8 J D 4.q.s.d.7.U 2.4.D 2.e.e.u T u u.4.k.",
"J n q D c T 0 2 2 0 ( c w J D ( ( 2.J 8 +.#.q.$.u.( b.f.z.b.D s t & 0 3 > 7 c c 0 8 ( +.d.2.u.q.0 T 8 8 w 2 0 8 w 7 8 7 , w 2.n u B T 2.+.6 , 2 4 0 e C 8 0 e q 3 ; 7 < 4 : 2 u 0 4 < 8 c u w 3 4 8 : , 3 3 8 w u D 8 0 n D q 0 7 3 t ( U T h.7.{ ' f.4.4.q.d.u.k.T e.h.d.t t c n p 2.D q.q.2.q.e.' 2.2.+.u.q.q.J z.( t ' c w D 0 $.0 p.e.u.2.c 2.( 0 w w D U u q 2.T t $.n 8 q.7.c 0 e T q.{ n T n { ( 2.u.2.+.d.+.T J n T T J D u J { u D ' w D s w { J w { q.2.+.u.( ( D u.d.2.( +.q D { ( J e.u.u.2.D U s.s.+.( T ' 7.D e J ",
"{ { ( u c J u.U n D w c c w { 2.+.q.h.h.$.q.d.h.h.d.d.2.+.7.J t u q.u 8 q w q.( D u.q.D w 1 u.( c w 7 q 7 7 4 J T c 0 ; 7 4 { q.q.e.{ 8 e 2 2 3 n u e 8 $.T q u s 2 8 , 7 2 7 7 2 , 2 8 3 w 6 q w 3 4 0 c { c ' 2.n T D 8 0 7 8 3 2 3 J D u.T q.q n q.u.h.t.u.C u.7.+.2.d.h.q.d.B ' { ( +.+.q.u.4.{ r.u.u.q.' ' T q.( u t t q t J c $.2.e.( 7.T ' 0 w c t w w w +.C +.( r.D r.c u.+.n D q 8 u n n J T T { 2.+.D q.w D $.J $.q.( J t t J t T p t 0 e ' J +.w D +.t 2.d.u.u #.f.z.h.q.f.p.u.2.7.2.{ s.h.u.u.d.k.' ( D 4.J u B T #.",
"T w 0 ( T $.+.u.T n ( n t 8 c J ' e.4.2.c v.u.#.r.q.q.p.#.q ( 7 3 & X 3 U +.J t t $.t 0 q 0 7 w 3 w J t 7 1 7 2 4 2 : 2 6 3 2 t D u.+.u 7 e 7 > = 2 D n T u u 7 , 8 3 w 8 > 4 7 8 7 4 3 6 * > < 2 3 > 7 c u w n c n B e c e D w 2 3 8 D +.$.2.u.T n q.q.c +.u.d.d.u.d.d.2.f.p.C n u n w c c d.2.d.B 7.h.7.h.u.$.r.7.j.x.' ' D ' u.$.c q.d.d.t t n w ( c w u u 4 e ( ' D < 0 t 0 c q 2 4 w T n n 0 0 c 2.r.2.e.q.7.+.q.u q.{ { { e q $.4 n 0 t B 7 w 4 e 0 7 c D 0 0 t J 2.d.{ J c B k.7 t q.2.q.T d.v.w q.q.q.d.{ J J q.+.7.D s ",
"J t u.q.U p 2.J 0 e u t 7 0 q J r.h.{ T h.q.2.k.h.( d.q.q.{ 2.t +.J +.0 J n < 6 7 8 n 7 3 w 3 0 6 w t 8 q w J 0 w w 3 u s 3 , n t q 6 w 4 8 4 3 3 4 7 8 3 e 6 t 3 4 t 7 8 2 8 e c c w e t 8 p 0 w ( c T J J J J 2.J e 0 t 8 8 0 3 6 3 8 c D T 2.+.$.+.d.s.u.d.u T ( n { T 2.J n 7 0 e T f.J n q.q.T +.q.( q.u.u.q.2.$.( h.d.u.J n 7.2.q.q.{ ( ( t J w t e e 8 > 3 U $.c t D U 0 0 D 8 8 e e ( u n T t J u +.+.t q.2.q.n +.2.T w J c 4.0 ( ( c 0 $.t 7 u J , w t ( 2.u.d.2.2.#.q.D p d.e.( t J { T u.2.( q.d.e.J +.t U +.n q.J 8 ",
"( J D w D +.#.' e q J w 7 7 w T J k.$.p.r.r.d.x.u.q.h.p.D q.j.z.q.6 , 2 p d.8 c c w e t 2 6 6 8 3 8 w 0 7 8 7 7 , : 6 7 7 4 4 w 7 w 0 t ( 7 4 3 0 7 w t , 4 3 t 3 2 8 , , 3 2 q c 8 0 7 > 8 2 7 0 6 8 0 e J $.( #.+.c t 0 0 8 7 4 4 3 8 D +.c ' T t D T +.q.u.q.h.2.7.T +.u.{ D 3 3 2.k.q.h.+.D h.q.$.q.T q.#.q.J 2.h.d.q.h.s.$.q.$.{ d.q.e.4.2.u $.B J 8 0 3 : 8 #.D 8 n 2.q.w C +.7 e w 0 0 0 c { w w { u.J w +.' d.J J T J u e U 2.t n c q e { 8 3 0 ( 0 T { 2.w c n q.j.u.h.b.h.$.z.r.j.7.2.2.{ T +.2.k.u.2.D J n 0 D 0 $.e ",
"c +.+.0 e u D q 6 w t 0 3 7 0 7 q c D D h.{ ( h.r.r.u.x.u.D u.+.n $.D 8 q.7.D 2.2.( 7.#.{ { J { w w e 2 7 , 3 7 4 w 8 3 7 3 3 8 ( w 8 7 7 , > w +.c ( t 0 3 w n 8 2 2 0 : 0 7 6 , : > 3 u t n +.{ ( 7.$.{ J D n +.t q { T T 8 7 4 2 n P ( T t $.2.' J +.7.g.h.d.d.$.{ e.d.p.e.D q ( J ( $.+.h.t u.f.z.r.( d.k.+.l.4.+.d.p.{ +.2.$.2.q.4.q.$.r.2.{ c n 0 0 7 6 q n +.B T p u 0 +.t +.{ D 0 q q t [ e J J ( ( u.' +.' q.p.J U C c U J ( T 4 n e q u 3 w J 2.e ( 2.+.p.q.p.d.u.e.7.u e $.c w ( 2.u.u.7.2.d.u.w 7.U $.u.2.D T ( { { ",
"J c 2.T D J c n 7 w w 7 4 w D 4 0 n 8 8 7 0 t J t n ( T u.T t { { 7 w 7.0 u.{ T +.q.D { n 8 0 t w B 8 > 3 2 1 7 2 7 w u D 7 3 t u 0 7 0 0 0 8 8 c ( u ( 7 3 w 0 8 6 3 7 6 4 8 8 4 4 6 7 +.4.2.2.( D ( q.$.2.+.( t J ' e.w 8 w 0 t w n 7 n u 4 : 2 4 0 0 c h.q.+.u.$.q.+.q.n u 3 c J D q.u.2.h.2.q.d.4.' u.{ d.h.q.q.u.+.e.7.$.$.p.q.{ T n D +.+.$.J T 0 0 6 4 w T +.{ U P T w w 2.+.+.T J { ( $.{ J e n s 7.e t $.e.p.( D ( ( c J D u.s.J ' c D q D U t $.D u.+.$.e.4.r.q.7.2.4.n q.4.u T u.4.+.{ 2.( 2.D J D c 0 D n t 2.7.2.( ",
"D +.D D u J +.t 2 p c , 2 : 7 4 8 3 4 3 7 $.2.{ z.p.k.h.J { $.7.T 4 e c c T T J ( t D n p +.8 q T u 8 : - > 2 3 4 t t w 7 7 8 7 7 8 2 4 0 ' 3 { c q.0 6 w w c 4 4 0 3 < 7 > 7 7 8 0 w 8 ( +.q.q.+.t J { ( 7.4.q.q.T c t t w 7 3 7 t n T T 2.' q.n 4.( d.k.d.r.{ q.z.k.z.u p +.w D D ' d.h.h.h.$.( u { c [ r.l.q.d.k.q.q.h.h.( q.u.2.7.{ ' J +.{ D c n 7 8 4 t q.u.8 d.r.h.q.q.q p J +.D e J 8 D 2.J 7 J e.q t D q.c #.u c $.2.{ T q.e.D q.0 T w t n J 0 c q 2.+.T u u D ( 2.4.+.T { { ( ' u.[ e n #.{ c T ( +.( c t c 0 s J +.( ",
"T J 2 w 4 8 0 t 7 0 n 4 5 , 8 e q ( D 0 t 4 7.h.{ t $.x.k.j.w D q 3 6 c 2.8 [ c 7 8 1 8 8 c n ( t n w 6 7 n c 8 u { D 8 > 2 ; 3 q > 3 1 8 q 3 2 4 q 8 3 w 2 , 1 0 7 4 4 , 4 3 w 8 8 w T D +.{ 2.{ ( q.$.d.+.J ( +.{ T c 0 c c 9 n t q w 0 D { D D e.d.k.e.d.c c h.2.' c n n w D { +.d.4.u.r.q.2.q.$.( c ( p.z.z.q.+.q.r.k.h.$.d.$.D U $.T { T 2.T $.J t 3 0 t P c u.d.0 { D 0 q.P D ( 2.u 4 u e n w U n [ 2.#.T u.q.u.u.h.D ( T ' 2.+.c 4.3 U ' D t +.0 +.w P +.t J u ( D 4.+.T T q.J n q.$.q.+.#.d.u.$.#.c t t 8 0 7 T c 0 8 e ",
"d.+.c 2.T J T +.T n w J $.n 0 8 n w s w w D z.u.q.e.4 T 4.q.2.h.$.4.{ D c ( t ( 2.J s 0 w 0 t T n w w , 0 s { w c 0 0 2 : : = 7 7 ; : 7 t c 0 e 8 8 w D c 8 4 3 2 6 8 u 3 2 , 8 8 4 4 7 c w u ( 2.t D D P +.T +.{ ( t w 7 4 2 w 7 u c t D u T T u.7.h.z.4.4.e.4.2.2.k.s.2.u 4.l.( 2.D h.h.2.d.z.d.h.( 7.D h.j.z.u.h.k.u.h.#.h.2.2.u.7.c e.( +.#.( q.2.J u 0 { 0 D J ' 0 7.4.{ t n 3 c n T e D q w w n w n T T w q.J u ( +.h.J ( 2.U J 0 $.7 w t q n 0 n n u D q.( D { $.T u.l.h.2.k.d.d.+.h.q.7.2.2.D ( q.D ( { +.T c T U B q.2.",
"J $.0 $.8 w t n c t J n ( 8 2 w 7 8 3 8 8 +.n t n J ( 8 J k.z.x.p.( p.c D u 8 u #.T D J 2.T +.{ 7.c n 0 0 +.n 0 0 0 8 2 > , > & - 7 4 8 n c T w 0 8 c w e D e , 2 8 q 4 3 4 = 4 , 2 , u q ( D { +.t u { q.{ w c n t w n J D 0 3 w t 4 4 4 w w s c c J u.2.q.u.z.j.7.T 4.2.k.h.n 7.( q.h.d.h.z.h.u.e.d.( +.J 2.d.h.u.q.f.e.h.z.p.e.2.d.2.q.$.u.( $.q.c q J u.+.0 4 ( J n e.n ( T J +.( w t c w e T w 0 { t J 8 { 2.2.2.{ 2.( ' 2.t +.n 0 J 8 e J J t { q +.c 2.{ ( U n 2.T q.u.( p.2.$.2.q.2.D J { n D c ( ( U e e w n c 0 D n u.",
"D 7 w n c D n J u J D { J D 7 7 0 7 7 e 3 c c 0 e 0 c n 2.f.J t 8 ( ( T n < e 2.( #.J +.u.h.2.J ( t 8 7 t 0 3 7 : 3 7 > = < 0 8 w T 2.( 0 J u e 8 3 2 D 0 0 8 0 3 8 0 0 7 < : 4 , 8 w 0 3 t 4 3 3 2 8 q D t n T D T n T J w 7 n t 8 3 8 5 3 4 0 0 8 q 2.D 0.c #.u $.q.( q.+.{ r.c +.q.8 d.k.u.7.$.z.l.( d.u.q.2.x.k.h.d.+.e.' +.+.( J ( 2.t 2.$.c T D ( T +.u 4 c d.q.7.q.t ( ( #.U c t 7 7 0 c w 4.+.( q u.7.{ J $.p.d.+.q.D 4.( J c t n c n D 2.( D n t w J 4 n 2.+.D +.2.T { c ( +.#.7.2.C c q.2.J J 7 ' +.0 w t ( c 7 D 0 0 ",
"7 D t ( P D J p u J ( t s w t t t w 8 3 n q.l.2.8 +.d.4.p.d.g.q 3 [ e T : T D 2.n +.c d.( { q.T 0 J D D ( w 0 n 3 < , > 2 : c 0 q.q { 2.h.q.( T w 7 w n 0 > 4 2 6 6 7 7 u < 4 q u t w t 8 3 t t e 0 2.D u.n $.q.U J 8 0 0 t 0 w 7 6 8 4 4 8 3 0 0 4 7 n c 0 T d.d.8 u T J q.$.4.t T #.2.+.k.d.2.r.z.p.+.k.d.h.u.l.z.k.d.j.l.+.{ +.{ u.q.J J J n J ( n e 4 T q.p.2.u.g.u.n D ( u.+.( w n w t +.r.e J ( ( 0.q.q.+.c 2.u.2.4.+.u.$.c t +.u 0 2.t ( ( w u U w t T D w u t ( 2.p u.J ( p.2.r.2.{ T $.D 7.U $.J T { w B D T n 8 0 e q ",
"J 8 D c 0 q +.D T +.w w J q 0 t t w 0 q w 4 0 0 6 0 T T T d.B q.t J n t w p 8 , , 8 n n j.q.h.d.u.u 3 0 n J 0 u 2 3 8 4 4 7 w B t c w t c c e w c D p t 3 8 3 t 7 0 u 8 w 3 & 2 > , 6 > # * , 8 8 3 p 2.q.+.J ( 2.$.$.( t u w t w 0 w e t u c 3 0 4 3 , 8 s ' n +.{ 3 < 7 2 3 8 6 q ( 2.k.g.T +.c z.f.{ u.u.u.2.7.h.$.d.h.+.q.+.u.2.q.2.r.r.n n T T c n 0 ( p 0 u q.2.( ( B r.#.D +.q w { n 7 0 2.T c c 8 D T u.+.{ n t D 4.2.( +.( T ( e ( c c T d.{ +.w 2 0 7 0 J 8 u J 7.+.J B q.+.2.( +.q.+.$.$.r.u.T q.4.{ ' 2.4.2.w J 0 7 ",
"T u $.D t +.w t 8 ( 0 2 0 q 7 w t q J w J c e 7 0 w { { { 2.c T D 8 t 8 J T 8 4 0 4 q.T n D $.7.n 7 < T 4.t u 0 < 4 2 2 3 4 2 : q T 4 c w q D +.3 ( p u c B 8 T J D D w 7 w q , , 2 2 2 0 > - , , < 8 e 0 t ( q 0 0 2.q t D t w 0 4 < 0 7 8 w 7 2 8 J T t 2.q.T ( #.c n c ( D u t c D d.h.f.q.T u.z.j.2.{ +.#.r.q.e.+.U +.q.u.' 2.4.u.( ( e.J +.+.#.u.w t q.D { 2.u.C c J T p { J T J t c e w 0 7 { s #.8 n { $.J $.( q.q.' +.D ( t e.7 2 0 p { t t u c w 7 w 4 0 0 0 w c D { #.4.q.J f.d.#.4.u.n #.D $.n 2.' D w J n D c w w 3 ",
"7 J q J e ( U J P B ( t 8 0 ' 7 e q u u J t t c 8 u t 7 D 7 q.u 8 4 0 n c +.0 w 3 e w t 7 w q 7.7 0 7 w n c 8 t t 8 < 3 4 t 7 4 > ( w c w 4 7 7 T J n 0 T t q q D D p 3 8 3 , 2 4 7 t 0 2 , 3 > 2 > - - 4 3 4 3 0 D 0 e 0 u ' t D 8 0 n +.T n 7 7 3 u n 7 c D u +.$.w 8 , 4 6 7 q u w > c 2.2.d.( h.l.h.d.d.+.4.z.g.d.( n t n 2.' $.2.n q.{ +.t e +.c J 7 D U n 2.q.7.#.$.7.q.f.J c B c ( e c q u 0 D e.T D +.t r.d.u.c c $.u.+.T 2.c t +.u D w J ( c q 0 8 T w J 8 8 e u +.{ d.( { q.( f.p.u.4.( T u.4.e.e.t.[ T 0 0 0 J w , : ",
"c 8 w w t D 8 +.+.w 2 < t 4 4 0 0 c D n c ( ( p c n q.q.k.p.0 w J u t c J $.7 t ( T 3 d.t 8 0 ' w w 4 3 8 n e 0 t J , 7 < = 3 3 : 7 u 3 8 7 0 w J p D 3 u 0 7 7 0 u w 0 3 2 , 7 8 3 4 s t t w u u q 0 8 < t 4 8 7 c C u p w 0 0 w 6 8 q u 0 q w t t w c U c u.u { 2.$.r.h.f.q.4.2.' f.c +.u.t 7.$.7.+.2.b.z.e.+.2.d.h.p.g.j.k.x.{ { c c $.w 2.+.t ' ( n t c J +.q.e.u.2.( #.k.#.c C { 0 0 3 4 0 0 e q.$.c e D n T u.J D q.e.#.T w J c $.c t T 2.c T { c 0 8 J T T J 2.2.4 7 q.T t +.q.{ s.$.q.+.e.' 2.t c J t n 4 8 0 8 p.( t t ",
"7 4 7 D +.u 0 w c 8 7 q 0 n t c D n t w c ( c D q 0 t ( 2.2.D T [ 7 ' +.0 e 0 u.u.( +.u.t q.t t q 7 > 2 0 c 8 4 n q 8 w t u < : w t T J D 8 w T J c 7 0 3 7 0 t 0 0 3 2 7 , 2 8 2 t 0 w - : 2 6 8 , 3 3 2 7 0 8 7 8 c t t D w 7 0 2 p 4 q 8 2 0 w w c w 0 U D 2.u.( ( D +.h.7.r.+.+.u.+.d.( +.r.d.q.u.p.u.d.T ( t { q.J d.s.p.+.p D s n +.2.d.d.d.7.k.d.e.p.D 7 { +.4.s.r.+.h.( 7.#.J $.+.D T 7 8 q n c 4.{ $.{ $.q.$.7.( D q.e.U J ( t t u 0 #.2.e.( T ( +.w P $.c t n T 4 q #.( +.2.$.u.D J w B ( D c t u D c 3 3 4 2 w t 6 6 ",
"2 2 3 4 c q u w t w 0 c w e t t J 7 0 w D J t +.{ T B 8 u J { ( n T P 7.6 0 8 7 0 e 7 u t n T w 6 t t +.D +.2.{ 7 2 0 4 8 > ; - 4 3 3 n 0 8 q q c 2 , t t 4 3 4 t 7 D ( ( 8 9 8 D +.U e 3 : 4 0 3 4 5 D c e t 8 7.0 w 8 7 q t n w 3 7 q 8 w 0 4 w c n w 0 D J n c c 0 D h.l.( 7.2.t 7.q.h.p.q.d.q.w J T n h.u.q.+.2.q.U D n 2.T 2.+.4.8 t w n 4 q D T t T $.c w s d.k.d.d.7.k.u.2.q w n t 0 4 8 w t 0 T 0 +.2.J 2.4.u u.p.2.u U u.+.c c t 7 8 +.( J n u w J u t { +.2.$.T 0 0 q.D $.+.T n c 2.+.D D { +.7.c ' #.J 0 7 3 2 7 7 2 ",
"0 0 - D 8 J s D t c 0 P c ( D J $.( T e ( $.$.D T u.w J t c 0 8 0 n r.( J c T w 8 c 2.2.k.( w w w p 7.+.{ s +.n J n 0 0 e 8 w 2 7 3 2.2.3 w 7 t c 7 0 +.c 0 8 n 7 7 w 7 u q 3 4 e 8 0 7 7 q q q w 4 , 4 4 4 1 3 4 4 8 2 8 T ( ( J 7 7 c w t c 0 0 n u u 7 2.T e.t ( n 8 p.d.h.2.4.$.+.h.h.u.h.#.h.7.q.D +.k.h.J h.+.c f.{ c u.q.q.T +.+.T J e D 4 u n +.7.J ( c ( q.q.{ 7.f.J e.( u c c ( u D t t J +.c t { { D n $.0 c ( ( 0 { 7.0 c +.2 8 0 { ( 8 8 T ( 8 T D T J D { c 2.+.u.2.c c { J q.2.2.q.D $.+.+.( T t ( t 4 = 3 8 3 3 ",
"> 2 8 w c t q c 0 t t T w 0 w t w T t 7 7 t 7 8 e ( t ( 2.J 4 t c n c u u ( n T U T 0 w t ( 0 4 < 7 3 w q 3 q $.3 4 w q 0 > 0 J w w 3 8 J ( 7 4 4 8 t J 8 4 3 0 7 c n +.( D c 0 e w 2 3 4 7 4 0 q 7 0 6 $.c e 2 7 , 7 3 0 8 7 8 8 D 0 4 2 0 J 0 0 w { +.t T +.t e.u.D ( { 4.#.T J t { q.( 7.j.h.p.c $.$.$.7 u w T ( +.q.D u.2.u.J J 2.t T D J P 0 6 { c t 7 q 4.2.J u.u.u ( u.u.t +.u.t c c n $.U C 0 2.( +.c n U T { D D $.+.( t +.T u q D c 2.7 D 0 J n T n U w 0 c T d.u.h.u.7.T J t.s.' D 4.2.2.n ( +.r.( { T 2.7 , % 8 w 0 ",
"2 : : 0 J +.w 7 t e 0 T t u P +.c w 0 w w w 4.D q.t 0 D u.t 4.8 e ' P $.$.+.q.2.T D t t +.J { 0 2 3 2 3 > 3 8 c e t t q 0 3 4 2 4 c 6 7 0 8 n D 0 7 q 2.t t n , 6 3 , : , 3 , 4 7 , 2 4 3 2 t u t 7 3 0 4 7 4 0 , < 3 : 4 q c e e D 0 3 1 8 w T u 4 8 0 q ( 2.h.d.h.+.8 q 8 0 w B 7 6 7 t J 2.T t d.2.P 2.e.D +.h.q 0 w u q 0 +.+.2.d.8 7 J 7 ' +.D ( u.U u n $.d.2.{ D 2.d.u.d.w 2.2.c { D 6 ( q 0 u J e.D 2.0 n q.T w J t 0 ( J c c ( +.( +.( D T u c t T e 2.' T ( c U r.#.f.h.2.7.p.u.u.+.+.$.+.D 2.7.$.p T T t w 3 8 4 8 , ",
"2 2 2 2 t D e 0 w 7 t q w n u u J t c J w t T u u d.u.u e q.q.u D { n #.0 B { 0 0 +.0 c 8 ( 8 t 2 > , 2 < 6 w e J 4 w 3 e 4 2 u T s 7 8 8 p 0 < 4 ( T $.J t c w w ( 6 , 7 2 2 3 0 { J { 4 6 4 3 7 4 : 8 8 7 7 3 4 3 p w t 4 3 e 0 q u 6 w t e c t J T { ( t p #.{ d.2.J D +.$.{ q.D q.c ( 7.u.d.q.d.u.#.+.T D U u.q.4.q.{ T ' { q.u.( { J 4 { +.( q w q.w c w 2.7.q.q.+.e.J 2.u.0 ( t 8 T D U 7 0 D 4.{ ' c q.$.2.w ( 8 2.+.{ c ( q w T w 8 e 0 $.D w D 0 c J t 8 u u c P J +.d.+.u.+.+.$.+.+.c J +.u c J t c w 4 - , 6 : t { 0 ",
"7 c 8 8 w J c t J D n w n +.J q 0 8 e J n +.( +.w u w w w ( e.+.' t 0 q.8 J w e u 0 t 4 w 6 q 8 3 % < , = 2 : 8 n , , n T 0 w w 4 4 e 8 { 3 8 4 q J t D w c s 2 4 w : 3 0 8 2 4 c +.+.u 0 7 3 > 4 4 0 4 < 2 1 4 7 4 8 4 7 c q 2 4 u 2 0 t c c c w 7 4 3 0 3 0 +.7.+.n J t J q c t u q.q.2.q 7.( #.z.z.d.u.u.u.d.$.w J ( D q u 2.7.+.( { 7.w ' d.2.$.n 0 T w { t J T +.$.( D 2.#.t c 4 q.' ( T w T e 7.c 0 c 4.( q t 2.s.u.7.{ u.w c +.n +.{ { { c 7 8 c s w 0 7 D t n q q J { u.q.f.( +.J c 2.+.2.#.+.c n t B n 2 6 0 9 2 u q 8 ",
"q u 8 w 6 c { c B c t D w 2.4.t D t +.T T n c q ' n t 7 U ' +.+.4.0 7 w D t T J 0 8 6 q.2.u.2.+.{ 7 4 0 6 ; : 2 3 4 8 J 0 ' B 2.t 4 7 6 4 3 7 7 , 2 c C e n 4 3 0 3 - 3 t 8 7 0 7 6 0 q q u w u e c t J 4 8 4 8 6 7 4 8 7 0 8 - 7 e 7 t D e w 8 7 0 J 0 0 T J : : < 4 8 3 , 4 4 4 8 e.( t 8 T u.n u.h.z.u.u.d.d.+.0 { 8 J U +.{ ' 0 +.t J T { { T C 0 0 u.e C e T u d.q.$.d.$.c J 8 #.$.q.{ D ' p w w J w D ( k.8 D r.q.4.+.( 7.D +.+.t D J c 0 0 T 8 3 3 7 q 4 t c 3 7 , 0 ( T +.p.q.D w 8 D D T 4.+.T 8 n c 7 7 q 8 2 3 t c w ",
"n c w c D 6 0 q 3 w n e D 8 0 q u J 2.{ 2.+.( w t { $.8 c n +.D ( < e T 8 t w w 8 c e 7.$.D D ( { c w 2 7 q 7 1 7 4 J u 0 4 e 3 8 7 2 e 0 3 0 3 2 t D c J w 0 0 6 , , 0 c 0 8 : q 7 3 1 e 0 w ( t e 6 2 > , 3 3 2 : u 8 w 0 7 ; = 8 B 7 w c n u e w T ( ( $.T t c ( 4.2.s.q.+.J $.r.T q.2.r.2.+.+.d.u.k.k.d.d.x.u.e.u.C U u.d.u.e.q.{ D q.J s T t c { D n 2.c q 7 u ( e.e.{ ( +.T ' e D 3 t 8 c J u 0 { t J t u t +.2.J q.2.{ t 7.n D T J n J w 7 8 3 e B n w u ( $.+.+.q.7.' e.d.+.C J n c D +.2.D n D t w c e 7 7 J 2 > 7 w U ",
"u q U J T 7 2 w w 0 7 0 t w 8 8 0 D D t 8 8 0 w 8 J 8 u 7 c t c u 0 e { D 0 , q 7 T w D 0 t e c 0 0 t t 0 t 8 8 2.D 6 { ( J n 6 0 { 7 0 q 3 3 0 e t 3 2 2 4 7 0 6 4 2 7 3 , 1 4 : 4 8 t w 8 w u c u 0 0 w u w q 8 w w c t 8 3 & , , w J n w n J c 0 $.C J 8 ( c +.q.$.d.q.P q.q.q.u.u.J #.7.d.2.T D h.z.z.q.q.d.+.2.#.q.T e.k.p.p.u.2.r.e.h.2.+.2.t B 8 n 2.D T c T T 2.e.4.n u.0 +.{ u { +.u 8 3 e q.0 u t u w +.+.{ ' ( u.+.+.{ 0 t ( B n e J ( 7 8 w s q t t U ( D $.q.q.7.2.c n w n 2.{ P c D c +.n t U w t t 0 3 3 6 B c 8 ",
"u w p c n J , 8 ( t B 4 3 8 3 7 n ( #.{ 2 6 0 t 7 t 2.e $.8 2.T +.q 7 7 c 6 0 0 3 4 c u 4 J { D 7 4 7 7 8 w w 0 J J 8 u c $.2.( D t 4 8 1 0 ( 8 7 w 0 8 8 0 8 4 7 3 2 2 7 , ; 3 , 3 6 6 6 4 2 3 w 8 e 3 > , 7 0 u t u 0 7 4 : = 4 4 8 8 w 3 0 7 3 8 0 T +.n e.#.2.$.T { { n J D $.c +.+.h.T { +.+.J e.p.x.k.d.2.4.$.$.2.k.J p.+.2.J D J T T +.p T t 8 0 4 u.2.u.$.$.4.t { $.2.q.2.( +.u w p w B c 0 D c w u q { { s +.( 2.+.2.e t n w c J e ( U t e e 0 t 0 6 7 w 2 w +.2.( c 0 3 3 2 n q.2.B e.' ' J D w w 0 t B 4 3 2 4 7 0 t ",
"> e q 4 0 7 t > n 0 n ' J q.n U 0 n t J $.t w J c U d.u.d.q 7 T 3 +.D 7 c 8 w t 4 q 8 n ( w 8 0 7 3 < 7 8 0 7 0 u T T T t D { q.J +.t c J 3 w J d.' q.#.q.2.J D 4 4 6 7 7 w 3 2 , t t 7 3 8 8 2 7 , 0 8 7 4 3 3 3 , 3 0 0 3 : : 8 4 3 8 0 , > : 0 8 e n 4.e.h.{ T { t 7 7 ; , 3 4 > < 4 D c 7 0 w u 8 D u.f.f.d.u +.+.s.( d.h.+.k.$.( ( q.w $.+.7.c T 7 t 0 t ( ( ( $.2.3 q c 7.d.( { T c 4 0 8 q e P u C u ( D ( n +.q u 4 n p 6 6 < 7 7 8 e n 0 w 4 8 t U n n e q 0 2 4 0 n 8 e 0 q n +.n J ( +.c n 8 7 q J p c t 3 , , * w w ",
"0 t t T D { T ( 0 0 u T 2.J ' w c J t e 4 4 n J t J D ( s.s.+.T ( n c w c T $.#.e 0 4 B 8 t 8 w 3 , 4 e p c 0 8 0 c ' c 4 0 0 0 c 2.4 7 q 7 3 8 T ( 2.u.2.$.2.{ +.( d.e 0 7.7 : 2 J u u 2 w 0 8 7 e 8 J 7 2 3 2 4 2 w 8 4 , 7 8 0 8 , , 7 2 2 8 c w 8 7 T +.+.4.2.h.C D t 8 2.2.s 3 e T q 8 ' 8 ( 7 u ' e.+.d.d.u.J e.J 2.p.4.q U +.2.w $.J 2.D +.t u u t n c u.h.q.q.B p t n f.n +.D T $.( w ( D t J t D u D q J n q t 0 u q c q q n U u u n 0 e q 8 u 8 e 7 c 0 7 c t 8 7 t q.$.D 2.+.+.q.q.q.q.J c 3 t w 4 0 0 0 ( T 8 3 4 , ",
"> @ % T J t q 4 , : w D 7 q T { 2.T 2.c J c w w n 0 J w 8 p ( d.B D t { q.( ( w w 7 2 J 4.c +.4.0 0 t 8 8 4 2 u 2 p 3 8 t T 2.#.q.T 0 n c 7 8 8 8 7 n 2 2 4 8 8 e +.e u , 2 0 3 8 7 2 1 7 8 c q t , 3 8 w 4 , 6 8 0 c p 0 , 7 0 8 8 8 4 q 3 7 c c c $.4.u.f.p.h.d.' +.T 7 [ q.J ' T u.d.{ ( r.2.T p.{ ( h.k.d.f.k.d.z.l.e.k.2.$.u.4.w 0 u u +.( +.#.P +.T n { u 8 t J 2.7.u.r.q.q.+.q.+.0 w 7 { c J n T { T ( n w u u J T T ( D J c 8 2 8 e P w n 3 3 w 0 3 8 t q.2.( t w { $.$.2.D T q.2.#.2.q.+.( D c 8 0 c c n D J w w t 0 , ",
"3 4 ; : w 7 w 4 0 > 3 8 w w { { 2.p e c t B u P u.0 q.+.n +.+.+.$.q.( t { ( 4 < ( 7 t w #.( w u q w 0 4 2 e 0 7 w e 2 e q T T 3 2 8 4 t , 7 8 0 , q 8 2 7 w 0 3 7 4 3 U { q J J h.2.3 D u.p.q.< 8 2 J e q.+.{ 0 0 { n U 8 < 2 4 2 4 3 0 2 2 8 8 2.2.T D #.u.h.k.h.d.d.+.J d.j.j.( #.e 0 ( $.#.h.0 t t c e.2.q.2.u.u.p.D t 0 t q.( ( e 3 4 3 u { T $.D q ( n +.{ t q +.+.4.2.p.( +.( n n 7 ; 0 n n 0 4 7 c e u 6 7 8 t 0 c u w t w 8 w 0 0 #.t #.{ ( 7.2.$.0 , 0 0 u 8 8 4 4 t t J n J T J { { e.#.' D w B 8 t e t 8 0 6 8 8 4 : ",
"> > , 3 0 q c +.J 0 4 0 t e J 2.u t n 2 u.u.8 T c T { +.8 7 $.t J w q.$.2.7 : 7 c w t T d.T u 0 3 3 8 4 0 7 e 2 0 w 0 w ( t t u 7 2 8 2 8 2.J q.#.u.e , , : 3 2 3 8 , > * , 7 7 t e.D 8 2 2 3 w w , 7 , c +.t ( t 0 8 J 8 = 7 4 : 2 8 7 3 e 4 8 t ( u.e.$.n J q.q.{ [ c t D +.w e t U T ' 2.w { { ( z.p.q.2.T 4.k.h.j.q.u.f.{ { T { T +.+.2.t.q.T { 8 t w J d.+.D #.U J d.4.( d.D 2.+.T 8 8 c 4 q 8 w J t w u t c w 8 t n t J t u 7 0 n ( t w e w 3 4 6 c D t n n c J c ( c J 9 w q C c ( +.q.2.c n 8 3 0 q 3 0 t 8 8 7 4 0 : 7 ",
"; 3 4 1 < , 7 u c 4 8 q t T T 2.q c e +.h.c T q.J q.T t q.T u.T ( D D w ( +.c D n c T T 2.+.J c t 0 0 4 0 0 u ( c c D 2.$.0 q 7 : , < 8 q B ( T $.( 0 2 - = % 7 , > 2 , : 7 4 6 t c 8 w q 0 u c { $.' ( u.T D w U D T t q 0 7 8 4 0 w 3 t 8 2 > 8 t 3 D J ( 2.u.h.q.q.g.#.d.t 2.D D T ( e #.u e.u 4.D { e.u.T T 2.g.h.d.( 2.$.T +.e { +.e.q.2.2.w t c D 7.( +.7.#.0 +.2.q.d.$.{ c 0 t u w q t 0 0 n 2.{ q 0 0 B 4 D 0 { B J c ( e 0 ( c C w J w q 6 7 2 n w c t t ( { +.r.4.d.+.w c J 6 U B T t w 3 4 t t w D n 0 2 8 7 4 t , > ",
"t u w e 4 3 8 D 7 c D C t c q.t c c D f.q.2.q.q.#.' D c +.( +.0 w T 7.e.q.7.n s ' n p D 2.q.0 0 w t t 0 { T ( { T n ( 0 n t u 3 0 T n c c ( +.#.T +.u 0 2 3 * - 3 4 * ; 3 ; , D { u 0 w 7 > > - 4 w ( D { c +.+.q.+.p 7 , , 0 3 ; 0 4 8 t 2 6 0 t n 2.( { q.7.T J $.2.j.k.l.u.4.2.q.+.u ( { c 4 7 ' n h.g.j.c { T e.h.D c q.' J J 0 4 n D p e J U n u f.4.c 8 n c T s u 4.q.d.$.+.+.u.( n 2.8 8 0 u ' { c t q e.[ t u w { ( J J c t n e J 7 4 c w n c J t c 8 2 < 0 3 8 T J ( J e 0 T ( +.' 2.w 0 q c c t ' 0 t 8 7 0 2 2 4 w 6 ",
"q q t u n ( +.( +.T t c T ( 2.n D 7 ' +.+.2.T J t.t T c T q #.{ h.q.J $.+.u D ( 7.+.T u +.T n 8 $.( D J { D T u 2.C d.c c C c 0 w D t d.f.p.d.z.z.e.#.c c , = = ; * : : > 3 4 , 2 - , 4 T n t t ' 7 D u.e 2.u.d.$.q.J c T T T $.0 J 0 w 6 3 8 2 u { { ( 2.2.u.#.2.q.D 8 3 2.$.$.c 8 0 8 t 8 ( D t 0 3 T U k.h.d.e.T +.q.q.2.{ 7.q.#.w e n 8 t t w c J J C u D u c ' t 0 d.z.w ' h.2.j.k.k.g.2.+.{ s.h.z.k.e.n C D q.' $.J t u.{ c 8 0 8 n c u w t 0 0 7 w 8 J c +.T t w t c u.2.0 q { J ( T U D w t 8 J 8 c D 0 4 7 7 3 4 8 0 u ",
"4 w w U T w 7 c ( u 8 w q 8 0 T c t +.{ $.u.7 t { c 4 n 0 0 +.( +.+.$.{ T T e t w T u.e ( 2.{ t c u q e t B C $.n { $.c c c c T ( D J t 0 #.u.k.h.p.v.v.x.d.+.D 0 T +.q.( 2 +.d.u.k.2.z.D 0 c q , 7 q.u.J ' q.h.T D 7 0 J 2 0 0 7 n J 4 q c t u 8 J D e q.#.' t p.( 0 ; 0 C t w 7 6 c t t D ( p.T D 0 u w h.7.c t D c c 0 J D w u t T D 7 w D U 8 c n J t n t 7 w c J T 7.J +.h.h.q.z.d.f.h.q.7.l.2.4.( q.k.e.p.d.p.h.h.f.2.{ n w e.J D 8 $.n ( 2.T ( T 8 4 3 2 0 , 0 e q.n t ( e t c t t t { T u , 0 B 0 8 ' J 0 q q 3 0 7 7 7 ",
"w 7 8 t t w c $.n C 0 t n c c $.D c 0 t 2.u D d.+.( +.w +.3 ( 4.e 2.w 4 3 0 0 u t +.D J c c $.0 ( t c 8 8 0 c t q.u.q.' 7.J J J e 7 8 $.$.q.z.k.k.x.f.b.l.d.$.c +.0 : 2 8 t 7 2 , > 3 : 3 e ( q.' { ( q.B t 4 #.c c 7.2 8 w 3 > 2 0 3 3 4 D t u c n w { 4.2.u.u.d.2.( +.( c s n 7 2 7 8 8 { { $.+.q.6 $.q q.l.k.d.p.d.D { J 2.+.+.{ q.h.w 7 8 q e u n q.T e D T $.u u e , r.+.4.h.+.g.q.u.u.u.4.+.s J 4.J T D ( f.p.2.q.+.+.n 0 7 D U q D t 0 +.0 8 w > 0 2 w 8 u u.{ 2.e.{ c q.c J ( e [ D U n t q q 8 t D u +.t n 7 4 8 8 8 0 ",
"2 7 c D ( [ { ( u e w w t t +.#.3 4 U e 0 c J 7 ( D u.q.( 4.$.q.{ +.J D u T J t ( D { ( n n n 0 0 7 J 7 w 7 T n T +.$.w 0 D T t t w 3 6 3 8 w +.z.f.q.u.u.q.D D c u c r.l.m.m.Z.Z.q.s.2.h.z.2.k.t $.7 t e 2 0 l.e.h.2.h.+.0 n , 4 e 2 c n D 3 7 8 4 2 4 q 2 q n D J +.t u n u { c 8 7 8 t J 2.q.T $.n t e 4 d.( J T { 3 u ( u.+.2.T u.w n c n B u u ( 2.e t 2.D ( [ D 4 q { t c +.( c u 2.u.+.T q.c u T n n 8 e q.k.d.d.+.J 0 e +.n T D q.T { n c ( T ( n +.D 3 w 0 7 0 0 6 7 t 8 c J w 8 n +.8 6 t c q.{ c J J { d.+.{ 7 3 3 2 ",
"0 e w c D ( D c J J q w q 8 c n 0 T c s T B t 4 2.u ( c d.f.k.p.q.D 2.w c ( D $.+.D +.J 8 u U C w 0 c q q q 0 w ( D T n ( t c u.2.J w w w 0 u c e u e q f.h.q.+.#.l.h.+.n c t 0 $.j.q.q.3 & 8 c 8 q e w 7 e 0 $.c 8 t ( J e = - - 7 2 2 D { u q w w D T $.$.e.+.( T t c ' ' J e $.( w J D T n u.2.+.t c w 8 e 2.w c 4 8 w 4.q.u.4.c c T { d.J q e n J g.( D 4.+.q.$.0 w 8 u t 2.D T J D c t ( 2.C u.+.T T u.r.D 0 4 0 D T J n #.' +.#.+.n n ( 7.2.+.D w 0 > > 4 w 0 w e u C $.7 t ( D u c q.{ n w D D c n D u e c 0 7 4 7 t 4 3 ",
"7 q 7 n { T ( u.+.c t t 8 8 4 t 0 ( 4.7.( q.( D u.4.+.q.{ ( 2.$.{ 4.t J J n J q.+.+.D w c +.T T T +.( { +.w u 7 0 e t w D t 0 ' t.j.z.x.u.( q.t c 4 4 u t h.2.e.D z.4.+.c 4 6 4 2 w 8 w 2 , 0 q J 4 q +.4 D J 8 J 8 +.D 8 c w t C w s 4 t 0 u c q 0 w ( 2.w 0 D n t { ( T 7 7.T ( J #.c ( ( d.+.+.T t w q.d.J { q.d.d.( q.f.D ( p u J w T J { 4 c c D { ( 0 2.u.+.8 T +.{ +.w J r.u.+.2.( c u 2.q.q.d.$.c 2.( D { 7 u 8 6 t n D w u t 2.t w 0 J 8 2 1 0 8 2 3 q e w 8 4 7 8 t 8 e w ( c D u.( u q ( 4.t c q 0 4 0 4 4 , 2 2 2 0 ",
"3 t 4 0 P t J J +.( w w 7 7 ( t f.q.( D c w 7 B U u.u.q C T c f.q.n T +.D #.n d.d.+.0 4 e q.3 7 0 c 3 4 w 3 4 7 0 7 7 5 8 c q 8 T n ( u.0 u 6 3 4 , 0 7 8 c w 2 : 2 3 3 q J n t { g.h.k.0 8 u n 0 2 4 , 8 $.u t 4 , 3 2 , 7 - 2 , > 0 0 7 t 8 0 e J ( ' { T q.2.+.4.h.d.( w +.d.2.c s 0 D n e 6 8 9 ( r.J u.7.t $.t +.J ( +.J u.d.7.2.$.J 4 D d.2.u.$.C J J +.+.t u c 2.d.f.2.2.0 c D t n w D { u t ( u.q.n r.w 2 w q 2 , , , t 2 w 0 D J d.$.f.2.D ( ( p.q 3 , 7 e 0 6 $ , , e w n q.$.T c t J ( 7.t t D t c 3 3 2 7 2 0 4 q 2 ",
"3 4 t J n c J s J e J 0 w u 0 u ( u.c c { c 4 c ( u.n c ( e t 0 e.+.q.u.2.q.q.( T D w w t q.c w 8 0 4 3 0 7 0 c D 4.7.2.J u.( c q +.d.+.J 0 0 n r.J h.( w e w 1 4 3 , 2 > : > 0 t ( T J 2 u e n c 0 t u.+.2.e w 7 ( 0 u ( { u t { t w T w e 6 8 8 e 7 2 , 4 0 t t w 0 t u 3 , 2 8 0 8 q J n J n J 2.2.q.4.q.u.{ ( ( D e d.4.t ( T n q c t D u ( 7 n f.e +.q.q.2.' q.w +.2.$.q.D 4.k.z.x.k.h.k.d.u.D +.+.n { e.T 4 J 4 e 2 0 3 7 0 8 w w 8 w J 0 u $.c q 0 8 n q w w D e 3 7 c c 7 3 w c n D { $.D w 8 w J J 2 { u.D +.n +.q.( ; ",
"u n c w t T u c c 0 7 8 +.n J c T $.J c u t J 2.n D p [ +.u ( c u +.+.2.q.2.q.u.J { c w u D w u e 0 c 7 t u ( q.+.n ( ( ( t w 8 ( #.l.e.( 0 q.( h.{ ( 0 J 0 8 U 7 0 7 , , ; 3 7 4 4 w 0 0 u w 3 3 n #., w t t c e t ( { 7.+.c s t t t 8 t 0 2 q t t w w c ( D D t +.D u.D t q w q.#.#.T ( c w c +.c t w c w t 8 7 8 u 0 c 0 0 w 0 8 u q t u u u { q.e.$.p.q.d.d.u.#.q.q.q.t k.2.z.( 7.n p.c e ' u.7.d.q.q.T ( J t 4 7 8 t n 4 e 3 { w 0 e n n T D J D 2.; > < 8 t c w 7 0 D n c 3 t u T J n D 4.{ J 8 J D 2 > 0 u w 0 q w w w u ",
"0 e 0 +.2.2.w ' w w 0 J T q.q.c T 0 7 7 u 7 +.2.w h.( J c w e.c +.D d.' D n 2.t J 0 7 n $.( q 8 0 7 6 t c ( #.T 8 c t 2 4 { 8 3 8 c t u.c w t n t J w 7 0 J n T q 2.( t 7 8 7 3 3 2 4 4 4 0 c n 7 q u 7 4 0 t 0 t 8 c D c #.w ' T D D U +.8 8 0 8 8 8 0 4 { 4 , w t , 0 c n p J D ' P w D ' D c t n 0 J J c 8 4 & 7 , 8 B d.h.k.d.{ [ c D J { p ( t U { q.d.q.{ J { 2.k.z.x.2.4.p.d.8 s s J J D +.$.4.q.q.u.U c 7 w 3 3 e c q c 0 D D 8 { f.t 2 2 7 0 2 : 2 4 2 0 < 4 D u 0 4 D 8 w ' ( { J q ( { u D s n q.8 2 8 4 0 7 8 0 2 w ",
"8 c J u +.#.' t u u 0 ( T t { ( J c n J t 0 ' #.( D 7 C { u.r.d.D D u D c T e n q 8 4.J +.7.( t w 4 w c c 8 ' +.2.$.0 7 3 t q 8 > 4 $.2.T r.{ n $.c D t 0 t 7 7 2 3 8 7 w u 1 3 4 4 0 t w 3 e t 6 w n w 3 n w c c q e q c s t ( { T ( t w n c 8 3 ; 7 , 0 t 3 0 T t 4 0 w 8 c +.c #.2.8 J f.+.P e w T #.u T e T n u J ( 7 n c t t c C T e ( u.0 { t u 7.d.c 2.0 d.{ #.s D u.2.q.k.h.f.{ c +.T w w D D 7.q.7.J 8 q t e w c 0 J e 2 w t c T 2.t 3 t 8 ( w 2 : 4 , 0 < 3 ; > q 4 J +.2.( ( +.J q $.T w w 6 0 t ( n [ n 0 8 , = > 7 ",
", 2 c #.+.+.e w t D 0 J n T D J e w 2 P 8 n e.c D 8 D e.T { u.U 7.T n J U n D n ( 2.T +.( +.D w J J $.p.+.[ e.q.t c 4.+.f.d.+.J B 2.q.v.N.N.k.k.e.k.d.b.e.T J t ( ' T +.d.q.+.u.u.$.w 1 8 u c T 0 w 2 7 7 J 8 0 w 7.s c w 0 7 w e 0 n 0 t 0 e u 7 : 2 0 0 t 7 D 8 c 8 0 2 w 0 3 s q 8 w w e J w J u ( > 7 c T D 0 0 h.d.d.+.u.k.0 C t 0 7 7 0 B ' e C 7.q.( 2.2.J t { 3 T n ' D 7.u.h.2.d.h.7.t +.( u.q.z.2.J w c n c 2.e.e c ' D 0 +.e D U T n J 0 c ( 7 4 3 2 3 2 > 4 8 n c w 7.t J n C w J ( { 8 t 2 w 0 w t ' D 2 < > 6 2 2 ",
"; 2 3 c w 8 8 w D e n c D w 8 ' ( 0 2 : , T ( q.J w d.+.n 7.e.J T J w +.J J T $.2.q.u.q.2.2.c ' J q.D q.' $.+.{ c c ( D T q.r.l.d.2.d.m.z.z.h.2.x.k.l.l.u.p.+.0 ( c t u u 8 8 3 4 7 8 w 0 8 8 T u w J < J ' t 0 8 4 0 u T T D n ( $.e n c q u w 0 2 w q e { 7 3 6 4 0 4 8 0 w c c 0 , u 0 7 c u #.q.c 7 q t 7 8 c w 0 0 w t D d.+.p 0 t w T T #.f.7.c 2.U u 8 D u P c C ' D { e.( +.p.u.' e t 2.7.u.2.f.u.2.d.n J { D e +.+.n T t { D D t ( e.c 3 6 J 0 8 6 3 6 7 3 7 , 8 0 n T t c 0 0 q 0 0 c t 7 q 4 q 6 7 ' 0 { ( c D ( u , ",
", 7 8 7 n { c c D t t p D ( c J q +.D u B 8 ( u +.q.+.+.{ q.( n { t q $.T 2.{ c u.( 0 7 w n 0 0 2 t 7 D e T J 7.2.( c u 0 7 ( T T 2.q.+.N.+.T +.T 2.e u.C t n e 0 u.7.2.c 0 T e 0 u 6 3 8 4 3 7 8 < 7 4 0 0 +.T e.+.{ w u 8 7 e t 3 0 0 3 - 7 , > 2 t w 0 +.q n 8 J { ' 2.j.t u ( q.D T ( u.$.+.u D D B 7 8 t 7 0 w u c 7 3 c U 8 q q { ( r.$.+.4.d.D J c J 8 J 0 $.u +.+.{ j.r.J T 7 7 0 7 p w B u.f.' n q.n 0 8 4 3 7 t n t J c u.{ c #.+.t t +.+.8 4 2 > > 3 3 c 0 8 0 0 7 6 8 w 0 u T t w u 8 7.{ c #.8 D 2 = 2 8 0 w 7 4 7 ",
"0 8 7 w c 9 D { n u D u 8 0 D T u c c 2.{ +.( c ' T q T +.u n T U J c c U ( +.c 3 t D +.u.+.n 0 t c 8 w B c 0 T +.q.h.d.w +.D 2.J #.#.2.+.4 w ( 8 7 J n t T t 8 ( t 8 7 4 7 3 6 4 w 8 8 3 7 w 7 7 8 3 4 ( 2.( J 3 9 w 0 8 D T J 7 t t q 0 0 c w 4 7 2 3 8 6 e 7 8 q t 0 c 2.q u l.u.( U v.4.7.( t t n q 8 8 8 8 ( n D 7 7 w n w T J 0 e #.c $.{ q.r.c t 2.d.' { D { u.2.e.h.d.f.u.h.q.h.U 8 T t D J w t 2.T 7 4 2 3 0 7 J : D D ( D 7 3 3 e t 7 w [ w 7 w 8 3 8 7 2 t u c t 3 7 c w t e n t 0 t n n 7 c J D w t q 8 { U J J 0 8 ",
"3 8 0 e u ' J 7 3 w e.#.u 8 e u D t 8 2.J c c ( ' 2.n +.( n t n u t ( c +.+.u u.T +.D 0 w 8 3 2 3 c q.D c { n t c D d.h.q.#.D c t $.7.( J t u.x.e.q.k.s w ( D D t 0 e 4 0 4 c q 7 : : 4 U 0 t 7 0 3 4 w c ( +.t t t c { w ( w t ( 4 D w , w p c U 0 4 3 e 2 t 0 0 e w c w c w 8 4 1 6 0 2.d.d.( D u 0 c 8 t 7 0 J e 7 8 8 q t w w 8 +.J 0 q 2 0 t 0 J n u.g.T D n q c T u n t 2.u.$.q.h.4.+.n 0 n u.q.+.q.0 0 0 0 U D 8 6 7 n c c 7 0 u 0 3 ( 0 T 7 8 0 c 8 0 7 4 ( 8 w c 7 w n e w 0 8 ( u.h.$.( +., 8 0 0 7 7 4 c { ( n 8 w 2 ",
"e e w 0 6 c T T 0 n f.7.7.+.J p.2.t 8 q.D t p T $.D t q T +.T 0 t 0 { n T ( 0 +.w u t c t 8 t 2 5 6 w 8 w C ( T 4.e.u.u.7.t J $.u d.d.j.q.2.d.q.z.T h.t 2.T +.#.( w { 0 u w 0 c t e c q c 8 5 t 6 3 & w +.( 8 e D T 2.T c D #.2.c w t 8 3 w 8 0 6 u t u U 8 8 u q u n n 8 t 8 7 w u 0 p w 0 7 8 J +.J B w 6 0 t T 0 w t 7 8 t +.n { [ 0 c s t 2.u.( t #.2.T n J t u.u.d.h.d.$.D k.d.7.2.l.+.+.n 7.h.T +.e.7 ' t t 8 D 7 0 T u J n w n e D t +.n +.J n n B q e e 2 e T c ( J t 8 u J c n 0 u c 0 J ( 8 u c n { 0 J w 8 7 w 2 2 4 ",
"0 4 4 e p q +.7.c n +.4.J +.+.e.2.T D 4 0 q.c t D T 7 c n 8 0 w T T +.( +.D J g.d.e T t c 7 q , 4 0 c t +.' $.J J e.q.+.n t D q.7.d.+.e.t { m.z.m.2.m.l.c D u 7 2 t D c c 7 w 8 w n 7 0 c w 8 p 0 e +.n U T 2.t C u t w T c 8 8 8 0 t c n 8 ( D t 8 T e 8 7 0 t J J c 7 e w e 8 e 8 2 3 8 0 +.0 +.( 8 0 { 0 e c ( c u t 2 q T U $.p T 2.8 n +.{ J n T 7.D D #.T u.n ( 7.p.7.T T d.d.u.q.2.T T 7 ( u.J $.[ > 4 w 7 0 c q q 0 0 6 8 w n ( T T J c +.c t 7 3 7 0 0 t w D 2.t D u t 8 w n 8 e +.$.0 +.7 0 5 ( 0 s q 8 7 B 3 7 w t t ",
"0 t u J ( 0 c J #.w t [ $.2.( ( ( ( T w t ( ( T T t 8 w c w t T e c c c 8 s.d.d.u.q.c n n n 2 3 8 4 0 n ( D w c ( 8 t t 3 u +.$.#.7.( t c b.v.p.u.v.{ h.J T T 7 3 2 e t 0 4 w s 0 p t w 0 n 7 3 : 0 D p.t P J t t c D 0 t t t t q t J t q 4 6 7 q u t.7.e 4 1 3 w < , 4 n { w 2.+.2.0 0 J 0 J ( n 2.$.D 0 6 w n D u n n 0 w 8 c w 4.c u ( J J 2.J J J ( q.u.n +.2.4.u.g.h.f.u.h.p.( 0 0 ( ( D u u.h.f.u.+.c 0 < ; 2 : J t 8 w 4 u w 6 4 +.q ' u.{ D 4 t 3 4 3 4 0 J w < 0 u 0 e 0 7 { 7 0 J 7.e.D 0 n 6 w t J n 9 D J D 7 7 7 e ",
"w n 8 T c +.7 > 8 e t e 0 4 t ( d.u.t , n 4.T c 7.w w 7 w q c T ( c t w u $.2.n ( h.n T J n 7 q 8 w 2 0 7.( { w t 0 d.n k.+.d.q.$.b.h.4.x.d.x.g.p.T 2.p.( u 7 4 > 2 7 0 w 6 8 5 3 7 8 0 7 3 2 7 n 3 t J c T J T ' D s t t u 7 q J T ( U c $.{ 2.2.w d.7 $.J t 0 t n t q.J ( n 3 0 8 w t 3 t T t u n n U n D e.2.7.+.$.7.{ u 0 #.0 q c < 3 3 4 t 2.p J 0 +.2.+.e u { ( 2.4.q.q.h.$.u.d.4.q.q.d.e.u.q.h.p.2.( 0 7 w e c c D 7 0 e D D q 8 0 w D 7 w w 2 2 < , : 2 t q 8 t q.d.w 2.( c w J n u ' t 8 8 D 8 , > 8 w q t ( w t { D w ",
"2 7 2 3 u t 3 3 c & : $ 8 u c : 2 8 8 q 7 n t.7.d.u.r.+.2.t c ( c J c ( T q.{ d.u.q.2.w 2 7 8 3 3 3 3 4 c t u T c f.n $.D { q.2.( c t { c { B z.h.h.u.l.d.7.w 3 2 2 0 0 4 8 8 7 q 6 7 7 u 0 0 7 2 0 8 4 u.D D ( J t t 8 4 7 0 3 7 w c c n 8 0 8 { 0 e t U u e 0 7 n c t c 7 w 8 0 4 7 0 0 c w q n 2.+.$.u.q.q.$.q.{ ( ( e 0 4 w J w t J 8 t D e.+.c w 0 c n c ( e.d.u.q.T q.( u.d.d.$.+.4.( g.+.U #.+.7.D ( T 8 c 0 w n T D t 7 t w c J +.{ $.{ c c c 6 , q 7 4 w u J w 7 w 8 4 J u c ( n D J J n u 2 0 0 2 3 8 0 0 ( J J T w , ",
"4 % , J c D D n p.D n D e t 0 > > 7 w D T B B r.2.2.D T { t +.e.+.c J 0 t c ' +.2.d.+.e.0 8 0 3 4 8 4 3 8 { c 2.h.$.$.+.2.c #.' u.J T D w T +.#.l.$.k.s.$.u.e c , 4 q 4 < 2 7 0 4 8 e { J w 8 s D T t T { { q 0 4 3 < 2 2 > ; , > 4 7 0 0 0 : 7 t 0 4 2 3 u u 0 B w w c 0 2.{ +.J r.D J n U k.d.T c +.+.c w 0 D e t 7 w c u u w 4 7 6 T { 0 e ( J ( +.8 e u D c t D u.7.h.$.+.h.g.4.{ t 2.+.h.T 2.q.r.7.d.{ D ' u D c n t w q w u J +.D { J $.q u n e c t 0 2 9 0 8 c ( t 7 8 +.t +.8 w 3 { u.c { c { t 8 : 2 2 2 3 { 8 t w c 4 ",
"n t q.4.2.$.J D t u c u q ( t q 7 u c n $.2.q.q.q.d.q.q.2.d.s.( 0 J n 0 c 2.T { n { p.2.D e w 0 w u , 4 > 8 7 8 c t 8 6 : 7 0 8 u n T D w { { q.+.d.+.( { c T 4 3 8 e q 7 2 7 2 8 0 0 3 2 8 3 * > 2 < 8 8 3 * 7 0 3 , - = 2 ; 2 * < 3 , 8 0 D { ' +.7 t 7 7 1 7 3 4 , q n c e [ T D { T 2.+.{ n J e n u D e t D q 7 t e { t t w q J J D J $.d.{ J ' c c c U +.{ D #.l.q.q.d.$.q.2.( 8 8 t ( w 3 u 3 0 e t 0 0 4 0 8 0 0 t 0 w , 6 0 q 8 p D { c T ' c w 0 8 4 w w w T u 8 e 0 0 c 0 J w u c T U 0 8 +.T 0 7 p 2.( { e n q.( c +.",
"q 8 0 c t e u p 7 7 0 t 0 7 7 0 n $.+.q.u.p.q.( T q.q.u 2.u.q.{ 2.T T t +.d.#.$.$.( ( J c 0 e 0 7 D t 8 = 2 7 8 ( 2 f.v.J l.h.b.z.h.d.f.d.4.( d.p.l.k.j.4.{ p t c e c t 8 4 - 3 w 8 4 2 4 - > , = , 3 8 q T D u c w , 3 , - : 7 8 0 0 3 3 4 J w u , 2 7 ; , 7 0 0 3 n ' q T s.q s { 2.2.u.u.T c D T n t T #.c 0 w 8 t e 0 8 9 u 7 J q D 4.u.#.T t u q.c t n t t w 0 2.r.u.q.h.h.u.D f.u.d.2.D u.p.u.B q.e.w 0 2 0 t 4 3 D e 8 c w u D q t w 0 t 3 0 n 0 4 t 8 7 4 6 U 7 6 { ( 0 0 7 , { 0 c q.c n 2.( w { e 8 0 t - 4 4 7 8 3 4 ",
"w 8 0 4 4 8 3 : w w 7 t 8 7 J n ( ( 7.c T d.#.T t 2.( D n q.+.T u.p.q.D d.r.T 4.d.2.+.J D u.d.{ 2.J t t q J 4.D 8 2.J ( ( s.m.p.s.d.u.q.h.e.D J $.D e.k.u.{ +.+.2.q.2.#.( 6 0 $.2.0 7 w 4 7 7 3 w D 7.u.J u.+.q T c c 0 7 1 e 0 w 0 4 > 2 u w 8 3 8 t 2 2 3 J q 6 0 ( D u.+.2.2.6 T h.t q.2.+.T J +.( T 7 c 7 8 n 7 w c p e T w c ( u.r.w w w s n n e e t t w c t +.2.J u.d.u.d.+.u.2.( u.( 2.d.( t n d.u.r.T c +.t J c 7 2 2 w 0 t t s +.{ T P D T n 4 4 7 w q t t 0 B +.T T w p { D c c n 8 C 2.7.#.U D c q 8 2 , 4 4 7 8 - > ",
"8 w 8 w w 8 0 0 w t u ( D u t ( t u n ( ( +.p D 4.{ ( q J c f.D q.t T 7.T q.k.u.' u.C t c c c 7 q.T 0 q c e c e.( #.B 4.c ' q.z.k.N.N.l.k.N.l.d.q.k.D q.2.{ D q 4 t w 8 2 7 D 2 * 2 3 , 4 2 > , c , 4 7 e u.c 8 8 n q c w 8 3 7 7 , 6 c T 4 2 4 7 u 6 2 8 4 t 0 0 J s B n { q.u.w D J q.q.+.D w n c t c 8 s 4 8 8 e 0 D s c 8 t 2.7 t J n 0 t 7.{ ( n u 7 c u e w D 8 7 u ( p.k.4.J z.l.k.p.u.d.+.T r.7.{ d.e.J 0 T T ( w q B ( q n { D s n J q.c t 0 6 3 6 4 q 7 4 8 u c 7.u n J J +.( 7 s n { { 7.q.+.{ t 0 e 1 > 2 < ; w & > ",
"T +.2.T e 4 8 8 0 t w 0 n D c D t 4 0 q 7 u J c q.q.+.d.e.e q.' J n t w { d.+.4.u.$.B #.( t q 2 0 8 0 { D w $.l.h.J g.{ w 2 7 u.{ q u 2.B { 4.T d.7.k.l.d.7.t T T w e 0 w 0 4 q 7 3 q t 2 e 7 n c 4 7 7 D 2.t w n T 0 t 0 > e e 8 8 2 t n 1 , 7 +.0 - 2 , 8 < > : 4 2 C n +.2.c P +.n 2.J 8 J J +.n 8 t t 7 w 8 t q 8 t { B t D t q w q.{ e n 2.#.( 8 4 7 7 q s c 8 , 8 4 7 ( +.n u.d.f.p.d.' h.f.T f.h.e.q.u.T t ( D D D t t +.7.T u.( T T J J c p D q 8 7 8 w 0 8 t 0 { w D 4 e D w 7 T J e t 7 e n 2.D 7 c t 7 3 7 2 3 < 3 2 ",
"0 0 ( D D t { u w n D D t e +.2.0 c w t t c c J T q.D q.t ( 2.T n ( U 2.q.T n e.d.p.{ u.+.( ( w 8 u +.t 7 7 0 D { 2.$.w #.u.p.p.q.+.h.f.h.d.2.x.p.h.h.2.4.+.n c 0 u U 0 0 q n c q c 2 2 8 7 0 7 w 7 t t 4 D J $.{ 7 8 8 D 6 > 6 4 0 u t # , 2 8 , 4 - : 7 J t 6 8 c C t t n e.h.2.J w h.2.+.u { J t 4 8 c 7 +.D q t #.+.c J +.{ J w 0 q.q w n t ( B D w 8 q e w 0 t u q q J u.x.l.x.u.d.h.e.h.u.q.w $.4.e.+.f.h.c D t +.c e +.u p n 2.d.q.J t t 2.c T 7 8 7 0 7 8 w c 0 q +.w 0 t c J B $.2.T +.{ $.2.n 7 D 4 2 8 3 8 % 2 ; - ; ",
"e e 0 8 0 , < 3 7 n c c c +.u 0 8 B e t t u 8 c 2.2.2.+.T +.d.J $.t ' u 2.e.T ' q.4.( B u $.e 0 w c U J e n T $.u.k.x.k.j.d.g.( { J r.u.u.d.4.f.e u.z.d.u.4.T c D { T ( { #.T n 7 7 4 0 0 8 7 c e u { 2.+.u.u.D J 3 8 t J ( 0 8 0 u 8 3 8 q w 1 , 2 7 8 8 q 8 8 8 7 w w $.{ { u.e.( t q +.J +.7.8 4 8 0 7 4 3 J t C 7 w t D u 8 D 0 e n 2.J 2.{ U 0 D 7 8 w e 8 8 u 3 3 4 8 ' 7.d.u.b.u.u.2.z.k.u.p.h.u.q.T #.0 w T ( c w h.( ( T c J h.q.n C 7 w J t t 7 t w 2 2 t 7 w 0 +.t t 0 , 6 2 t J t 4.B T q w 7 7 8 P D 7 4 t 3 , # , ",
"6 3 t t D ( 2.J e D t c T U w e u w w 0 8 0 0 u e q.2.+.+.+.T #.D 8 c 0 8 0 w w n 2.+.q.T e ' T e e ( +.u.q.q.{ $.l.k.7.2.h.$.x.h.J +.c ( q.D ( ( h.z.j.d.$.+.+.n { J D { { +.T 8 8 D J w 3 4 7 8 e u #.c J ( 0 7 q 0 t w J D e w w 4 3 8 0 7 2 3 7 2 , 0 8 0 B u 0 c 6 w w 7 8 3 0 w 0 D c J 0 w n w c 0 8 8 n w w w w t c J s D t D J t ( 7 < 7 c B [ +.u 4 8 0 q c e ( t J q.k.d.z.z.l.4.{ $.q.#.4.+.p ( t ' w 7 D T { p.+.D J q.4.#.2.c 0 7.+.c > > 4 , w 4 7 , q 8 0 w 7 0 0 0 J w D 4.t [ e.( T c c 7 4 u t 4 - 4 4 7 , 3 ",
"0 0 0 8 2 3 2 2 q t 0 B U n c q t 0 t D c n ' ' J [ q.u.$.T c 0 4 e.7.w p +.8 q.4.2.{ u.+.T c w 4 3 c n 7 0 u 2.h.p.d.p.T p.q.d.z.h.q.2.d.q.x.c.z.u.J { q.4.{ ' U q.2.q.J q.r.q.w n c w , 3 ; : ; ; 3 8 8 U +.7 w 3 q w q J D +.n w > > 7 > + = 8 2 * 2 - 8 , 0 2 0 c c q.7.j.d.7.p.+.c q.4.7.4 0 D c c 8 0 4 4 8 w 0 0 7 q w J t 7 0 c J ( D 4 , 7 t $.$.B q t w t e w ( D T +.d.j.$.l.n q.$.q.q.n +.J T u.u.D ( n n 0 D u.q.$.+.8 , r.w 0 7 0 w D 3 2 0 8 D 8 7 0 4 7 t T J $.n c n 0 +.d.q $.#.w +.D 0 0 2 1 3 8 3 4 2 7 3 7 ",
"= 2 , , , 3 3 u T +.( +.J 8 u 7 p 7 t 8 c J t D { u.c n t p T c 2.t 7 8 0 u t T 4 7 { T #.c 0 w w n c T D 2.$.T D T T h.7.z.k.v.x.z.( k.h.2.d.u.d.k.d.p.T 2.D J { J ( 6 w 6 w 0 c 0 3 3 7 7 T c s w 8 D e J t q q P c 0 t 0 c J 8 2 4 8 7 > 7 2 3 > 2 , 8 6 J 2.{ q.T D U +.t e.{ e.q.0 7.2.p u n t n 0 7 4 ( 0 2.n ' T D D 0 8 7 0 4 , > < 0 < , 2 e ( n D 0 7 t w T ( r.J 7.q.k.q.q.s.q.4.d.+.2.t c { r.q.z.h.2.2.D +.c u.T ( T c [ u D w q.7 w t q 0 t w c w 2 < 1 8 D 2.D c D D c 7 +.c 2.T 8 ( D ( c t , 0 0 0 0 2 3 > 2 ; ",
"0 2 7 , 4 0 2 t 7 q q 8 0 n c 8 e t T e 0 J h.$.+.u.D q.q.c U 0 c c w 0 e 7 w u q e { c ( t 8 D #.D ( 0 0 8 t w T q.u.2.q.d.j.p.+.7.c ( l.+.7.l.e h.k.{ f.d.u.q.2.J w , 6 , 4 7 2 n u 0 c 0 J u ( w 0 w +.w q w 7 4 t 0 s 8 t 8 2 7 3 4 0 8 3 2 e t e q w q p n t w D t ( c w t w ( $.2.{ $.t t ( T { ( w 4 { 0 w , < 7 8 D 4 3 c c w 0 3 0 4 3 2 C w ' w u.c 7 8 J 8 c d.s.h.u.h.h.d.k.h.k.q.p.2.+.( J w ' q.d.u.t 7 p J ( B q +.$.( D n t 2.t c w 6 0 w 4 8 u : 3 : 8 7 n w c n q 0 c D n +.+.n e.+.u.+.0 w n 0 4 , , 3 > ; t ",
"8 8 n J 8 8 7 c J e c n w w D 0 w 0 c 0 n n d.q.( 2.n 4.2.+.$.c e t 0 t 8 T D { t D ' r.q.p c U T c $.D w e $.T t u.l.( q.d.z.x.d.N.4.2.2.+.u.k.u.T 7.u.s.+.d.u.D C 2 2 c u q 3 , t u 8 n t u +.c 0 D ( T C w < 7 3 t 7 3 0 0 t w t 5 q w 6 0 > > 0 0 w 3 2 0 w c 3 e { c c e 2.e 0 8 t D +.J u $.2.q.D t 0 0 4 4 4 3 3 8 c 7 u t e T u 2.+.' 3 $.J J q.( +.2.4 q 0 D +.n d.u.p.h.u.f.$.r.u.2.+.u.q.{ J $.T q.2.p.7.8 u J u.J 0 n ( [ q.( { ( 8 t w 0 w w 7 8 t 2 0 3 7 e p D J 2.n 4.T 2.7.c T 2.D +.q.c u 8 e 3 7 ; : , # , , ",
", 3 4 , ; 4 0 +.J c 0 8 n ( 0 J w t w 8 J +.c 2.+.u u r.#.{ +.2.T $.c #.D ( #.p.2.p.T f.c +.2.q.+.+.t { 0 t w D u $.t +.u.h.d.x.h.v.h.d.B.z.7.z.c d.+.u.d.e.u.q.7.T q 2 8 7 t , : 0 w 7 q t 4 { 8 c C $.D J w 0 t J e w t 0 8 6 0 w 0 0 6 < 7 < % > 3 7 7 3 < 8 4 0 0 q.u.e.D 2.( T u 8 D $.e J +.D T e 7 t D 6 7 7 4 w t T T c c 8 0 7 2.u T t $.n h.2.4.d.D ( t 0 +.n c ( u.#.h.r.' u.d.u.$.j.q.( q.n h.d.2.( h.( t p.d.q.+.( t n 2.{ e.( q.2.w w t w e 8 w 0 8 t 4 D c w t D D n J u.n D u.q.u.2.2.n 2 T 2.2.u 4 w 8 3 < : 7 ",
"4 2 4 2 4 ; : c q.0 c 8 0 7 0 0 u B 8 0 7 c w t w w t n ( D c w J +.+.T +.{ q.+.{ 2.{ +.7 +.7.J T t 8 2 8 6 0 t w w 0 $.q.x.m.4.k.z.2.7.$., D J d.k.J ( u.$.2.u.{ w 7 0 n D ' n u w 4 t ( { U 2.e w t { 4.w 0 u u e.c t w 4 6 7 c u t u c t 8 w e 0 0 u t w 6 7 8 3 8 T c 2.T e.#.n +.t t $.e +.J w n n e t n ( t 0 8 0 q w 7 7 w t 6 c c { T ( p D 2.u.U +.( c n q 3 7 q J q.p D T 2.+.h.$.{ d.q.7 u.h.e.J +.t d.{ 4.$.2.$.J w { 7.T +.{ J ( 2.D e u t 3 ; 0 7 w 0 0 w n n n t J c n T T ( 4.( c n n 9 D +.n +.t J 4 : , , - 7 ",
", 8 t ( J D c w w u T w ( D n e J t c t 2.0 +.q.t n e J ( J n B 8 n c U ( { T +.' e e.+.d.u.$.e 7.e +.c c 7 q n 7 8 w e n d.u.d.e.p.q.t ( 4.z.+.q.#.+.t.q.h.z.2.d.l.h.J 4 , n 3 $ > w 8 8 t 7.( P n w q.+.0 0 3 t 7 n #.+.+.n q n C B 7 8 w e p 8 0 J { q 7 3 0 D 8 T q.q.+.$.( J ( n ( T +.2.d.+.q.T q.D n n { w 8 w 4 2 7 3 s 0 w 7 { $.+.t C $.d.h.( n 3 8 +.8 0 0 7 n n ( 2.D #.{ T e.2.( 2.t 7 { T c C c +.w $.2.( 4 2 J t t c ( +.$.( t 2.D 0 8 0 7 > 2 2 q > 0 2 3 0 0 w [ J +.w w n ( J +.t 0 ( s 4.2.8 8 , $ ; , 3 > > ",
"0 w 7 q 8 ( u.( 0 u w J D T D J u t ' t 0 r.q.4.+.h.+.( { 2.7.n n T e J c { { 2.u.$.2.q.+.T T D n 7.U c t 2 4 4 4 8 c ( n 2.u.u.h.$.q.2.+.T e z.x.2.p.d.( +.( $.{ B ( #.t 8 , 0 3 8 8 n 0 c n t 0 w t ( T 8 8 4 t t c +.0 +.u.2.{ ( 2.( e 7 7 0 T 8 n c w n 0 5 7 ( w n 4.p.T t { +.+.n ( g.u.n +.( q.{ w t c u t 8 0 0 t w 8 n n 8 c ( q.t e 2 D d.D 2.q., 5 4 < 4 : 8 0 D J T +.+.D #.c 2.T 2.D e u w { D n $.D ( T c q c D D T D n ' $.s.n 0 t 4 : 4 8 > ; w 8 8 3 0 t e 8 n c q D U 7.( n u J 3 4 6 q w 2 * + 3 3 ; > > 4 q ",
"8 8 { +.7 3 u 3 * $ 8 u +.q t t T c q t J +.T U J 7.T 0 2.2.n 2.( c 8 8 n 8 T d.7.T 7.r.T 2.+.D D n 0 8 n w T c D t u u w $.q.+.d.f.z.m.u.c.x.N.k.j.x.h.7.s.h.{ J D 0 3 3 3 0 4 6 2 8 c w c w J 0 7 s p.T t t u c D +.e 0 3 8 t 0 8 7 3 3 w 0 8 D c ( D w w u 8 4 D +.q.2.q.u.q.h.#.k.u.e.2.4.{ J #.n +.J n q w c t D 4 8 8 4 B 0 w t 7 7 2.e q.2.k.s.r.+.w 8 e w c J T { T #.+.4.u.q.z.z.l.h.z.+.7.q.+.2.T u.l.h.k.q.u.q.+.T T +.t D t 2.T D 8 8 D D 4 4 7 6 w 3 U D 0 t n J u c T 8 q.( +.p.h.' +.n { J = ; 7 e n 2 3 7 q , w ",
"3 0 8 * - % : n T c J e 7.e 2 n 0 D D q $.J ( e J J q.n $.2.7.q q.2.{ T w p.q.c +.f.t +.( D w D 7 3 7 D 7 7 w ( w 4 q.+.( c z.e.P D ( ( +.r.+.w B r.$.h.h.4.k.7.T 2.{ +.q D 2.s q 4 p 0 0 n c J D t D 2.w 0 8 0 $.t c T u q 3 7 +.{ c 4 7 0 c c P 7.2.( D t c c T t 2.$.u.2.u.h.+.+.j.z.d.d.q.q.q.u.p.T P c u u n T T t 8 n 6 0 8 w 0 8 7 w 4 > q.( +.D q c c c t w ( $.q.d.D t +.$.T #.{ q.t u J 2.8 8 t 0 t J c 8 n J +.u $.t e w T ( n ( +.0 +.D 8 n 0 t 7 > w , u 0 J t 7 0 t q J c w D p.u.2.u q.h.2.t 7 t , > , 0 : : , > ",
": 2 3 3 0 * 8 4 ( w J ( +.0 8 q 0 2.T t J +.c t u n +.2.J $.c 7 T d.+.$.e.{ 2.2.d.( J +.q.q.u q 3 2 7 4 3 2 0 w w 6 t D t t 7.q.7 B e.{ f.k.e.T h.h.D u.u.$.{ e.4 0 2.t 8 0 c 0 t 8 t 4 3 c C n ( c 7.U c u c 2.q 0 7 4 4 0 t 7 7 8 7 4 7 , 0 n n 8 w u t n 8 w w w u D u.q.{ J { s.p.k.q.7.2.{ u u D u 0 c D t 8 q c t ( c 0 t q 3 < t D c J n 2.D p w ( +.q D T s { J p t w w J T 0 3 w 8 7.d.( ( 4.7.J d.p.e.( D c J 0 p +.+.( +.D D J D w T { 0 t 2 u e 7 w , 3 8 0 8 0 c ( D c c J ( t #.u.D 7.e.u.c c 8 , 8 0 0 = 3 = : * ",
"8 t 8 t u p 3 0 { t J c +.{ 8 J t t c u J 4.c t c 2.2.q.+.2.q.n 7.+.J B 2.c q.#.( c D { w u 0 0 4 p u s 0 7 8 q D 2 , t c +.J +.T u.h.q.{ 2.v.T u.e.l.h.q.q.g.r.z.c 8 t w t c w +.w +.J c T t c u #.{ n c 7 u w w 8 0 p w w 5 D c c c u w 8 7 u +.0 { J J u ( n D r.J 0 +.+.p.{ q.u.z.7.$.d.e.$.D P J t 7 J 8 t 8 t t u n 3 8 7 8 7 8 w t T 7.h.+.6 w ( n e.t 3 8 0 6 2 D c n 8 D ' c 7 c $.d.t f.d.h.k.q.f.r.u.c t n e t e 2.P n $.T +.$.#.c t U 6 7 0 0 c w , , c t , 2 0 t +.J ( 7.( ' ( t.q.( { J D q.+.e.w n 4 8 , 3 3 3 : ",
"0 0 t t u ( u D t w 2.h.c 2.q.c 7 c 0 0 q c 4 q J J [ u D ( ( $.t 7.+.+.J u.p.r.D e ( 8 u n 7 ; , 2 7 8 7 c 0 q w T n ( +.J 7 8 $.u.e.$.u.d.2.t.h.d.[ c 2.n 7.r.h.2.0 0 D 0 4 3 : 0 7 n 8 7 J u +.n c B 7 e w D w c c 0 w e 0 0 , 8 4 u c t 4 n n { { ( T T U q.J w n { u.#.7.h.d.s.d.7.{ +.$.( n 0 B 2.+.d.( ( #.J 8 0 0 t c t c w w e q { 0 u.2.J T ( J p e c u w c e D t q c U 4.q.7 d.n ( 7 2.h.d.h.j.d.h.2.J w t u u 8 w D T J ' J n 2.D w w < 2 4 ; c e 8 0 8 t 8 7 t w T r.2 0 t t c d.u.+.7.n 3 q 0 0 n U J u.' 4 T J : ",
"= e u T { +.$.t 7.q J { 0 w D 0 t q c , 7 w 7 7 3 2.+.T u w D c D 4.' r.q.d.u.+.$.J ' 0 q u +.0 8 8 , 4 7 t 7 e 8 +.D +.$.p.q.+.4.w D t ( x.u.k.+.t c p.u ( n D c 8 2 7 { w 4 2 - , c t 8 0 0 4.q.7 +.e c +.w 0 e t e 2 6 0 ( 4 w 7 2 2 7 4 7 0 T u D w T 0 w t #.q D t e.h.d.u.q.z.h.e.D 2.D D T n T w T t P 0 D 0 2 e 7 c c n D w u u 8 J 2.#.2.n #.n J ( T 0 D 8 { w D 4.2.0 c { f.2.h.u.u c e $.+.7.2.u.7.q.c D D t t D 0 c { J c +.J +.T ( u 8 2 2 2 6 7 8 7 7 c e c 0 w t e c t D D { p.r.r.q.d.T n 0 w 5 w 8 2 ; > 6 > 3 ",
"4 n q u 0 { T c $.t c 0 0 q 7 2 6 7 q 7 0 8 7 7 c T w e 0 c u +.n J $.u.p.u.h.q.+.( u t 7 8 w e 0 6 2 4 , 3 1 0 n ( { t D J t ( q.n p.c 3 w 0 u 2.4.2.{ ( 4.t { c c ( D t 7 > 3 0 0 e t n ' u +.+.t c c ( J 7.{ q.2.2.C w t p c T J D D c n 0 8 t u 2.+.c w e w t 2.J q.7.u.$.q.7.d.2.t 4 2 6 q.( +.2.2.t n 0 n 0 0 2 4 8 2 c 0 u 8 n n e w +.+.B ( s t 2.D ( t c t c 3 0 2.+.7 ( +.c 4 +.7.n t = 7 t 2.q.d.e.2.J J t n t C e w w J n ' T n $.( ( 7 3 2 > 7 4 3 w 6 7 c 0 c t e 7 6 0 ( D q.u.$.q.n t 2 7 7 8 8 8 2 t 2 1 q ; 1 ",
"2 7 n 0 t u 0 T T 0 D T { w t t 7 T n t J J D { { 2.#.( ( U c 0 P ( c ( u.{ u.s.u.$.D d.U 0 t u 7 2 ; 3 t 8 , 7 8 ( T T B 0 ' r.u.w d.z.j.u.u J d.k.( ( C D +.2.+.( t 0 t , : q 7 w q 4 2.0 +.c D #.T 2.q.2.' h.j.u.w 6 0 t ( 2.$.q.s c D c u s D ( J +.t 8 w w D J q.+.e.l.d.h.z.k.b.f.q.J T $.J T 8 J t D 0 w q 6 8 7 w e 0 7 t ( 0 u u +.8 n D ( T q u c c w u 8 3 0 t 0 n 8 0 D U 8 7.$.: : u 2 8 7.q.4.d.q.c n t t q.4.D ( c B B u { ' n 0 0 9 w c ( 7 3 # < , 8 3 n J 4 8 t c #.c n 7.' r.u.w t 8 8 t 8 7 D s : , 0 : 2 2 ",
"6 +.8 n t 0 n $.J 2.w 0 w 8 t 8 8 D 0 8 +.4.T 7 { u 3 8 0 t 8 ( u T n D $.c e.q.r.' #.D D 7 8 8 3 3 < 4 3 3 2 3 6 p T ' 3 D q.7 0 f.+.D T 7.g.+.d.q.u.J J ( w 8 D J 8 q , 3 2 t t 0 w 0 D ( q.8 0 { +.n T w $.{ T ( t q ( J +.D J +.t 4 t 8 0 D 7 4 8 8 c q.{ 8 t q +.$.( t 2.u.2.u.q.{ e.8 7 q e 3 8 n 8 u e 0 c 7 7 u > e : 2 4 7 8 q +.D J w 0 ( u +.#.t w w q 2 8 8 P ( 3 7 w J +.0 d.k.0 p D ( 0 t e 2.n u.p.u.u.{ n D 2.$.#.q.d.#.D n w t 7 4 7 n 8 , # > 8 3 9 4 0 3 7 u , 4 3 t u 2.u.2.7.k.$.2.T J e , 2 6 8 3 , 6 3 D ",
"q % 3 2 t 4 e t c c t 8 w 4 c P , c w 7 q 0 3 4 8 T t D u n D T u n q.2.T #.u.4.u.T D n ( w t 3 2 2 3 3 > ; 8 w 0 D ( t t { T q.s p.( ( w { c +.( 2.c c d.u.u 8 c +.$.c c 8 2 0 0 t t 0 4 w 8 4 7 8 e $.q.#.h.r.J 2.{ +.q.c t ' n ( w ( J q.n e.q.8 8 c u +.c 0 e { q 3 0 e C T q.e t +.2.$.r.q.T : 0 7 t J t w T D 7 7 8 0 7 p q q c t C ( +.c 2.0 q n t J 0 < 3 : > 8 w 0 0 0 J { ( 0 k.d.q.q 9 +.2.u.' t n 7 D w $.2.( +.2.r.u.D t w w q q w t t 7 7 7 = & * : 7 8 7 6 7 3 , n ( 7 t +.T 2.u.d.+.J $.n 0 8 0 w u 2 ; 2 6 t 6 ",
", % w 2 w 7 8 c $.u.e.e q c w 4 t #.0 w 3 8 0 c e 8 8 D ( t D q c { u.2.n +.{ +.$.T 4.J u c t 3 3 < < 3 3 2 7 t 0 $.2.0 4 0 0 d.z.U z.t.x.z.h.q.z.u.e.h.r.T t ( n n t < < , 3 t 8 8 0 w $.w t t 7 4 q 7 4 p c +.e t c +.w 4 8 0 #.+.t J t D ( J 7.e w ' P w c w D n D ( 2.J q.t #.t e { w n ( 8 w t c t : 8 w 4 2.c D 6 0 4 8 7 3 3 4 4 < t 7 0 4 2 4 2 3 8 w D 2 , % 3 8 - 8 0 w +.0 ( 2.J D ( 0 t c n ( D +.n t J c 4.u.+.q.T D J n T w 4 7 7 8 7 6 3 % 7 6 2 + * + : 2 e t - 0 q 3 w 1 0 4 8 q.J c 7.{ c 2.#.$.0 3 t t D 3 7 ",
"3 q D J J J 2.B J #.T 0 c 2.0 u 8 0 ( D 0 6 p B c D 3 ( n c J J 0 d.u.2.2.$.c w +.$.u.T ( ( D n w J 8 3 > 1 7 7 ( q.2.0 n t e.u.4 q.d.+.8 q.2.7.2.g.2.u.z.h.k.u.e.e : 2 , 3 8 w 8 6 n 0 ( 0 T 0 e J c 2.{ ( d.2.h.n 0 +.2.( c ( T c 0 n t ( J ( q.4.{ q.J w D c t J { ( 2.$.{ 4.{ J c u.{ 4.q.D q.3 7 3 7 t n t D c : 3 2 4 , < 3 4 t e 7.$.u.u ( c T 7 t w 4 4 8 + : * 3 6 w 7 t u t D { d.u.u.q.2.T e u T t +.+.w C 2.u.2.7.$.T B n t c 3 7 8 2 0 2 & > 7 ; 1 ; 4 4 = 8 q 2 p 0 e t J 0 n e 0 7.( c n ( $.u 7 7 8 0 7 0 0 ; - ",
"7 8 7 T c $.T $.D u +.4 c J D w w 8 t t c 8 4 q.D 4 7 4 6 0 e 0 0 t ( c 8 7 n D u ( D 2.J 8 e q u 7 , > 7 8 7 D u.( u.J q.$.( q 7 $.< { q.{ d.2.l.d.q.c d.$.e p c c c 0 w n u 8 < , 2 7 D 7 J { q.{ $.0 n T w D ( c w e J n T c t D 8 n u T $.4.+.J J c 8 c s D D c 0 n +.+.D u.e D u e.{ +.D q.{ D t > D c u n u q.r.q.T n +.0 6 , 3 4 c e 7 8 : 7 D q < 3 4 & = X X - w 7 C 3 w J u D e.q.p.u.d.7.t e 8 { 2.c n T c $.h.( 2.q.u c u t 7 4 0 w 0 < w 4 q & = 2 & + + @ , : e 0 0 8 0 w q t n n 0 J e 0 +.+.t u w w 0 u 7 , 7 0 ",
"4 0 6 T ( ' D 4.D 7.T 8 w n c 6 P t w t T ; J w w c T t D u ( J t T T q 0 c 2.J 4.2.$.q.2.3 2 n 0 0 4 3 3 3 4 ( +.{ J ( 4.d.T ( 2.$.d.D B 7.h.q.d.q.q.#.n J $.c w c T D n J 0 0 4 6 7 +.T t p.+.u.2.c 2.( 2.' $.( J n u 0 w 4.{ D J u 7 0 t 8 0 0 7 4 n t 0 0 c D c e +.D r.D e.( T 2.j.c D { w h.u.c 4 n c $.{ 2.( u c n 6 w 7 t 4 0 0 w 7 0 s c w t r.n 4 4 2 - * 7 < 2 0 e 4 t D D u +.4.z.U +.u.' q c J ( U T B g.h.4.+.4.2.7.c t J ' J t 0 J c 0 > 4 % : , > : > : : : 3 8 0 B +.t D +.q.J u 2.D ' B J D u 7 q 8 : = > 0 4 ",
"0 0 #.D +.J ( J T ( w e 8 n 4 2 0 8 w +.q.w e.u.u c s u c 7 0 u c n u w 4 4 q t 8 c J ( c t t w t 2 4 3 0 7 e u t 4.0 +.q.h.v.{ D 2.l.7.l.2.h.z.d.( q.J u.q.2.u.4.D #.7.+.J n p 3 u e w ( ( $.J ( C t { { h.u J u w w { D t t ' n w t c w 7 , 1 4 0 2 c 2.t 7 T 2.' #.$.c u.n w 2.( 7.t 2.u.+.{ z.$.u +.+.T n t q q c J D w 8 w 4 3 4 4 t J t ( D 0 D 0 u 8 8 3 ; = < - = 3 4 , 0 n n c q.u.g.h.p.$.D +.+.D w t D n T $.2.u.q.7.J t D c c t w 8 w 0 8 8 3 ; 2 4 u 7 0 ; ; 6 t 0 q 3 t 7 6 8 3 T q n t n J 7.0 u u 7 : < c ( w 2 ",
"4 8 0 J w e D ( $.n #.J w 0 4 8 q n 6 t u.u u D ( $.c D e 0 t n u 0 0 J t w D D e c q.J J t J D 8 7 0 , 0 c ( n q.p.t k.2.q.T ( h.0 D 0 e.z.z.u.q.e.q.h.h.g.T { $.c d.$.d.u.u.+.u w c w { +.t t p 8 2 3 8 c 0 7 w ; w , , ; w +.D c w 0 7 0 8 w 6 8 w c w { t 4 7 7 0 t w J ( w u.p.z.+.' n n 2.2.+.n ( +.q.T n 2.D ( T w 7 , 2 2 0 3 3 > 8 t 8 n 7 q 0 2.7 3 w 4 3 7 , , 3 0 3 w $.T J D 3 J { J 8 t D C p c J c w D 2.J ( ( { 0 0 w c P T J 8 4 > : 4 4 8 0 0 6 3 4 8 4 7 w n w w B w t u 0 t c c B t 2.+.e 0 2 0 C w c 0 t q ",
"J e 0 0 # 7 7 4 T e.( 2.J n 7 8 w 7 t t { J q.{ 4.2.t { T J ( n 0 [ d.p.#.t 2.d.u.2.J 0 8 7 t 8 3 3 t w n 7 q t D ( w u t w 0 t C 3 +.d.b.z.d.#.4.2.+.J u.c c J w $.+.4.$.e t u 0 t 6 w e p.u { { T 4.h.+.e.J 8 D 8 7.t q T 8 7 t 0 8 8 w e 7 0 4 q 7 u 7 8 4 0 < : q t D ( t T #.2.q.2.J r.u.h.2.+.d.h.e.q.{ u.T +.T J n +.8 D 0 9 7 c ( 2.+.J +.( t q D u 2 8 8 2 6 8 q 8 8 4 { 7.q $.q.J { d.4 0 2.d.q.7.u.{ $.n w n e c w u c n w q 8 8 0 e 7 3 2 < 8 4 2 3 - 3 7 2 , 3 7 { 2.n q 1 0 T $.q.q.( e.0 w 0 0 3 7 u q 3 5 , 3 J ",
"2 8 7 w 3 q t { n ( T t w 0 0 6 9 J 0 t D $.7.D T ( n u e.D +.0 n D ' T h.( T h.h.+.J u t 8 t 8 8 8 t t t P n t T J { q.2.#.z.z.q.f.u.h.e.u.2.J r.u.{ { 7.q.w u.s.q.2.s.D 0 c e.u 4 n 4 q < D T 2.t $.#.#.( +.t 8 w w 8 t 8 8 4 D u 7 t 0 6 t 0 7 4 7 q s D 0 w 2 6 0 w w T D { w 0 J { 2.+.D ( t n u.h.u.p.u.+.u.+.J J n 8 7 w 8 0 8 4 7 7 u c c T u 0 T e 1 w 2 ; 7 u e t 8 t t 0 2 t q.l.u.$.2.#.q.q.4.D c ( { w T c q 7 u D { n 0 0 t e w ' t 2 7 3 q q 7 : = ; - > 8 0 3 3 4 +.t T ( D J 2.q.0 7 t 4 e u w 7 7 7 8 4 3 7 7 ",
"$.J ' ( w t 8 $.( T D e t e 0 w 3 3 8 D D $.2.T $.7.D n q.P u.{ ' w D { ( +.+.2.d.u.J e w D 0 0 8 4 6 6 8 0 q t t J D u.c $.J w { z.$.d.u.( ( +.z.u.4.P D +.u.u.q.( w t 0 3 c c c 2.{ $.n 0 D u.+.2.e.T +.+.2.T q 7 0 +.+.t w 0 ' J w t 3 0 7 7 0 7 q 0 B n D D u.2.( 2.J p.$.7.D c { n +.u.J c U D n q.h.u.q.c D +.( 4.f.7.8 n q n T 7.+.p 0 t n { D 8 u 8 0 w t T 7 q 7 8 4 3 4 2 3 2.2.u.r.+.4.J T +.$.0 n #.T r.t c t +.( w c t c n w J n 0 4 8 8 4 q 0 2 + > 4 ; - 3 : % < 2 3 , J w D q.( ( J 8 $.J u.#.D w 4 7 7 4 q 7 7 ",
"2 n e.w D ( 2.{ 7.2.t c u 8 8 D 0 0 7 e 0 0 u 0 T D T +.T p.7.D J 7.u.' 7 4 +.( q.$.t D t 4 4 4 < 3 4 q c 7 , 3 t 2.2.J u 4 J 4.q.u.h.T n d.e.J h.w { $.D D t t w 0 3 2 2 3 2 7 4 J D 7 t 8 2 +.2.d.2.{ t.( +.D t +.{ n +.7 c c { D u 7.0 8 e e 8 7 7 t 8 0 2 4 c T $.( J 0 $.D c t c q.e $.t J , 3 w n T q.+.6 u c w 8 8 c w c e D D 7 8 0 4 8 0 D ( 3 8 D B - 2 4 8 3 , 7 3 4 2 < w f.7.p.2.+.q.n q.0 8 , t u 2.w 0 6 { +.T w 8 8 w 8 0 D ( 4 8 3 0 2 2 , > & , 4 4 4 8 3 6 7 { 0 7.{ ' +.h.u.J { n 0 J d.2.q.2 7 4 w t 3 3 D ",
"w 7 D c ( T ( +.n D t 3 2 0 7 0 w ( n 7 8 +.n J J q J T ( 7.0 n +.+.J u 0 6 T $.u.2.2.D +.D 8 ( n 7 8 t q 8 8 D t D $.C ( +.e.z.N.h.q.T n ( u.T ' #.r.h.u.q.u J q 3 7 2 6 t 2 - 3 0 8 w n c J 2.4.2.n U d.+.( ( 8 3 +.e w t t 2.f.t J D w e 9 w 0 J t 8 e 0 0 c $.#.u.( d.e.#.d.q.p 8 0 q.q 0 4 c 0 0 +.u.d.{ J #.D 4.( ( $.t J J 8 p 0 0 : ; 0 8 w 3 > ; 2 w D D n 0 e 8 , ; 3 D w +.t $.4.2.$.p q t ; 2 2 T 7 e D w q.n w 6 0 w c 8 2 2 , n e t 6 4 0 : : > * > 4 3 1 , 4 4 c 8 t n J 2.$.q.u t ( t , ( n q.( 0 c 3 2 7 3 < w ",
"w t +.2.+.c 0 D D p { 8 w t t 8 4 7 +.c t c u p c q.c 2.{ ' ' J T $.c c +.2.+.2.{ q.J n t w C w 7 4 < 3 3 8 0 c T h.D u.d.4.2.$.l.r.h.n w J n ' u.4.2.+.2.' $.{ q 3 4 8 T 9 4.u #.e ( w c 0 e r.h.+.2.2.( { D c c ( c w s ( 7 ( #.n n { c 2 7 c D c t ( T t 0 T J T q.J c e.2.d.h.2.u.d.q.2.t J c +.' n 7.u.s.u.p.q.2.n T U 2.J q t < > O : 7 2 4 q D : : : 4 q 7 3 @ 3 D q 4 8 7 0 J D { $.2.c c c 8 : 2 3 7 ( 7 3 { t t u t D u B 4 0 3 < t 8 7 w w , 3 , & ; 3 8 0 7 : 3 t 8 8 T T w D 2.u.d.e.c 7.J B w e t 8 2 w 7 w w 3 n ",
": 8 % 8 8 2 2 < t u t C w 4 7 w D { 2.( q t t t w +.{ w +.( 2.D +.( 0 e.T 2.J $.7.d.u.n t w 0 t 7 0 4 2 7 4 w t 0 { { u.2.k.h.7.d.z.d.h.J q.2.s.u.2.2.p T q u c 7 q 0 n , : 2 w q 4 3 3 4 8 D ( q.n u.D 0 w t n J 8 w 3 8 { 0 ( J $.D ( t B c w D B 7 0 t c e 4 0 0 u s.s.u.k.l.4.d.+.4.q.( 8 ( T { +.$.T D T 2.p ( 7 0 c 8 4 0 3 7 7 : > 8 t u w D +.8 0 7 2 < 0 5 > 4 : 7 u q 0 7 7 t D p 4.4.+.n 7 w t c t w e 2.+.8 w n t c 6 3 0 q D 0 3 n w 8 0 3 0 - : : & 4 4 8 , c c 3 q P C 7 w { 8 u J d.d.e.( n #.7 7 0 3 3 8 0 6 2 ",
"c c D ' T c D 6 4 w 4 > 0 8 < > 4 0 2 u s 2.c n 0 T D T ( 2.+.{ { T u.u c T d.7.2.' k.$.2.T ' w 0 4 0 q 0 7 0 8 e T 4 c D #.d.d.k.u.u.c J c $.+.+.c 7.$.U w w w 0 , 7 e h.u.J 0 D 0 8 0 6 0 { d.u.4.+.c 2.n U w t 7 d.$.8 J n { e.$.p c U n ' e ' +.0 q t c n C 8 7 T n c +.q.4.T 4 w n u.q.0 +.{ ( 7.p.z.l.f.k.j.u.t +.T D t B n e ; , 2 7 c +.( n d.+.T n 0 0 3 7 u T t 8 w 7 t J n 8 J d.p.e.c 0 8 0 J p c w D 4.+.c u t D J q 4 J n 8 u T c w w 0 8 7 0 3 - , , 0 5 4 t n 8 w s +.c c +.4.$.2.$.f.u.2.2.0 c n 2.7 8 t c J u ",
"t q.2.u.d.c t q , n 7 2 > > , , , ; , 3 0 J n 0 e n T u 4.J ( { +.t c q w s T d.' r.J D { { n 0 0 c 0 4 4 3 0 7 w 7 c T +.T h.q.u.m.q.c { 2.n t { ( u n 0 0 : w 6 ( q.f.z.2.v.N.z.u.r.2.p.J 0 , 2 8 0 2.q.{ +.t e t ( e J 0 e D t J J t 8 0 ( n 4 7 0 D 7 w 2.u.n J J 2.4.r.h.d.8 7 2.u T +.D u.T 4.d.2.k.x.z.v.d.{ c ( u.{ { U u 3 = 4 J c q.t 8 0 J ' n c 7 0 n t 0 w 0 c n 8 3 4 q t n d.4.p e n w C T { 0 0 c r.( c D n t p D B ( 7.2 7 ( U T ( q t c ( ( 4 0 3 < > 2 7 T 3 n D n t e T n D J 2.2.T 0 w { D 2.$.8 3 7 w c u ",
"t n ( +.q.+.B 0 6 c e 0 6 3 2 3 8 3 3 , 4 w 7 e 4 q q n p t c 4 D s U n u u e t 2.z.e.#.q.8 2 8 7 6 3 8 w 7 3 4 0 7 J t 7.u.{ e.2.q.T c 2.J { s $.w D n w t 4 4 8 = 4 7 3 u D e t 4 4 e 8 q w J T p.+.D r.e c t w 4 w T p q P q.$.+.D $.$.u t 0 e D c 0 e D u.q.( J #.' U D c d.7.+.' 2 3 4 d.B w 8 D u ( u +.{ D 7 u 7 > ; & : & = : : , , > - 2 9 J q.w n q B n J ( J ' w 3 2.8 7 3 0 +.+.p.w e 4 8 w n T t 8 $.2.T u D C t c n u n c 3 e u q t < 0 4 > : 7 4 8 t < > = t < > 8 8 c 6 t ' 8 8 p 4 t 8 c 7 w 8 ( J 0 0 7 c t c ",
"t 7 8 T 7 t 8 7 w J q ( 7.c t 0 q 7 w 2 0 8 7 7 0 c ( t T t +.8 c 7 t $.h.J 2.k.f.d.7.$.u.+.h.2.d.T { +.c 3 e n 7 4 3 6 T J q.w T ( u 8 n u u q c w D 3 t w 0 7 2 , : w t h.h.+.h.' 0 D t t 8 t u.u.u.T $.n { 0 n 4 3 3 , t 7 c +.P e e J T J 0 D $.7 0 { w c q 2.( w n 8 8 c 0 D t t t e t D c 0 +.c t e c p n c 4 0 0 : 2 , - : < 3 6 e 3 w d.( +.d.#.q.7.n q.u.q.p.#.c q.t +.D u t 2 , 7 u ( 6 3 0 e e < 2 ; 0 n T e : n t w D n t t 3 u t 4 4 3 3 > 7 3 : 4 8 , 4 : , , 8 w 0 e ( c D c q +.#.( U J c +.q w T { w 8 U t C u ",
"c n c 0 8 u.T 7 $.0 8 u 0 w u U c D c 7 - q 7 e 4 7 8 7 J 2 8 n 7 +.h.h.z.u.2.4.e.f.2.q.{ ( 0 n u D $.( D 0 3 0 8 3 4 D t +.4.$.k.u.t 2 0 e J t D D t #.T e e 8 8 2 < : 7 c 4 < : * , 8 ( D $.u.u.J 8 D d.u J 2 ( 7.7.t B t c 0 ' +.4.D c T u w 0 n c c w w w 8 +.e 8 t t D J 8 T 7 8 t w u.u c q.J 2.w +.e.7 T 8 0 J T 6 ; > , , 0 u.2.4.h.0 4 c J { J t c 4 0 7 c c c t 0 7 0 8 7 w 4 3 8 T P J q 2 6 0 : 4 q 0 8 J J w 3 7 w 3 8 7 t 0 8 3 0 2 , 3 : 3 - @ = 8 4 4 , 4 0 4 t 0 B 0 +.U +.$.{ D q.4.J +.4 t 8 q c 4 > 0 0 q w ",
"0 3 w n c n 4 2.q.2.{ k.q.$.T J T q.U n c 0 t t w q t 0 3 0 B 8 7 J 0 8 D J D n 2.d.+.z.k.k.2.D u.e 0 0 8 0 t 8 3 8 6 8 t n u.u.q.w 0 4 q t 3 4 7 D C c 4.+.0 0 4 2 , : 3 3 c 2 4 , 3 0 c 3 T q.d.7.$.q.+.0 e u w 7 T 3 8 w D 0 n w D $.w w w 0 D U D w w u w 6 q 2 T 8 8 ( 8 u +.4.D $.n T q 4.q.2.{ J r.n q.T t n J $.2.D 8 3 = : & + # ; # & J r.( p.q.T ; * 4 t e u , 4 q w w c w 0 7 w n c D w , 4 7 4 : , 2 8 c 0 w 7 D t p T 8 7 7 3 e 8 3 4 5 6 7 > - ; > t 2 4 2 , 7 0 w e 6 J c D ( d.+.d.h.e.2.u w w 8 8 7 4 c t e w ",
"0 0 u J ( c n ( 2.u.h.b.D J B U 4 D n n c c 2.T $.$.{ T 2.D w n { 4.D +.g.+.c $.7.k.h.h.q.c n n w 0 t t D 8 6 3 : 3 2 2 c { +.q.d.2.u c T 0 w c w c c u D q.u ' 3 2 8 2 & > 7 ; , , 7 n ( n 2.u U 4.D c c t t 3 0 ( 8 8 3 8 +.e +.U 2.u.D n c { ( D { c p c 6 e D n U 0 c D J 0 +.r.e c 0 0 2 D ( 7.( 7.{ 2.q.( #.' 4.e.2.D 3 n t 8 , , > > 8 7 q 0 p 6 D t 7 4 3 4 0 7 3 : > 4 q e : ; 0 4 c n u w 0 4 8 7 q 2 , 3 7 w < u ( e 6 7 0 w 4 8 , 3 3 u 8 e , 4 : , 8 7 6 t 6 , , 3 0 7 7 3 8 w 8 c 7 t c 0 w t ( D w u u.q.0 8 t 4 ",
"8 4 T T 2.t u.2.#.n c T w J ( c e { #.e 4 0 U q q 0 , n 2 0 q D T +.{ n w 0 D c t 2.q.d.D J w 4 q e 0 w D c 8 w w 8 { 8 2.7.p.r.#.h.T c ( t J h.e.n c P T u.$.2 , , 3 > 4 , , , > 7 1 w +.{ q.D ' q.( 4.q.{ n ( q 7 6 7 7 8 n 8 q.0 t t T t n t n n t 0 J e T 2.q.c ( u 8 c e $.t c 2 3 7 t 2 0 { 7.7.4.u e 6 0 , : , 7 7 8 2 2 2 8 > 0 e 0 n 7 c J ( +.t , 7 t 2 4 3 4 0 8 7 3 , 4 0 8 s 7 w D c 7.( t 8 u w n 0 w e c 8 7 7 8 8 , 7 7 0 7 3 3 2 : 2 4 2 2 & , 2 4 7 4 ; 3 c c w 0 J e 0 e n P { u u T 3 n ( 4.4 c 8 0 3 7 e w ",
"( q t c D w u $.{ u e t 2 0 n 2.n u.T n 2 D D D t t n D ( n 2.' $.J t c ( w c T T +.7.D D ( ( 2.P 7.7.n 0 t t u J u n c 2.u.3 7 2.7.T D 3 t c 7.2.2.u J $.c D +.8 ( u q 3 ; 3 = ; , 0 7 7.s.J u.{ 2.2.D +.D t c 3 { n J c 0 u 0 e 0 D e +.n w e T T c c 8 c J D +.D ( D c t 0 { +.u.e 8 0 c t u ( q.d.U $.D c J w w e 3 0 4 7 2 w 7 7 0 0 c q t T J T J c - , 0 7 8 3 8 t 7 0 3 2 0 u J w e t 2 > 0 8 7 T +.( 7 n 0 0 7 8 4 t u w 8 4 0 4 w 8 ; 3 7 > , > - 1 3 8 4 3 3 : w J ( 7 c t 4.e.u.2.7.{ D { t t t 0 ( 7 3 < 7 u t n e ",
"2 7 , 3 c > t e +.d.t 8 < 3 0 ( 3 e t u 0 7 e D e T u.J +.( t n D 8 n n t 3 t n J u.+.2.k.{ ( 2.t 4 w 0 0 t u c e n J +.4.D c +.4.N.u.$.0 q.D 2.u.q.u.T c 6 7 t 0 7 q ( u c c p 0 7 7 t 8 t ( u.4.d.p.$.( $.u J c ( T e n T +.c w J n D { q.t n T J +.J 7 n t r.U 2.t u #.{ q.+.8 p.7.n 0 { c 2 ' e +.e.e n T D J r.e D ( t 0 > 3 e 6 < < 8 q q.2.$.{ T ( w 7 7 0 0 2 : w 8 3 , = , 7 4 8 4 0 t 7 t T q.' +.+.D ( 0 8 w t t ( D c c c 0 : 0 8 t 3 7 6 3 * 3 4 < 8 7 < 2 8 u c 7 w 0 0 T n T q.U 0 8 +.n 0 7 3 4 8 7 8 7 4 w t 8 ",
"t c 8 0 u.c t q.c t e 0 3 ( J n 7 e D D 4 0 8 t J 0 c n n J 0 c 0 w 0 3 0 c t +.J q.n d.h.u.c T u.( +.q.q w c D w w : 2 J D 0 J u.p.+.u 4 w 0 c 2.( { c w e 8 T +.w ( 2.u.q.+.2.2.e q 0 e ( u q.2.#.#.D c w u ( c $.{ n t 8 h.( J $.0 { { 2.t 4.{ ( T J c D { w t c 8 0 +.c n ( 0 c u.q.J $.c +.3 2.n T p.2.+.U t w q 7 3 > & = , 4 8 4 2 0 T n c 4 { c t 0 q w 7 > 3 3 , 8 6 7 2 > 4 8 4 4 0 0 e 7 8 c J { 4 3 u 8 4 c 0 q T $.0 2 0 2.8 c n T { , - % 1 , - - - > * ; 0 4 < 3 8 D u 7 0 u.w ( ( , 3 < < D , 4.q.c h.w 8 t n n ",
"4 q q 4 J s 0 +.7 w 7 8 0 q +.{ 0 J n : ; 2 8 c t J { #.3 3 2.c J J J 2.w 7.7.+.p.q.{ 2.T 8 4 2 8 3 w c #.q.U 2 e 0 3 w t q d.h.J d.2.f.n 3 4 D e.u.{ J { { n T t w > e w ( U 8 7 , e ( e t ( J ( 0 n $.+.0 0 4 { 4.U t c w #.2.e.$.D c J T D 2.2.0 0 t c n T c u ( T J #.D 2.q q { 2.s.d.u.J w D 5 8 2.{ h.U 4.{ c w 0 > = * % = ; , : 3 6 0 6 0 : 0 u c w 6 0 t q 0 8 0 4 = t 2 > 7 u e w T J T t w ( n { c 7 c c 7 4 7 w ( w 0 0 3 T 8 w 8 4 * * 2 > = , 2 , 2 - 2 > , 7 8 8 7 q w w 2.+.+.T ' d.8 n 7 c 4 c w e c c 7 2 4 4 ",
"7 0 0 7 $.J 8 +.2.3 4 7 2 0 c q.d.q.q.t T 3 4 w J J c T c n 8 7 7 0 2.u.q.2.+.+.( z.h.h.z.+.h.{ l.+.{ ( k.+.t 8 0 7 4 w n U u.u.u.n 2.#.3 n T J J u.c n ( c 0 0 4 8 2 , 2 2 , : w 3 w J 8 0 D $.( t e D q J t r.q.$.+.J D 0 4.e.u.d.d.+.u.u c D +.u w w { #.c 7 c ( c q w 2.e.T +.q.t n t D e t , 4 w 2.c J { 4 c 8 D 2 e 3 - & & ; ; > , 3 4 u 3 , 0 4 0 6 4 2 8 4 0 J 0 , - 7 2 , 1 q c T u D ( n T t +.q.D e w n c 7 8 w ( 8 2 q 4 e B 7 0 0 0 , 2 3 3 7 < * : , , 4 3 8 c n t 7 t w D 0 n 2.J t c T J 0 d.{ 2.#.J t w t 6 0 ",
"t 2.( $.n c J c ( 6 e D 0 D ( $.2.2.t.$.2.{ u.u.4.$.k.z.$.2 0 t 3 w u u J D 0 c w w h.#.f.4.t n +.q.k.d.k.U u.e.s.w 0 c 3 0 d.d.( 0 8 3 4 3 c $.r.4.( +.q.4.T ( { t u.h.7.q.4.7 3 0 h.{ > - 3 8 8 0 7 J 0 D 8 t w 8 w +.u w t c l.z.q.2.2.D n 8 w c $.{ $.T 7.c C { u t e w T w 2.( 2.{ 2.D D D c w 2.q.r.t +.( t D t w T > % @ $ < = , 2 4 w B 0 0 e n D c D q 2 > w q 2.c e , w 0 2 7 4 7 n J C 8 4 3 4 7 q q.J 0 ( 0 e 0 ( D t 0 8 0 t u ' $.7 t w c 3 2 2 : ; - , ; 2 8 c 8 u 4 , e t e T $.T ( T t +.$.+.q.d.u.c #.D e J w ",
"s t t 6 0 0 D J D 4 3 e n 8 t 8 U +.$.+.e q 0 h.x.+.J k.k.c J c ( D { +.2.2.q.u.w #.' e.q.+.J +.q.c t u.( 3 4 C J 0 w q e 2.k.h.{ 0 u q n c 0 ( n 2.2.d.q.u.w 0 +.#.e.2.2.w u c p.q.8 , - w $.q.f.q.$.c B 8 D q.0 u.J 2.e.p ( u s.0 4 4.D p.{ 4 J 4.2.D 7.D t t t c n t T D 8 J 2.B q.e.e.{ p u c q D 7 B t D D D t t w t n 2 > 3 8 5 3 t u 0 n , u q 8 u t D e q e 0 J D { 3 4 D 7 , n c q 2.2.B q 7 2 2 u 0 T +.w c w c e n D 0 ; 0 q D 0 3 q.J T 4 2 8 0 7 3 8 8 0 3 2 3 t J 4 8 0 0 t J D +.( t t e J t n u e 2.T e t u c t ",
"+.J ( D t c w D q 4 7 c { +.+.w J ( n T 2.t t t c 7.+.n 2.D 2.( u u 8 D s q.J 8 u.d.T d.d.q.{ q.T p t +.' J { e.{ c w u e { u.0 C n e d.$.+.4.J d.q.e.T u #.{ 8 8 8 3 6 9 ; 2 : 7 , 4 7 : > e c u.u.e.q.8 w 8 t ( 4 3 T { c { +.0.D s.d.p.7.7 t J w n J 2.q n p J 7 u t t D { e.' T ( 7.u.t w 0 0 8 7 t T c t 8 w 7 : 8 7 0 2 @ * : 7 , 4 0 7 8 2 { +.r.2.t ( ( u 0 ( 2.T J 1 w J T D 4 < t q T 7 0 0 : > 0 4 ( { 2.q D c t 8 c u D t u J c 4 w 8 , 2 , ; : 2 2 4 8 7 w , 4 7 8 c e 4 t c c c +.J J D J ( 2.r.q.u.+.q.$.u J ( C ",
"( 0 0 8 u 7 c u D U 0 c u +.2.d.7.p.d.7.h.q.v.j.d.u 2 0 t ( ( t { e.$.$.7.e.2.z.h.d.q.g.d.e.h.u q 4 , 0 w w J t J 0 D w 0 D { n n c J u.{ T 2.$.C ( P c 8 c ( ( D e 8 3 7 : 7 2 , 0 8 3 4 7 t U T J q.7.2.c ( T 0 7 p.' c d.k.+.p.+.( w 2.{ w 7 7 8 8 3 w 3 t t n D w 0 #.+.q.q.U h.q.' n t t { ( 0 w s t { 0 8 2.c 8 1 * , t ; * 1 * * * 4 8 J D 0 u J c D w J c < 3 e.T u u q s 2 w t n 2.+.{ 0 3 8 0 0 w +.T J D 2.{ T u t w D q 0 w 0 0 > 8 J 7 7 > = O O % : 3 3 0 0 7 > 4 u n ' J n +.T +.w { n P d.( 4.$.u.J t c w J n +.",
"n t 7 2 7 0 7 0 u 0 T T 3 3 4 0 w p e T J w 8 t * # 6 2 8 0 2.D T 2.+.8 T t q 0 D $.u t T D f.u.{ 8 0 8 u.n J 0 B D w c u c n 8 J r.q.{ T k.2.D J t q w w D J w u c 7 3 t 3 2 8 7 8 4 > , 4 q +.c u.w C T 0 #.+.2.J 4 0 8 4 c q.q.4.4.$.D c D T c t w t t D ( u w w 8 T +.2.0 ( { q.2.$.q e w 7 0 , $.+.u 4 t 4 7 q 7 3 , 3 ; 3 , : 2 8 c u.+.2.2.u t e c u 2.c t 7 : > 4 4 8 { ( D 3 2 3 , 4 0 0 4 4 7 D { { 2.J 2.u.+.+.{ D D D +.D 8 8 8 < 2 e , : > 7 0 , - 0 0 e 8 8 0 8 0 D n 0 w 0 c [ J c T u 2.( 2.J q.+.d.s.u.2.{ q.2.",
"u { e 8 3 8 4.u.T +.d.u D c n n c J n u e T 4 8 8 c U 2.( 2.J w e.$.u.U c +.w h.2.+.3 0 8 w u 0 , n T 2.+.$.r.2.2.q.0 t 2.e 0 ' { ( n $.q.P w w q 2 c u.h.z.7.{ D 7 4 8 8 7 , > 7 2 w c 0 4 6 q J t J 2.J ( e 3 0 4 7 e.$.J h.J u.d.q.4.D t +.t J c J w D { { T D t ' c { T ( q.q.q.7.c 8 w ( n c +.n J 4 0 B 2.D 3 > 4 6 4 6 2 4 > 8 w t { t T e T D 2 , c t c w 8 3 3 0 J 2.n t D D < > 2 5 q 0 4 4 q 0 t 4 3 8 0 +.+.n T $.+.( J p w 7 2 q 0 T 0 - 7 w t 0 3 - t c 0 0 q > 3 8 7 w 7 D +.c t T q.q.n ( u { 2.{ u.e $.u B q.+.",
"8 t 8 2 7 e +.n w c +.t D 4.8 { 0 8 T c J w 8 7 w c q.e.0 0 t 8 8 ' { T $.2.q.T J t w +.C 7.D D > & - 7 3 3 w 8 8 c q.T c 8 n k.' r.n e T ' J w c ( T D t t c 2.u.( ( w 4 8 , , c 0 7 t { 8 e t +.+.u l.J e D 8 2.4 t n ( ( J 2.2.P T u.J c U 8 J T D ( n ( n t J 0 w n ( #.n q.{ T q.{ w n t D P u q 0 { 0 t 8 c q 4 7 8 7 0 3 ; 8 > 8 8 4 t u n c 4 3 8 e.D J D w ; < t w t c $.n 0 3 2 3 0 8 8 > : 8 0 B w 8 q.+.T 7.q.c c +.+.+.{ 8 4 4 e c q 3 7 n w 8 8 3 : 8 4 8 q 0 > 8 4 0 0 w D ' c T d.q.p.#.$.w 4 4.u.7.q.$.( t ( D ",
"7 e 0 4 u 3 8 t 2 c T D 8 8 8 T w c c U e.( 2.+.2.D e.U U 7.n +.2.7.$.d.2.8 n J t $.n J w w D 0 1 2 0 4 0 2 8 7 7 4 0 e D 7 u D +.s w ' 7.7.T t 4.w h.J t 7 ; , ; 4 4 u 0 8 = > 2 ; < 8 3 n 0 > 8 { 4 D 2.$.( #.J 7 8 7 2.7.c 7.J +.{ c q.+.J t { T T D D e u #.D c D ( ( D c ( e q 0 { +.( u 4.( t +.n 0 D ( t w e 3 4 3 4 7 c c ; 7 8 ; 8 c 8 w 0 8 7 4 J p n 0 4 9 t P 7.c 4 0 4 , * > 2 7 { n ( n > w t 8 0 { ( e.4.T { { w ' c q.J D 7 8 8 2 , 4 , 4 7 3 8 7 4 2 0 c c 7 w q w ' +.q D d.{ J 4.7.{ $.c J +.u.{ 7.c c u ( U ",
"2.4.( +.2.u 0 0 3 0 w w w w n q 0 7 q c 2.( q.p.w u.+.s.z.' T { 7.d.h.q.t w 2.J 7.D 3 c J T d.D q w +.2.g.D c 0 e D c c +.q 7 w t w w e w c c n T u D e t t t n ( u.u.q.2.J c 2 3 8 7 t c 2.T u 4 { w T T t 2.#.D p 8 3 0 w t $.$.$.( u.2.2.( +.d.D 4.+.2.7.+.q.T 2.+.T { T 8 w q.t D q.+.c { T ( n 7.8 u.4.e.' t D +.{ { T 2 3 4 8 c > 4 w p 8 q 2 < 2 7 4 t 0 7 8 D w n < - 3 7 < * : 7 4 t 0 8 4 4 4 2 , 2 0 2.w u n 2.D e 3 t $.0 0 ( D D 7 6 w 9 7 9 3 - 2 2 = t 4 P t 0 0 8 8 q.T +.c q.J c ( e.( n n ( +.B B ( C J 7.q.u.",
"7.+.q.q.q.J q.D w 2.8 { 7 e D u 8 0 t 2.d.7.0 c u ( 2.d.p.t D t n q.d.k.d.{ 2.2.q.+.u.#.7.$.$.7.t q.u.2.C T J e n n D c ( J t u ( 2.( { u.u.P w 8 u 8 8 < : 8 6 t D #.$.B w : $ * 2 , 7 w 2.2.c 8 ( 2 q.C T d.h.u.d.u.w t e.s.7 7 8 +.+.D t 0 n u t n u 2.0 t J 8 w c q w ( c u.T t D ( +.0 D 0 w { J t h.C t c 8 w 2 7 > > # # > 0 7 2 2 T 0 8 4 w 4 3 0 0 0 7 , : 3 7 8 6 8 7 0 2 6 4 8 7 0 c 8 2 < 2 q 2 > , , 4 u u 3 ; 2 1 < w c q e t 3 4 3 q 0 9 7 < ; 3 8 ; 8 0 0 0 0 c w n c ( B T t J w 8 n T D { { n u D u ( T J { e.",
"2.c D t d.+.4.2.q.D n u n { T T 4 t { h.2.c { J T 2.$.2.2.q.{ q.2.e.J T 2.7 3 u n +.c T 0 p.w 4 0 2 3 6 c u u c w ( w 0 0 u C T D J $.7.q.2.7 3 2 0 3 2 - O , w 8 D J n 3 - * > , < : 2 8 $.u.t 7 q w w 6 w { r.h.( u.4.D T c 0 u ( 2.4.{ 0 J { T J t c T t t t B t 8 D c c u T +.u D D J D T 4 ( u.7.n 0 T e 7 e 7 8 t 3 - @ @ 3 > 8 4 8 e D t t J c 8 c q 7 t : 0 2 7 ; , 8 8 > > 3 4 3 2 6 u 8 4 > 3 2 7 0 0 c 8 t n 7 > & 7 t t t c $.t u w w 0 w 0 4 : = * 4 = w 8 3 0 2 7 t 8 0 $.2.D T q.2 7 u.T q.+.4.J d.g.{ ( 7.2.+.( ",
"c D t T $.w 2.+.P 2.D c U C +.n T ' +.h.h.{ +.d.#.h.e.2.T n ( h.2.T 2.l.2.p.J ( 8 u t c t ( t 8 3 3 , > 3 3 2 0 w D T ( c J J s 9 c w 0 t t 7 D 6 8 n 3 u t w n 0 e T 0 2 , > 2 7 7 3 6 3 2 D t 0 n +.8 c n ( $.u.h.h.J c T n 2.c #.q.2.4.T J u.8 c T 4 c w 0 w D w $.+.0 8 2 2 0 2.T T J p t w +.#.h.d.0 t c t 4 u c J c 0 , 7 u ( 0 = q 3 8 0 w u q t 6 D w q 8 n , > - ; 0 3 3 7 w 7 7 2 D c 8 7 c 4 = 6 8 D c e q 6 t : = 3 U t 3 7 J T ' +.c u c n * ; ; 2 4 8 D 7 e { 8 w 0 n T D { { J n t 8 u t U ( 2.J D T J ( e.( T #.",
"4 7 : - : w n w t 2.u t 8 w e 0 8 B p.u.( C 2.q.D +.q.T +.t e 2 t c +.+.t c e t D c t n J { T c T e w 0 , 6 3 3 7 3 8 2 7 D 0 7 3 ; 0 T u +.( J c ( J e J +.q 4 : 3 7 , : * - 6 7 7 0 q 7 0 t 8 : 4 0 $.T n J q 2.2.#.$.J u.d.t { e.D J D T D u D 4.P 2.( w e u t w c 0 8 0 w n { 2.c 2.J q.#.w u { f.+.+.2.0 t 4 2 2 , : t : 4 > 7 , 3 t T 0 q w 0 q u w 4 8 4 7 c 4 4 7 < w > 0 < , 8 e 7 { ( 8 { u q D T $.7.p.2.c ( B 0 0 c $.' ' { ' w T u D D n e t 3 ; , < 3 - 0 t 0 n 7 t T t U +.$.$.D 8 0 d.t 8 T D +.{ n p u c w 7 : ",
"4 8 , , - 3 t c D D n 6 4 7 3 3 > 3 c 7 8 2 u w 0 T e 4 8 u 2 4 w D ( { J w D t 0 ( $.D 7.J { c C q 0 0 7 q 6 7 0 7 8 t 3 c t u T J c +.g.h.+.e.h.w q.u.D J n 3 0 0 p e 4 : 2 = 3 7 4 w u w s t u 6 c T t { $.d.p.n n 7 3 c t t D q.+.T J B u J ( D 2.n ' p c n +.( s u w 0 c t u.h.n ( c #.n c 7 n [ c w c t 7 t ; * * 2 $ , 4 7 , & : < J , 1 > e D w 7 3 0 0 0 2 4 U w c 2 p 2 8 : 3 7 { B c 8 2 < 8 n 2.n { [ t T $.D ' $.+.J 0 w +.e c 7 8 w t 8 7 & # 2 , 3 4 X 3 6 c 7 0 4 J +.2.f.d.p.{ ( d.+.D 4.r.c 0 8 u.e.T t 4 3 4 ",
"w n w , , 3 u c +.w w 4 t J t 7 2 u.e.h.0 4 7 D 0 0 u w u t w c ( 2.( c c J { t c t 0 +.c n 0 w +.n 8 8 8 2 3 3 3 7 w 8 0 7 ( ( c J D c T p.q.u.k.z.d.q.q.$.( w T T p.7.7 - 6 8 4 4 4 7 t u { n T 2.' t u.#.D q 8 0 7 u u p ( e t 8 t r.7.t 2.8 t 0 w { ' +.D B $.+.n D 7 t c u u.u.u $.T u.D ( p u 3 c e.9 J u T 0 0 3 8 u 3 < ; ; > > 4 2 3 , : 2 w > * 3 > * 4 8 5 0 7 0 8 7 3 > , 7 6 7 $.0 0 q t D c T U q.u 8 c ( ' ( J q ( w +.q.2.t t 8 8 4 , ; - 4 2 6 3 , - 7 , c D c t c t 2.n { 2.( h.( r.e.t J 4.r.{ u.{ 2.3 ( D ' ",
"p 0 8 7 8 4 0 q D #.u.2.T 2.7.( d.t s.h.{ e p.p.2.2.e.u.d.c #.c { p.C 0 D D J e t w D C q T +.( t 0 w n w t t 6 3 0 0 C n e J n 0 D 0 0 8 7 q q q q 3 u q.2.$.J 8 0 n T 4 , 3 - > 4 4 q 8 w D $.w q.T ( n t c u.7.J J q.$.+.2.w u e.T w q.w 2.w 7 +.e c c q.w c n w w w 7 t q.j.2.J U ( u.d.7.c q.u e D D 3 w u 8 0 4 0 7 4 2 # + , - 3 7 0 8 8 > c t c q 2 c w +.n 0 6 0 4 u w 7 6 4 ; 4 8 { 2 3 ; - * > w t t c - , p w w 2.T 0 0 t T ( T u.J 4 7 3 : : - : 2 : 3 0 8 4 7 8 u t +.$.4.u w f.u.$.h.u.#.h.$.T t.t c $.t q t 8 D ",
"8 , = , 4 > 7 8 ( ( T t 8 w d.h.t.h.h.e.T m.h.u.p.u.+.2.T u t +.' J w 0 7 4 3 #.c J w C { ( U +.2.7 0 w 0 0 c q 0 w 7 e 3 8 7 3 8 t 2.2.2.j.( r.q.e.p.w c B w 2 w 7 w J 2 e : 8 , , 2 3 0 w t t 8 2 8 J +.+.( 2.u.J t n D c U +.2.D w +.{ 0 { t 2 7 ( n p n 2.( D 2.D w c +.u ( t r.J ( T ( 0 J J D 8 7 t w t 8 0 t c q 7 3 - & , # = 4 , 7 : 3 , w w 7 7 8 J ( +.+.0 w 3 t 8 D e 2 - 3 7 c c n 6 7 w e J q.c ( c D u q q 0 0 8 7 7 , 4 ( p +.t 4 8 8 7 > 2 t c q 0 w 0 7 c t 8 t D 2.d.+.{ U T 0 q.2.J T e h.T 2.+.d.+.t 4 8 w ",
"4 e ( J u 7 0 t w 4.J c e 8 n t h.h.d.z.z.f.e.{ n q.e t D c D n w u.+.d.u.q.n 3 D w 7 +.t t e q.D 0 t t D D D 8 8 q t 0 q u u ( w p ( n q T D h.#.+.r.D q.2.u 7 0 t 7 3 > 3 : , , > = : # X + O 8 +.2.7.( 0 D 2.+.u q t t w D c 8 B J 4.2.' { 2.n J 2.U D J c T J D u.q c c 0 q.q ( D s #.c T n $.8 w n c D u u U t e 0 7 ; : $ : 4 0 2 , w ( 3 6 7 0 { q t e t T w 4 8 7 n 8 u 3 , 7 7 0 0 7 % : % $ : 4 D w w 2 2 +.e n ( u w 0 D e q 5 T ' d.t 0 : , $ 3 4 2 w { D 2.$.J U c J J ( { { 4.#.7.q.D d.t n e.q.n #.T +.u.2.n 0 w ",
"6 8 J D c B 0 n +.4.q.J t 3 J { h.2.d.q.4.u.7.2.u.q.x.h.e.p.e.T +.{ $.d.$.+.{ $.( 7 0 2.u u q.w ( +.+.{ ( t ' ( c J t 8 6 0 4 0 1 3 c 2.n 2.7.p.u 2.c p.n { ( +.D 8 2 2 > > 2 = , 3 - * * , : : 3 7 w 0 e.q.4.+.c > w +.{ 4 c t w t q 4.c { 4.u.{ T t T ( ( ' c +.n J { T 2.7.p.+.4.u +.t u w ( t D u w c u u +.T 8 w 3 3 , 3 - 1 2 4 8 2 q t J q u 4 4 8 0 J 9 J n 0 4 ; 4 u t +.3 - * , e t 8 3 3 8 q 0 7.D t D 8 4 +.c +.e c n $.+.w u +.2.J J 0 0 4 w 3 8 0 w ( w e n c q.D n n n { r.u +.2.2.T #.J ( c ( D s.u.( $.T q.< 8 ",
"c d.4.n 2.{ e 3 2 0 t 8 n 2.+.{ d.k.D J h.u.{ 7.+.e.2.#.e n 8 0 7 T q.t D p.{ T n ( $.( ( c +.+.#.( q.+.{ q 0 0 T 0 0 0 3 8 t t 0 ( 4.w h.z.d.( 3 w 2.J ' ( ( +.w 7 0 0 6 ; - 4 0 7 : : 8 3 D t u { c t C 3 0 < 0 0 4 u c q.( 2.n J u.q.{ e.D T t J r.B D n #.$.2.t w D c 0 U T { 0 p 0 ( n J t t 0 7 c D t { 7 8 3 e 8 2 7 8 0 3 2 ; , ; 2 3 0 , 0 1 t e e U D ' c u : ; ; 8 t D t = - 7 w c , , , 4 6 4 n c 0 7 4 u q D n c c w B n 8 c ' #.3 , , 8 3 0 w t w T c 0 D w u 8 { 2.T n 7.T T J e u.$.( q.e.7.2.p.u.u.2.( J 2.u.w ",
"u { J T D +.d.B J n t T w T $.e.u.q.h.t 0 7.u.p.d.d.g.j.( D ( D 4.J #.T e.t { q.f.+.p.h.7.d.{ q.p.T w C c w c u D c 7 w n 8 J 0 0 c T { f.u.D 0 U U e 0 t w +.7 D 8 2 7 - 2 : 3 , 4 8 2 , < 3 3 8 w J n t u u u T w t 2.4.n 4 7 , 2.+.J D D w J +.$.#.t ( { D ( n c J ( T w 0 J D 7 U c 5 u #.T ( D 4 8 D 2.n D 8 2 , 3 2 : % ; < - > 2 7 u w e w t 0 +.3 4 2.n q 0 u , 7 ; , e 0 q w @ 2 2 0 w J c w 8 : 0 4 w 2 7 8 q 4 0 t 8 4 n T ( T p.T q 8 7 e 3 t 7 4 c c 0 7 t t D ( w T 7.t ( 2.4.h.q.u.s.p.u.4.+.u.u.p.2.{ e.h.{ 0 2.",
"w t 8 c B D $.p 0 3 J #.{ 0 3 c u.2.$.+.p.u h.p.( +.2.+.2.D 0 $.( 0 q q.U { r.T $.{ J D { n n u 2.T s J w e 7 u J w ( 8 0 8 T c ( J $.q.7.{ n , s q C t 2.q.n e 0 3 4 , < > : 2 : 7 7 , > : 2 0 8 , q D t #.w e e 0 8 w 6 8 8 0 0 J ( 2.$.c t +.w 8 0 n t ( { { $.8 8 w 0 ( w u c +.J n n 8 w 8 q ' u 0 0 t t w t 8 w 3 8 w 8 4 7 4 8 * > 6 n t 8 2 7 t 3 , D w w w D 0 7 B ( 0 u 0 , * 8 4 8 B J D c n 0 2 D 7 +.J c J w 8 8 T c D T n d.2.( u 7 t T t 8 [ c 0 0 0 0 c 8 ( D +.$.4.( 0 T ( d.q.h.( T 2.c q.w J D w j.u.e s.p 7 ",
"+.n u 8 2.u #.2.4 t e.q.4.q.D 4 u.+.k.u t #.T J r.u.f.2.+.u n T t 2.J $.{ J c 8 8 8 w ( J T n D 0 7 4 c c ( w 0 c r.{ T ( n 0 D t u ( { 2.f.q.7.D D J { ( T c c 4 0 3 : = 3 4 3 , , 8 0 * : 3 w u J { 7.2.4.c ( w J 2 D c 0 q u 0 c u.D +.c 8 c B +.w { w [ T t t < 4 : 7 9 7 3 4 D T t 8 e 0 c 4 8 3 0 c q 0 D 0 4 0 : , 2 - ; : - 2 : 8 w u u 0 w w w 0 4 w J 0 w u D 8 t 0 = , 3 3 < 7 0 J 8 7 e 2 2 q 8 8 4 w T c u t 0 0 2 c T 2.2.$.#.n 3 6 4 t > 0 t 3 4 < 8 4 8 8 7 J ( 4.u.0 t 0 p.u.2.l.f.u.q.+.( n 2.2.c ( t w d.D t ",
", c D T J u 0 q.q.c u.q.( w 0 4 { q.7.k.p.J w ( c p.d.e.h.q.$.e.e.t 2.+.{ q.8 n n +.4 8 t u J J c u n J t n u w 8 2.+.q 8 0 4 0 7 u 2.u.u.l.d.c 2.s 3 3 ' J D n 4 7 < 2 , - , 3 , 7 0 w u ( J r.T $.q.q.+.' +.d.T +.D n t J D D J 8 +.c D 8 2.B c { +.' D U ( t e c 8 0 4 w u 7 7 w n 8 c T J ( U 3 , 6 4 0 0 e c 8 e c 3 > & % , @ > 2 , c w 8 7 8 U 8 J 7 5 7 4 D 8 3 7 8 w , 8 c w : - > 2 q T n 0 w 2 , 4 2 D c $.2.8 7 t 8 0 3 7 c D #.$.2 7 D B t s D 8 c u 0 C t e 8 D 7.T P q c +.q s.U q.h.u.f.u.u.q.+.7.q.7.+.n h.( D ",
"8 n 2.J c 2.( n D c ( +.c 2.D T u.q.z.k.( c J k.c d.+.q.+.c u q.k.7.7.J ( t D 0 p.n +.4.+.h.d.h.$.D J 8 0 8 q 8 w n T D 8 w c w [ u D h.q.c B 8 2.3 8 4 D u.w u U U 0 3 8 8 , 1 2 7 8 4 , 7 - 2 4 u $.d.q.2.z.t t t t D D ( +.p w w 0 e #.2.{ $.n ( c $.T q c J J t n +.( D T c 7 t 3 e 7 q n 8 e 9 0 8 0 t w D t e p 6 3 7 , & 6 3 0 7 6 c t 0 , 5 D & 2 , 3 , 8 2 3 , , > 0 > 3 0 3 : : , 8 < # 3 2 e ( 4 w 8 : 8 8 w 4 6 3 3 0 3 8 4 ( 2.u 4 , p 4 e 7 w , 2 t q w u { +.2.T n w ( J n u.s.7.p.d.2.+.+.B +.' s.u.7.q.c e.2.0 ",
"t c ( 0 T u.d.0 2.n 0 +.T $.+.t d.d.h.d.h.( d.( u.q.q.7.k.f.2.2.+.c 7 t e 0 c c ( 2.t f.2.J J #.+.+.t s c D w t T T +.t 7 4 c t w 4 u ( 0 < , J 8 8 T t 0 u.w t t w 3 7 0 7 : 8 e t , , c 4 , t q n n T { c t.e n e.q.{ D $.t 0 3 8 t 8 t C 0 0 w n 8 w c t ( w J u e u e ( 2.w c w c w 8 w u t t 8 ( w 0 3 6 w 0 u w u 7 : ; : - 3 8 0 t 8 0 q w q w 7 0 0 p e 3 5 , 2 8 2 3 < , 3 n t 4 3 > : 2 7 7 8 8 c 0 , 2 7 4 2 , 7 q 3 3 3 0 < 4 2 e 4 : > ( 8 n 7 3 7 8 0 q 3 0 0 C 0 D ( q.+.c j.{ $.e.q.2.{ T 7.( T B u.2.q.J s.2.q ",
"u J u c ( D r.T c q.u ( ( t c w k.p.q.d.D 4.r.u.q.$.4.z.J d.T 7.k.T s.q.D T w 0 c 0 d.k.7.d.u.e.D T u c q t 8 q 3 7 T { t c 0 7 0 t 2 2.7 J : c 4 2 , 3 2 0 c { w D +.{ 4 6 : 8 3 > 2 8 t n T t q.+.T 2.7.( $.2.+.J ( J q u n +.T +.3 { t 6 c T 2.2.( 2.' n { T t q c t c C ( J 6 J w 4 8 w 0 0 w 0 8 e 7.D t 0 0 T u n 3 ; > = > 7 q 7 2 8 n e w 7 e q 4 t w n 3 w 4 4 7 3 2 3 3 8 0 6 0 2 , 2 ; > q 8 4 t 0 3 - , 0 w q 8 2 > , 4 8 3 u 0 7 2 7 7 D w p w t t w T e 0 e 0 T c c q.2.p.d.T d.s.#.q.q.2.d.q.p.$.e.J d.{ +.$.$.4 ",
"J +.{ p u.J +.n t ( q.{ 0 w 0 w e D J B d.d.u.q.q.q.4.u.u u.D 2.2.k.u.#.q.r.d.2.2.c D q.u.d.e u w 8 T T 0 0 8 8 8 8 3 q n +.u w 3 0 8 q.d.u.e.p.+.c c t : c 2 3 c D < t 7 4 ; ; e 8 4 4 7 q c 7 2 +.t e { t p p +.0 0 U t n 0 8 t t ( q.D n 0 t 8 s 0 7 7 D e n u #., 7 3 8 0 3 3 t q 7 7 4 , 0 0 4 8 8 n 0 0 t T J B 0 w 7 , = > 3 , , 0 t 3 3 2 2 , 3 ( 4.( w D 4 6 T w D ( , * 7 0 4 e 4 < 2 : 8 0 J 0 [ +.D 8 t t 0 w 3 3 3 7 , q 0 c 2.#.D 0 6 c t D 8 0 8 3 J D D T 2.2.2.e J q.q.T +.2.J 2.u.7.0 ( ( [ { ( D +.t T +.D 2.",
"s J 7 +.( T $.+.{ C D c T q.( t n z.l.p.4.k.r.D c q.2.+.u.u.q.u.2.d.h.#.u.2.q.{ u.+.#.w J r.D 7.q.2.' J 0 0 0 8 7 0 2 7 8 w p w 8 7 4 B 2.2.h.2.$.7.+.n J u 0 0 2 , < 4 0 1 7 2 c T J t 7 t e e c 0 D { w 4.h.p.( { t q.0 c B w q 4 7 T ' { +.n w c w u +.7 c 2.+.B 8 c 0 w 0 q C P { D e T t ( n 2 w { $.q e u q.t t 0 e 0 0 4 7 4 4 4 8 3 8 7 w = w 0 ( D ' t n q 4 3 u n t 0 : 7 7 0 w t c 8 2 0 ( n ( +.( 0 w e J 0 t n 0 w J c 8 w w 4 4 , 2 w w c ( w { 6 4 c n e t q w 8 J u.c J T u.u.z.k.l.q.0 e.h.h.k.d.s.[ +.4.e c +.",
"2.u.2.w 0 ' w q.+.+.t 0 t e e 4.2.+.p.2.0 q.+.+.$.{ +.2.$.D p.k.r.$.q.p.r.2.( n 3 J $.e { J w +.p.+.e.+.t ( ( w 0 0 6 w , 3 w 0 7 c , c t e 3 J T c e 7.0 +.q 0 7 , 0 0 8 3 8 < c J t n t $.{ c n D q.u t 2.c 7 7 q +.8 B T ( { n { 2.7 P t e D t 3 w w D +.n [ c 0 n e 3 3 6 n ( 0 D ( w 0 8 t 8 s w t D ( c [ { n D 0 7 8 0 q 0 8 : 4 < 8 & > ; & { J n 7 c u 7 0 7 7 u c J 7 2 < 0 4 n ( e u t q t t u c 8 w 4 w 4 w t < 8 5 3 4 w 8 t c 7 w t 6 T c c 8 T D +.J 4 u e 0 e w q.T u { j.d.h.h.k.k.d.c q.d.2.( r.q.r.t +.u.#.p ",
"U ( ' t J 2.{ 4.e 2.n 6 0 t ( T J q.u.k.u.( $.2.c 2.n +.T k.q.2.n ( D ( T k.8 t u.d.( t r.n { T 7.w c 8 8 0 u 3 7 4 : 3 4 7 t J 7 q J 8 t u.2.n w ' T { +.+.t p 4 ( c 7 2 8 w 6 T n +.8 0 D 3 t 6 7 4 u.T D D t u 0 q c 7.2.( D T { q.8 t U T t 0 q q T n +.c w 8 t U D u T +.+.w c t c w w D 7 q q c ( 2.0 C c J D t 8 8 4 3 3 0 2 2 > 3 8 8 2 4 t 0 e.C ( 9 u 8 2 w U n D +.8 0 , 0 4 t u 7 c t t 3 ( n +.7 w w w 0 t q 3 0 8 q w 8 0 D t 8 w 8 < 8 n T #.2.t e 0 n t +.( 7.+.T 2.h.d.k.p.k.z.r.z.7.u.u.q.u.+.$.T +.c ( { +.+.",
"c 2.7.$.+.+.#.( D q.$.B t D ( 2.c k.l.k.d.q.+.q.( u.e.2.2.e.u.d.h.u.2.$.u.u.u.{ $.f.n +.2.r.+.4.2.$.2.n t 2.3 2 , , : 3 , w 7 w t 0 w c T c 8 u T { 2.q.4.$.$.J D 8 8 0 > 7 2 3 2 3 8 3 3 D 7 ( ( u 7.t 7 D T +.c c 0 h.J q.2.t 7 c t D $.8 t J t u q t w 8 { D n e 4 8 u t D J ' c D t ( 0 J n 7 T +.T t w t 0 T t J T c D , 0 w 0 0 < c e e n 0 7 7 T t 8 t q 0 2 < e 8 c T 8 4 0 4 3 q 7 2 4 7 n ( 8 p w , 6 0 8 w t e 3 4 w n e D c f.t p q 7 6 D e { { +.D J 8 0 T $.D T +.' e.7.7.2.n { r.q.h.h.e.' q.( $.2.{ $.0 [ r.2.T ",
"' D r.k.k.q.t u +.2.d.d.U 2.2.c d.d.' e.( q.r.2.7.+.J +.4.' +.u.2.h.T { u.w e J q.d.0 J D u.$.p.p.+.J c u 8 0 : > 2 2 : 0 3 c t 4 8 q 8 J 8 c 3 T w 7 D T D 4.J { t q +.J +.u n 8 8 8 t 3 8 4 0 { 2.2.3 ( $.w q t c #.u t ( J 4.$.7 J D q 2 e D D t 0 e +.u.d.u.2.8 w 6 c B c u c 8 t 4 3 8 7 7 e w n u u 7 8 t 0 ( J J s 0 4 2 8 2 8 3 4 w 3 0 2 t J c 3 q 0 c q 7 4 n t B +.q 2 % , 3 2 4 w s 2.8 T 0 w 7 w w w 0 4 2 > 3 8 2 7 w t u c - > , 8 w c 7 ( { ( n $.c p ( c t u.( #.u.u.7.( +.+.4.+.e.u.2.u.n u +.4.D q.0 ( e U c ",
"2.p.h.h.c D $.( D t u.#.q.T d.q.4.T z.c 4.T $.d.d.( q.#.c +.q.r.T ( T ( e.U T q T J q.q.e.k.q.q.D u 2.+.T 8 0 7 2 7 e 7 q 4 7 8 8 w 0 w n 2 c w n ( n 0 t B 0 T 3 2 , 0 u J 6 2 w T 8 4 - 3 3 0 0 C 2 : 6 , < , : 7 w 7 0 3 c 8 T t 0 T +.t t s 0 w u q w t 3 8 7 8 3 3 q q 8 0 0 8 7 8 8 5 4 8 t 0 w c { c D 4 7 w J B q c 8 4 6 0 8 > 3 0 > 4 8 4 0 n D J w 8 2 3 3 t c 2.c 0 2 X # - 8 0 4 0 t $.n w w 0 8 , 6 0 2 4 , > 8 2 t p D T 0 0 7 4 4 q e n n J 0 e c c 7 & u 7 4.q.q 7.7.D T { 2.k.u.u.d.4.T 2.T ' t D n ( c $.+.2.",
"u.4.{ u.u.( e ( 2.$.c k.J 4.+.{ 7.u.2.#.u.J c ( u.f.u.u.$.+.c ( ( +.q.+.+.2.q.4.c 2.D T d.u.( 2.n ( u.e.u 8 u $.3 4 > 3 0 0 6 % = 8 t 4 3 - 0 J < > 4 u { C < 7 0 0 0 7 u 7 3 3 7 4 c +.2 , 4 0 0 0 t 3 U w #.8 8 c 3 D 4 n 8 q 8 w 0 t t 8 e 8 J q 2 8 3 3 0 8 0 7 ( 0 t 0 t t u 0 u 0 w q < 2 0 t w 0 c 0 c 8 8 8 7 w w 8 7 % : 4 3 , , , : ; 3 3 : , 0 ( u D e t t 7 8 0 4 { e 4 , > 2 , - : 7 2 2 < c t 8 8 0 4 e 0 3 3 0 6 q e t q 8 : 2 4 > 3 D J t q ( #.{ w J 4 2 3 9 p.T u ( $.J U T 2.h.2.( d.e +.J J h.t u.q.p.u.u.( ",
"h.u.+.+.7.+.2.n D e.+.r.q.q.q.D n d.k.d.q.h.D q.u d.j.k.u.u.U t 2.7.+.u q.p.p.' h.( ( f.u.e.d.k.d.u.e.h.U c n D 7 4 3 2 1 8 2 , = , n 2 e ( c w u 8 d.u.u.+.#.8 6 q 0 q.w B u.$.2.c 7 e w U T e.T D ( n T 2.4.$.n 7 n { c p c #.w 7.q.u T J T 2.2.T c D 4 t 0 n 8 8 4 w 1 8 D u U p t B 0 3 7 t c 8 4 4 7 w 7 7 7 4 3 3 , 3 3 : 2 1 , 3 , t , , 4 2 3 7 0 p 8 0 w c 8 0 0 7 8 c 2.n 2 > : = # - 3 c 4 7 4 3 7 3 3 3 0 e 3 3 2 , w T 2.n > > # , 8 4 ' +.t 8 3 t D 2.c J B u 7 e s.u.J 2.( D q.u.f.h.4.d.q.n +.+.2.2.u.2.2.2.q.4.",
"+.( c t ( u r.q.{ D D ( p.l.u.r.{ 4.d.k.d.h.q.$.d.D u.D D 8 t n q.n J +.r.z.f.g.p.z.l.d.p.' d.h.4.j.#.$.$.T B T T D 7 7 > , 3 7 4 8 , c 7.T w 4 J U { ( ' J w c q , 3 : 0 t t , 4 2 B { c n +.$.q.{ J e +.{ $.n +.t 3 n 2.$.( +.2.J T T +.J c { r.U 2.c < 4 ( w { 7 7 0 0 8 8 e c u s q t 0 u w c 7 4 8 3 8 0 2 t 4 w 7 3 3 , : , 3 2 3 D 8 7 e t t 3 < 3 e 8 2 0 7 8 s e u q +.#.e 0 8 8 > - 7 J ( : D c ( n T 3 0 7 7 , 0 8 2 c ( J 8 4 B 2 t 7 , J $.t 3 u 0 8 T w c c w 2.{ ( +.8 e q.T g.u.d.p.d.7.D +.{ +.7 c 7.( u.4.7.u.",
"+.( +.r.q.+.( +.+.T +.+.( U { u.j.e.e 8 t +.t s e D c e.2.0 D t J q.u.D t +.u c 2.u.l.+.' u.J +.p.q.+.e.( q.q.T 8 w p U c 0 B q w T t T U 0 c J c r.J q.u J J e q D 2 8 6 T D 2 7 q q 3 0 t ' J 2.2 8 q.j.+.( q.q.{ u w 2.0 +.J 2.c ( P ' D T c D #.p u 0 w , 4 ; , 4 t 0 0 8 7 t t 0 t c 8 3 3 4 c u q w D w t 0 J w 2 > - # > 2 2 : 8 D c 0 w p c 0 D 8 3 : 2 , D D 8 7 8 7 q 8 2 3 2 ; - : 7 4 w q w 4.+.c 7 w 6 , w w 4 3 4 0 8 , 1 7 8 < 3 8 t T , 7 7 J w ( T u 8 w ( ( u +.u.2.f.u.h.p.p.p.j.T T n +.( q.n 7.7.q.u.u.2.D ",
"t T D 0 J { ' D c n 2.2.$.u.D p.h.2.B J 2.2.4.+.n w q u h.T D J q.$.7.J e ( q.4.q.{ u 2.< J J c r.2.#.q.u T n ( c u t 4 e 8 2 u q D +.0 w c T +.$.u w 3 4 D q.e C c 3 c , 0 $.8 4 7 0 8 T 7 < 2.w T T ( ' 2.{ +.w t 8 4 c J t ( J t c +.D ( D w t c J w t 8 7 0 c 0 J { t n e 0 t B c +.w 7 4 8 2 7 8 7 0 w 7 0 0 0 6 > > ; : : , - 3 0 - = : 0 8 u n u 0 > 4 8 t q 3 7 4 4 2 w 4 2 8 e : 3 4 7 0 8 = 3 n B t 8 , 8 8 D t 3 3 7 $.t 7 3 7 q 0 w 3 e T u 0 q n t e.e w 8 2.p q.q.u.c 0 0 e 4 w r.2.P T +.{ C 2.D J u.7.{ J w d.u.",
"( q.2.4.$.+.{ +.( s U { T c T T 2.8 2.u.d.U 8 3 t +.; ' +.( t ( 2.+.e q.u.e ' 7.T r.h.+.[ 2.q.$.+.q ( ( u 8 q ( 2 3 2 0 0 q 0 8 7 ( ( c J J 8 U T { U T t c w 0 n w 8 7 7 7 +.0 - 0 c 4 7 0 w w t T n { ( q u.q.{ ( $.0 ( D { ' +.+.+.t p.q.u.q.D n D 8 T 0 t J J , u U D t u e n c w D D 8 4 8 3 4 u c D T B c ' D 0 1 * = > 3 7 : , : 3 8 0 0 w t J t 7 3 7 c ' J 0 > 7 4 7 3 8 7 0 7 8 U e 2 0 2 3 0 8 T 3 8 3 t 7 e 7 3 - - 3 6 , e 0 u 2 0 8 J 4 0 ' 7 w 2 +.c 7 ( q.e e.2.{ u 8 q +.z.q.T c u 0 7 0 w 8 w T 0 n $.( 4.( { ",
"8 8 { { q.q.u.$.U { T ( d.J 2.w 7 2.{ +.d.d.r.2.( 4 2 w t 4 0 2.e.+.$.7 T e p T u.r.2.c $.2.J T J { w 0 w 3 4 4 3 7 7 0 : 7 6 > < 3 c c n { 0 0 +.0 e : w 3 , t q.e J e 0 0 3 0 0 7 q 0 8 q n ( t n $.u.q q.2.#.7.( T u.w 7 d.e.8 n D { { J ( { 2.( { t ( T 8 c 8 1 3 t n w c c u t T e D e 8 8 8 7 0 2 7 , 8 t 8 D T T u ( T 0 % , 3 8 8 7 8 u w n c +.w 7 3 2.T 8 3 - % , 0 w 8 8 7 8 > 0 q 0 4 > u t D c D t t 0 t 7 w 7 t , 7 - > , 4 t 8 +.8 4 6 w e c w s 6 4 2.q.+.t q.2.2 t ( t T e j.$.2.e J ( T ( c ( $.c 2 u $.{ 7.g.",
"8 ( +.{ 2.q.( { u.2.2.h.h.q.u.f.2.d.u.h.l.k.q.8 2.$.q.u.D q.q.D 7.+.' J J e ( ( c ( B T T +.e.( w n u u 7 8 8 4 4 3 7 : 3 > - 6 6 : ; 0 8 c ( 7.3 $ 0 , c ( u.0 8 +.c 2 3 4 q 0 J +.#.T 4 3 J 7 7 c q.w $.q.u.$.u.q.r.c ( q.u.u.u.d.4.( q.J q.{ t ( u n 8 w c w 7 7 q 4 c e T w 0 C n u 0 7 2 q q t 0 t 8 8 - > ; : * 3 : 2 - : 2 7 7 q 8 e u 0 u w w D q , 3 e D D w - : 7 , 0 q < : : 7 e t 2 2 , u 0 0 0 w 8 t w w 8 0 0 8 8 , 3 3 7 c 2 : = 4 2 @ - w J #.t 4 T +.#.< w p t t 7 n +.u ( { p.t.t d.u.r.u.d.T T D n T u 7.2.u.",
"( 4.n +.$.2.q.T { +.2.u.h.2.2.p.( +.2.+.7.f.p.d.6 c q.g.h.D t 8 3 7 D q w ' D q.u.+.n d.q.w +.D +.q 0 w 7 4 7 q 3 ; 3 q 0 q t { 0 ; , 2 - 7 8 w 0 p D J 7 n u w , 3 n , 4 < t c ( q.t e t c t D T +.0 { +.{ n w J T q.n ( ( D 2.+.q.{ #.u.q.$.d.d.D 0 +.( +.+.8 0 7 4 3 w w 7 e w n w u 4 8 4 0 3 0 c 0 c t 4 e t { J w n 3 8 7 e 8 w 0 t s 4 7 8 t u J q 8 8 { C T s 3 7 q , 8 8 , , > w w 0 > 4 8 4 4 D 7 e t 8 4 2 0 6 8 4 8 > 4 q u 4 2 + 2 , 7 - > 3 c ( C n 0 4 4 6 8 e ( D e.e.( c T 2.u.h.l.( t J 4.+.l.u.T ( ' +.#.u.d.",
"( T t J ( B J 8 t +.+.7.r.q.q.s.p.$.+.h.p.q.q.c #.q.c { J 7 3 2 w D 2.u n q.+.q.u.T #.( 4.2.t +.t u t 3 < > 3 1 2 , 8 e 2 7 c 0 7 - 2 , 2 : w 8 D 0 6 D w 0 e T 7 w 3 3 < 3 8 t 6 { c t ( { J 2.u.c f.q.D t 7 4 7 0 u 0 J w $.7.{ h.$.( 2.#.d.p.+.J s { D c T J { q.q.( n 7 8 3 c t D B 7 t e 9 t 8 n n w 0 4 4 4 w w u t q c t w 7 e ( c U D e 4 n D u e 7 2 0 P +.+.8 2 8 3 w 0 3 - 3 0 0 7 0 3 4 2 7 1 s w = u t 0 c w 0 0 8 4 7 n e , 3 & . X 8 8 2 D ( $.D , , 8 3 7 w s 2 2 : : 8 t 8 7.w D #.0 w { T D J U J 2.w ( c T t ",
"h.u.4.c u.( T U +.c +.T { q.2.p.e.q.+.q.{ $.2.q.h.h.p.7.2.( +.d.q.2.q.c { q.q.+.D $.D q.u.q.+.2.U +.8 0 6 3 3 8 t 3 8 4 3 8 2 0 4 6 7 D u q.n J e.t 0 t n < t 3 w u 2 : 3 > > , 3 3 w 2.D w c ( e q U D 0 4 8 w 0 > 7 0 3 8 D T +.' 7 3 ( c 4 0 t 8 $.{ J e q 8 ( $.( +.3 3 3 7 T t +.e t 0 e 8 0 q e w c 7 7 4 3 4 3 3 3 < , 3 8 0 c 7 , 0 c 8 u t t ( u s 8 7 D J e s D 8 4 8 , * ; 0 $ : < e w e 8 0 3 J w q u w 8 > 0 q 8 0 > 7 w 0 7 3 3 3 - 8 t 8 ' e , * , 6 3 w w n t w , : 7 2 0 , u J u.c #.0 t 7 n w u 2.{ d.u u.2.#.",
"$.7.+.d.r.r.u.2.u n u.( ' $.2.h.f.f.2.( 2.r.d.f.h.q.q.c 2.d.( d.7.d.2.J d.d.u.+.{ w +.r.+.$.u.#.t 0 s 0 8 7 3 3 2 3 6 w 0 2 1 0 0 : > 0 w 3 t D q u D 7 6 ( 0 q 0 w t c D q e 7 6 4 4 w ; w 2.( 0 w c 3 7 7 u c 8 0 ( J 8 6 D 2.{ +.D J D q.d.+.n t 3 q.c 0 { T +.D D s t t 7 8 q n t 8 8 0 7 8 4 3 w t 0 t t 7 6 8 0 2 3 2 2 , , 8 2 3 7 4 w 0 0 n w q c t 0 3 0 : 4 3 4 w t n p 8 2 0 2 , 2 s 7 3 7 7 w 8 +.c 7 e 8 t n 0 e 8 8 7 3 w w q 3 t n 8 c n 7 - w w 0 c q T +.' T ( u.0 7 $.D c q.{ #.D p.l.2.( ( +.( n D u.7.n 0 { ",
"c q.J 2.+.2.d.J T 7.+.n ( d.d.h.d.u.4.7.4.q.p.d.u.{ +.{ u.h.u e.u T u.q.( 7.+.( J D s.$.P +.p.J c t 8 t 4 w 0 7 q w w t c c 8 7 t s t 2.0 0 +.t 7.3 t 0 8 0 c D c 7 5 4 w 1 1 8 , 2 3 0 e D ( 0 J c U w 4 0 w 0 3 e U c t w u q +.u , w u D e.n q.+.q.' u.7 D 0 8 0 D c 0 c t q +.D 0 8 0 0 t n , 3 4 c 8 0 0 w 7 7 e 2 < > 3 > 8 8 ; 2 s < 8 , w w 4 J t t t c c e 7 q w 0 > 2 w ( T 3 w 7 7 4 w 8 7 2 8 w t e 4 0 n 0 3 T 3 t D 8 , - > , ; t 3 2 7 < 3 8 ; , 3 7 t t u 3 > 4 3 = : 3 : w 8 t > w c c 8 ' 6 +.2.e 8 #.c D J J ",
"p 2.T T { t 8 u.2.e.u.J c 8 C 4 T q.T +.f.J 0 D J D q.s.2.C +.h.u.{ U e.( C { T 4.u.J c J ( T U n u 8 3 0 6 > - 6 6 3 7 8 8 0 t , c 3 8 6 2 t 7 4 ; 8 0 8 { $.p.n 0 T n J c 4 8 e 8 J 4 8 D c , { 4 8 q 8 7 c u J n +.( 0 3 q 8 8 J n u J 0 q 0 +.( c n D w 0 J n ( ( +.D u.( T T { n 7 n w u T t n 3 u T n 6 8 3 7 8 4 , 4 3 , 4 2 4 0 w q 8 T 8 q w 0 n w C t t n t 2 8 4 3 0 J 4 < w 1 8 : 4 3 0 q u t J n 7 t t q 0 c 6 6 n c w 3 3 7 0 0 6 8 w 4 q > t q.( , : 6 e 8 , , < , , 8 3 3 t 8 3 3 7 < < w 8 4 J n t J ( D 7 8 e ",
"D q.2.6 8 $.2.t q.{ 0 < t D J { T ( 4.4.U J n D c n D +.2.+.c t 7 D 0 t 6 7 T ( q.d.+.4 e c ( u 7 8 0 t J t 3 2 7 w w 4 4 0 7 t +.c T , D D w $.0 u J < 0 J 0 9 ( t , 8 t 0 ( w u t 3 w 0 8 T +.$.q q.c T D ( q c T { #.0 8 u 5 p u J J c c n c n U w 8 c { u 0 n u p D +.T T c w 8 t 8 q n T ( w 3 u 4.( 7 q 0 c B t u 0 0 7 3 2 2 3 , 3 2 , 2 3 8 0 U t ( 0 8 0 w n e 8 w D J 0 t t 2 q t 7 0 J c e 8 w ( T n 0 t c < 7 e J 0 q 3 4 q 4 c 3 u 7 7 2 7 t 4 u , , 6 : 0 w , 4 , 7 8 < 0 e t 4.( 2 8 t 7 t w n $.c +.( J 7 8 d.2.",
"{ q.g.3 ( +.{ 2.t n r.n $.J 2.e.u.d.p.q.+.d.7.d.q.h.u.#.' 7.( u.' f.J +.( 4.#.{ q.2.c q ( T 8 D n 4 t 4 8 4 , 3 2 0 7 t 8 w 7 D 6 2 3 , 7 8 3 p n c 3 ( 2.P c T ( 4.t t 3 8 3 t 3 q q 8 c w s ( c * J 7 c { T D 0 D w +.c { n 7 ( 0 8 e $.n t 4 D n w 7 8 q 4 < 8 t 8 u n p t u 8 7 w 6 8 7 8 n 8 3 t q 0 0 n 0 7 8 3 w 8 q 0 2 % 4 3 4 0 n 4 4 8 D C J T 8 0 6 u w U 0 t D D p 4 - @ * u u 0 c D 8 t w D ' q.t t 0 - e 7 4 8 w t 8 n q.e 3 8 3 4 t c 7.t 3 2 8 , - 3 0 8 : 4 , 4 3 e c 3 8 $.T n 7 q.2.T ( J z.+.l.u.2.c J h.J ",
"D D 2.u.u.4.f.{ T ' 2.T c t k.q.f.h.2.B 4.#.e.$.0 t 8 7 0 w 3 w t c 0 0 T n w 0 t +.+.{ c e q.u.+.+.8 2 w , , u 6 8 q u c 3 4 u T 2.D , 8 t 0 z.4.q +.> ( ( t 4 c D u w 8 6 8 u u e $.{ ( c w 0 q n D n u J T D e w D J D t c c T B +.w 0 J 0 c ( c C c ' 7 2 4 0 w 4 8 J e t u D 8 q ( 0 6 4 t 8 6 e c 4 t D 8 n { e ( 8 P 8 8 7 , 3 > 3 2 , 4 6 T T c 0 w e 0 u 3 8 c ( t T ( 3 * > 7 q t ( 8 6 0 e 8 q.e 7 n q 3 0 0 e 7 8 > > 3 , 0 ( 7 4 8 c 4 3 t 8 #.q.n J ' d.z.k.k.h.= % 0 ( 7 * c n 2.p.q.8 0 c 0 { ( $.' D D 7 ' +.t ",
"0 c t +.0 t 7 +.T +.e.+.w 0 4.2.{ { u.e.d.e.u.#.h.D B ( q.q.e.J { +.w t 2.( h.[ n d.( e.n 2.c 2.+.D e 2 0 7 , , 6 0 t D U w u 4 6 t p 8 D w p t c D c 0 ( e q 2 U 0 4 - 2 8 7 7 0 4 u 0 c w T 4 4 D +.q.D 8 c c w c 0 e t w ( t 0 D u T t T c t e $.t w n 6 q 7 c D D 8 c T D u T e 8 c u 3 0 c 2 t t 3 3 0 8 3 7 8 3 4 - 2 2 q 8 7 w 6 8 u w c w J T { w e c q +.2 t 0 $.{ n 7 0 2 - = 6 3 t t 8 0 3 8 c 4 q T u.2.c c < 4 3 0 t t 8 8 0 = 7 e 0 , % , 7 c > w 8 n 3 3 t 0 < 8 , 2 8 C 0 w T q +.J D r.c w w +.q.u.$.{ { t q.u ",
"0 n T #.8 ( J c u ( +.w D 2.' u.+.g.+.+.2.u.T u.U n 4.u.u.( 2.2.l.+.c +.2.4.q.w 0 u J D t t q n D 8 w 8 7 3 , > 7 2 w J 0 c 3 4 7 0 8 < = 3 D c e e 8 0 0 8 0 8 0 t D 8 J +.c 7 < 3 < : 3 4 > < 8 : 4 7 < U ( c J 8 8 0 3 e t 0 w q.J 2.J D s w +.w n 8 8 w t 3 4 8 w 4 8 7 ( J T w 4 c 4 u 8 n 2 u 8 3 3 7 4 , 7 3 < 3 > 3 3 < 3 0 7 7 8 n n u { u n 8 0 T 8 3 8 n w t J c t 8 w 8 , 3 2 0 7 4 n U +.4.w +.c 0 0 +.0 2 # : t t ; : , 3 0 7 e T 7 # , 3 c q n n u 2.' n c 2 7 4 % ' l.q.w w ( w u 4 c 8 t 4 8 { [ 7.T D c +.u.+.",
"u.( ( u J D ( T u.D $.q.{ J 2.T r.+.h.{ 2.2.{ $.' D +.8 U c #.( ( 2.#.T 8 +.T D n 0 T T w $.0 4 7 > ; 7 8 < ; , 3 3 7 w e w 8 0 4 9 w 8 4 7 6 t w 8 c e w 3 3 w 7 u J t q 0 e 7 J J ( 8 7 t J t T t 6 c n 8 T 2.+.J J t ( 8 4 7 c D $.w T t w T T T c t 7 n 3 c u 7 8 t 0 4 J c w t 0 3 > t u 4 w 0 3 0 0 8 3 2 4 w , > 1 4 7 < 0 w D 0 4 3 e J n 0 n ( t u 0 4 c J 4.( J ( 0 D n 3 w 4 < 4 > w w 2 < 0 3 J 2 3 w 8 q : , t t 4 8 ( 8 t 5 w 3 w : > +.J ; e 7 2 : T u.> q.7.s 0 8 0 u.e.q.w T ' w 7 c 0 { $.4.0 $.u.u.c D q.t f.",
"+.0 n c T n c { 8 > D t { u ( T 7 e T ( c $.( w $.+.D D s.J { 0 $.w q p D D +.2.t 6 $.0 n 0 3 : , 0 t T 3 0 B 0 0 z.q.k.s.2.T n $.7 8 2 8 6 3 8 4 +.t q.8 T 8 2 8 w t D 4 2 7 0 8 w 8 u t 4 w , q.J 4 4 w J D { e.+.$.( J J 4 D n ( U ( D q.u ( { ( J w w e 0 w 8 0 t 7 J 0 e u 8 J 8 7 u c c t 0 B +.{ e 2 2 3 : 8 - 8 4 , , , 0 e w 0 7 q w 7 $.+.w 0 6 3 4 ; , 7 +.J * 2 u +.2.$.u #.{ { u t 8 ( 7 e T 6 0 c 2.c ( 4 3 J n 0 w 4 p 8 w 0 7 2 w ; 0 w 8 t t +.T 0 c 0 3 u.c Z.0 3 k.2.f.k.D , +.T 2.t t q.n [ T T t ( $.q.n ( ",
"+.u c J +.d.T C J e D ( { r.+.U 2.c t c e.2.7 t e 2.4.2.t t 0 8 4 q.z.k.l.q.T c 8 s J e w t q 7 , J t J 7 n 2 4 D w 8 0 J D 7 4 ( 6 q n w c w ( J +.4 3 = c 2 6 ' ' q.e 8 { 3 e.e t 8 8 +., U 0 0 c 6 0 t n J n 2.n #.$.8 { : 2 q.( { { P D ( 0 ( U ( +.w u.4 q 0 w 0 q 8 n 8 8 n 0 J c t 8 t 0 e { U w 2 2 8 q e +.+.( 6 , : 2 : e D t t w , 7 0 4 u u c 3 2 5 7 { 2.D 8 J J $.c n w e ( w t c w 8 u D c 3 0 8 c T +.u t ' +.{ h.2.#.J n T T u q u.n u 6 % & o 3 b.( 2.q.v.q D 4 k.u T 8 8 8 8 n l.{ 4 w p.2.#.0 { +.e c { +.0 ",
"$.n J c c U 2.7 8 h.v.7.p.D t 2.7 e D w u.c +.( u U $.n c ( ( +.n T c u.s.$.T q w c +.w q c w c 7 0 3 2 > < , 8 , 4 J e.e T n B c t u c ( T 2.2.D 0 u.- w 8 h.U c D T 7 < 7 w 7 2 0 { 8 7 6 7 t +.D 0 t #.w U , q n +.D T u w , 7 J $.T n c ' +.q J u n c t e 4 t , 0 3 q 4 J ( 8 2.+.8 w c 2.8 0 { +.8 8 7 7 0 2 0 c 0 6 4 2 8 e c c D t 0 0 7 4 2 6 0 t c 0 0 c w q.0 7 7 c w t { J T ' 0 8 7 0 t * 4 2 7 D 2.+.$.B w 7 t u.h.h.f.' w 2 w w 7 w $.7 w - 7 2 3 4 n w n w 4 : 8 c 3 D d.8 w ' 7 8 J w #.B 2.#.J 2 t D D 0 ( ( d.",
"f.h.C w u +.w t 2.b.f.z.u.0 D 7 4 4 0 $.T J w w 8 e.0 h.w c 4 7 ; 2 4 0 t ; w e t T w c 0 w u t +.2 < 2 8 3 , - , : w n D n 8 8 w 0 8 0 ( t 7 t e 4 w t 1 t c U T w 2.d.+.w 7.x.q., 7 = v.T +.u.$.2.( n $.( T 4.c n $.k.q.t u 4 B w 7 2.+.U q.c T q D c u D 7.c n +.w 0 J D T D J 2.+.q 0 D q.< { r.T +.( w e w c ( c T 8 w 0 0 t u D q 0 8 u 2 , , , 2 w J T w u ( 8 w q 4 J 2.7.c 7 w 0 c u n t = - : , 4 J e ( 2.c ( 4.7 8 { t w ( n D n $.q.p.( 2.c d.J 0 d.z.u.p.( t 2 8 n 7 < q.p.0 e.x.{ ( D b.z.h.f.n.2.+.$.q.z.k.m.q.7.",
"q 7 { t n u T 8 D u.u.q.q 8 p.' 0 8 , 0 8 T c $.8 t e 8 8 < 3 c s w w w T c +.( w , 0 q ' J 0 q 0 2 3 : 2 , = 3 , 8 t n c t t 0 T w D q U ( P 2.+.C u.0 2.8 J D ( $.2.d.2 e 0 8 0 w 0 n < 3 1 2 t 3 u D u.{ J n 0 w 2.P D 8 p 0 s s 8 q #.u n c T u e 3 u u 4 6 0 c q w 0 B n w { t 8 7 0 ( D 2 ( T #.+.7 2 2.( 0 t w 0 4 0 e c D t q 7 c t c +., 4 , 2 +.w n n B 0 4 J q.{ { w e 8 8 0 w w w n e 3 2 8 7 8 8 3 e q 3 4 { { J 7 ( t t n 8 h.r.u.u.l.N.h.t 4 0 2 , 3 ' 8 - 3 , , 4 c q w 8 8 ( ( 0 w 4.u.( J t +.7 e ( u 7 2.+.u.",
"( c t u t T ( c u.2.2.#.u 3 3 ; r.q 7 T d.x.f.$.e.u.q.J c ' n J w 7 T t q 4 w 3 c D T 8 4.u.c t 4 7 3 8 t 4 4 3 8 0 e w u q e #.u c J +.D T d.2.{ d.4.e.d.e.u.P 7.{ r.( 7 t 7 e t 7 4 0 3 2 0 3 3 3 w U t 7.t 8 0 0 D u 7 0 t 2 8 ( 0 c t 0 3 , ' t 8 7 t 0 q T n ' q 0 0 8 w c t 4 7 0 4 8 8 w 7 u 8 q t u 4 6 8 6 3 3 8 w 8 q < 4 4 2 w { 0 w 4 8 4 7 C 8 4 D t 8 q.c u +.D c 7 8 w 7 7 u ( D t J 0 3 > 4 e c 4 t > 3 c c 0 7 8 w u w c q.{ 2.c 0 w ( q 7 8 u.q.q C u $ & 2 D T 7 D J t $.2.k.c 7.c T $.w 2.J u 3 ( t +.D J w ",
"2.2.7.q.t J 7.h.u.2.w ( T w 0 2.d.u.u.q.J +.q.q.' +.( D 0 q w u { ( w 0 c U ' q.7.{ 2.J 7.c 2.0 0 8 0 0 , 4 3 2 3 7 0 3 7 0 u ( 8 c 4 t e q.2.w 3 e.c ( D { D 0 q 8 B J 8 w D 8 D u.w 7.q.u n 8 8 2.0 ( t u 0 u 0 0 ( c 0 , 8 7 t 8 c c 8 7 6 3 , 6 D w p t u e J c 0 u w w c +.q 8 8 3 4 < 3 4 4 2 2 < 4 4 6 4 t , 3 0 7 0 8 2 2 : 4 3 t B t 3 7 : , t 2.J T 4 2 T c 8 p 4 8 u 0 2 : , u c n t 3 0 w 0 , 5 w u 7 7 0 3 ; 0 8 3 0 3 7 2 q t D D D p.{ $.n $.2.C.h.8 u N.8 q.t c 7 4 D q 3 0 w p 2 3 ' u.u.2.s.$.8 0 ( c J w p { ",
"m.z.k.k.( f.2.e.$.{ u.n 7 D p.x.7.u.$.u.f.q.+.$.u.J 8 J 2 t 8 T 0 6 t t $.#.w k.0 2 2.8 u c 0 7 4 3 w 7 n t w 4 2 3 7 0 n u u D d.2.e 3 0 n T ( +.> 1 3 J ( J 0 w +.d.J 8 5 p n 7 c T w w t e e 7 c D 4 4 w c 6 w t 7.D 0 u 0 w t t B D n t , 8 c t $.c $.J u.c 7 n 0 c c P D t 7 8 0 7 ' u t 0 4 3 3 4 7 w 8 0 7 3 4 4 3 3 < 8 , 7 > 6 3 < 2 2 4 c 4 B D t c 0 0 q.2.n D c 0 c q 0 7 q t J J n n T J +.4 7 2 8 7 6 2 2 c t 0 w ' P D 2 2 n 7 q.0 u.( n $.{ 8 7 4 0 e t t ( 8 2.c t u.q.q.J z.+.z.c 0 u D J 2.q.U q.f.( h.$.k.x.",
"2.c 7.d.T t.{ +.8 u n w t $.+.k.z.u.e 7 0 u U +.{ ( q.+.8 0 q w T $.D 4 J T u T +.0 e 0 #.t 4 n 8 n t c w & 0 4 1 , t s c c c D { q.c t ( +.w 4 { e.T T h.p t J 7 T d.n t u #.c J { p q.0 4 T n n t s u c w 6 ( D ' T $.D P 8 8 n u 8 { J w w : < n 0 J t D u n 0 0 t +.T +.$.c 8 , n { q 2 J 8 4 2 n 4 3 t 0 4 3 3 0 3 2 3 , n 7 7 0 T ( D t ; t c 8 7 7 { 4 q q t T t J T w D w 8 7 0 , - > 8 D c t c e 2 e D D 2 2 ; > , 8 c 0 ( c 4 q h.( 2 4 c 8 8 z.3 t #.{ J u.w $.h.2.#.2 U ( u.7.h.p.u.k.k.c.0 0 u q 7 w { t 2.c C ( d.",
"{ D $.$.T T +.u.( +.u.q.D n q.{ e ( 7 D U { ' q 3 w 8 2 n { d.2.+.c t u 0 t J J { e J D t t w J t D t ( 2.J 0 q 7 4 w D +.T ' c e.4.w ( e 4.c 8 n u.8 d.p t n 2 +.n T 7 u.+.T e n c 0 d.4 ; 4 3 - 0 8 u c ( t T n D D J 2.#.0 t U e 8 0 u u.7 2 , 0 0 w 0 ' 0 w 7 8 J D ( c { 0 t 0 [ J 8 8 e U u w T n 0 0 8 : , ; 7 4 8 e 8 , 6 : > 0 J c 0 ( $.w 7 7 ( q.T t T w 8 w D P u 3 = , > : > ; > n +.{ D 0 t 0 , w 7 0 & 2 # , 0 w 0 t 7 : , t 6 3 > d.c u : , , 3 2 k.d.+.q.u.u.{ { e ' ( $.w p D w n d.' n d.n z.0 7 u.t 0 4.t D ",
"J J J 4.n 0 D c w u h.B u 8 u.+.e.q.D 8 8 c J 7 0 0 { 7 8 9 0 c D 4 e t 2 e D ( ( q n t ( J w 0 t 2 ' g.h.x.r.q : 3 , 8 n 8 0 w { e.{ f.J q.B J J c 0 #.( q.d.D T k.+.p.J u.q.c c w +.J 0 c 7 , 3 : T c 8 n #.0 0 7 q p +.+.0 0 c 0 D w t $.J n 0 { c J w 3 0 w 4 0 3 c J U D 3 7 8 T ( w 8 e 3 w t 0 0 w 0 0 2 q , 3 < , 8 0 3 - : 3 0 0 t u w 2.0 J $.( D 2.' P 0 0 D c T e w 7 t 8 4 2 2 > w 2.J w +.( w t t > 3 6 q 7 u > 3 7 7 8 , 7 8 , ( t 7 0 7 #.2.7.T l.t +.k.z.h.f.x.u.D w 2.k.2.u.d.c 0 8 0 w u h.q.m.q.e.l.d.d.J t ",
"u.p.#.v.v.z.h.z.#.h.h.+.{ ( t f.d.l.m.v.v.k.x.v.m.x.h.u.k.q.n c $.n n +.2.+.+.4.c 0 c T c t q.D u.+.7.D { u.#.2.( #.4 4 2 8 8 3 e 3 { #.h.f.T c +.7 T 2 2 0 ( $.c u J 7 0 9 t $.+.q.+.8 2.0 0 2 7 c 0 7 q +.6 e 0 e 8 D t c c U 0 n J 6 e t c e ( c 7 w 0 6 7 4 8 c u w 0 n +.q 8 w { 2.+.J { t J 2.( $.e.2.f.p +.u p.h.T c n U c w c 4 c u u n 7.w T ( T 8 3 ; 2 4 0 p.2.T J 6 4 4 7 u 4 c e e w J { J U 0 7 c 0 2 0 % - 3 , 3 3 2 - , 6 0 8 7 2 8 D 4.t D w +.t w D J T U +.4.d.T f.J P n +.B q.q.u e 0 { u.( z.f.k.n.x.J k.d.",
"b.z.h.h.u.d.q.f.k.2.2.e.2.d.+.h.f.h.d.k.h.u.2.( n P +.2.2.0 t e 0 p w 6 0 u u 0 ( 4.D ' ( J z.( t J ( T d.e.n J 7.2.{ 2.D 0 3 8 n 2.2.D 4.q.( 2.T 2.6 ; : 3 t U w D c D 2.d.- : : w D 8 2 2 t 3 3 0 7 w 7 ( c w ( w e n q q 0 t 4 7 8 n 8 e w t 4 8 8 ( D 7.u.w C B 8 w t 0 { w w 0 c r.4.2.2.u w 2.{ 7.d.{ ( 7 : 8 2 2 q 3 , 8 2 7 0 t t B J 2.2.D 6 U t 4 D 0 0 6 D ( ( J w t 8 7 2 3 7 8 8 q t ( +.{ 8 3 2 J ( D w 4 3 3 4 2 4 7 8 u J 8 2 t 4 2.w 7 ( B +.: , 0 d.{ 2.4.{ p.d.2.J 7 3 J w n D 8 7 2 4 4 0 T c $.B +.z.D z.m.",
"g.+.$.J ( c 2.0 2 2 2.q.( 7.t 4.U T 3 u.{ J { { T 0 C c 4 3 8 4 w t t w 0 w 0 t 2.k.2.J t t T u 4 8 8 4 7 8 7 1 3 7 4 5 0 t 7.D n ( $.w w ( 7.t c ( d.2.q.T p.7.r.#.0 { ( $.u.e 2.( q 3 7 4 8 7 0 e 0 t B 0 7 2.q.0 t 0 0 0 t 6 8 u.2.p.0 n c 3 > 3 7 7 4.w 0 0 e ( T 7 p 8 t 0 4 4 n n 0 8 c T 2.4.{ u.T t e 3 w 8 4 3 , : 0 3 3 t t J J +.q.d.u.$.u c 0 8 0 J n t J q.D ( J t n u 3 , % : e w n #.( q.4 > u 2.T D 8 u D 7 2 4 7 q c w w e $.0 4 8 2.V.- , x.c 3 n.z.l.c.2.q.h.j.e.0 c 0 2 > q 7 1 0 4 > q T J 0 7.q.h.j.$.u.J ",
"n ( $.D 0 c 3 w u 7 4 7 +.t w w c 0 q 5 w 2 8 w 0 q 0 > 7 w c D 7 w 0 u J t J 7.h.2.q.0 l.p.q.q.t u 0 J U n 8 : < 7 0 w 4 t { T +.$.0 U J 0 n 2 0 t ( +.e.u.T t 8 q 7 7 t T 7 0 t w 8 7 0 0 , w 4 w D w t T w D D 2.2.+.+.r.q.{ ( 2.D $.c n 8 0 2 0 0 w +.0 T u 0 p w u w c 8 0 6 t n D t u.2.( D 0 3 s c u , 4 2 2 3 - 4 2 7 2 e 5 8 0 7 J 2.+.T D p.$.{ 0 t 0 c t u T ' t t J 2.7.{ 8 3 0 u n ' 2.n 2 = ; J 8 7 7 > 3 2 8 1 w 2 7 6 < 8 3 t J 3 6 0 x.u.h.u.x.w d.d.z.e.k.( J h.q u { u.J ( { u.q.f.s.z.V.v.l.l.v.#.h.x.7.r.u ",
"+.$.0 ( u.w t u.u.2.2.j.[ { t n 7 D 0 n 4 t 6 3 3 c 0 0 D D ' n 8 T t t 0 ( J 0 8 t 2.u.+.J ( 0 T 2.+.u.u.d.7.2.T J , q T { q.c +.2.D c t c n q.u u T 2.D ' ' T c t ( D t t 8 T w , 0 , 8 7 0 2 8 0 w q n D : > 0 { 7 7 T +.2.t J q ( T T w 0 0 8 8 w n +.J t D 0 u w e w t ( t w t { q 2.2.2.T u J q 2.c t 8 w 2 8 4 2 ; 2 4 7 { +.n e t w e U T u.{ u.' D 7 u J 4 2 8 0 0 c c +.( +.P 8 8 c c C J ( 8 , t t J T w J t 4 7 7 0 7 0 u 0 2 , +.g.z.m.3 z.( 2.D n 2.7.h.h.q.l.d.q.d.k.8 w #.p.z.7.N.d.x.q.z.N.k.m.b.x.d.u.d.k.m.$.",
"k.h.2.2.r.+.( J h.q.h.d.$.+.q.0 q.q.d.h.+.t +.J T 0 T q q.d.J 0 0 { q { u 4 c +.' J D B c { +.J ( 8 2.0 T 7 8 6 , 3 D 0 8 t r.r.u.4.#.7.B u 4 #.w u.2.T J P t z.7.T 2.J { u t u t 7 J 0 q w t 6 w 8 c 2 t w 7 7 t D +.( T D D u u 0 w 0.J +.' ( c q , 4 n u q 4 e w D $.( $.D U u { +.T D c c J [ q.J p.q.n t , u 8 D p 0 , < 7 J 8 q.q u u 0 w ( t { $.( T J c q 0 u D c D t w D D n D u 8 t { 2.4.T p w ( { 2.8 U 8 0 8 7 0 4 e 0 3 8 3 0 c t f.k.q.u.q.2 h.d.{ d.+.+.q.{ 4.J c +.u.J D c u.r.h.z.z.x.v.4.h.k.u.n b.k.d.#.t n.",
"{ p.{ ' 6 +.{ x.2.g.+.d.7 D q.T +.e.7.{ r.u.$.q.+.t +.w 0 c $.2.h.d.$.+.c 7 u 7 J J c t J e 8 +.D J J z.r.e { t > t 7 , t 3 t D 4 6 8 q.D w c D { 2 ; : $.q.q u.g.n q q.[ J 8 t 8 0 2.4.t t 0 w w J w t 0 6 ' J e t J c t t D U T D C n T 0 e t J 0 2 0 w J w 7 c u T J T 2.( c c J { 2.+.' D u q q.T 2.u.d.n 0 8 0 8 : 4 5 0 { D +.w J t c J J #.u J ( J T q 7 u e 8 D B c w D { ' T #.c 0 < n +.g.u c q 3 u q.+.w t t 8 3 8 t 7 0 0 w ( +.8 q D s c J z.s.u.n u D q.{ x.h.l.u.7.D u +.u.d.7.{ h.h.f.z.h.N.k.+.h.h.z.b.m.z.#.2.",
"l.m.d.4.z.J 7.+.u.q.k.q.J +.#.r.T $.+.d.{ r.2.2.+.+.J ' 2.e 8 8 7 2 0 w w T q.2.l.{ u.{ n w q.q.+.8 3 c q 8 4 7 , 7 7 8 0 q 7 t J u u 3 t #.[ 7.$.q.J 7 +.$.c D U ( q.{ e n w n c +.e J J n 0 c D 0 w 3 w 3 : 3 7 w 1 J T ( U t $.( +.n +.w d.d.r.e.+.D B d.4.D c t T +.#.{ e 7 7 ' T ( U U n c 2.w u.h.0 7 4 3 : 4 u 0 q 8 D D 7 0 e 8 u w $.w U c 2.2.0 0 t 7 J 8 7 e 0 w t c t t e e 0 0 , 0 0 n J n u J u.( T t w e 6 0 8 q w u 2 q u t e e J e U J t { u.q.k.u.d.b.$.q.u.+.x.$.u ( ( n 7.q.u.e.4.u.$.{ k.h.z.m.v.u.z.b.b.j.",
"h.z.k.z.l.k.z.j.z.u.r.d.c #.e.z.h.u.f.u.q.d.h.u.h.q.q.{ q.#.J D s c D T J T e 8 w 6 2.7 D e.p.n D e d.w w c w 7 8 n 3 7 ; 3 t u 2.q.r.J 2.T D 0 s 7 4 ; 3 w e 3 w { $.( w 3 : > < 4 t u 0 7 8 w t 8 7 t n e n { t D w q.$.J w q u ( 0 8 8 7 8 0 w ( n w u $.c $.T p.h.u.+.u.h.r.q.$.h.D t +.q.2.u.{ ( h.4.$.q.4 t J 7 #.8 5 0 c U 0 0 D 7 0 6 J 4.7 4 , 3 8 0 t p 7 c 3 8 e D t D q u 7 t e 8 e D n 7.+.c T ( 2.u 0 0 T { 4 6 t 0 D 4 7 t T ( 4.u.h.h.k.z.f.k.T q.e p { ( p q t $.q.c 7.q.q.+.( D u e 0 e D #.d.z.#.l.t h.k.v.h.",
"l.x.d.h.k.7 ' +.( J 0 ( #.e.p.J T ( T T u.J 2.+.2.U q.7.( T 0 6 2 q T { D 2.f.$.{ c n $.( T n w q w ( c 8 n u 8 3 8 c 0 0 0 8 t 0 w D 8 +.u T #.J t 8 8 2 2 c +.4.g.2.$.3 D $.0 { 2.4.2.+.D ( u u 7 c U $.n c D n D w t J ( B 8 8 w w J D J t 6 s t +.c w J #.J u J p.e.+.u.2.q.{ q.{ $.( e.4.e.d.c ( C p.T u q.t e ( 4 8 0 1 n n 0 e u C w t w 0 $.B n D q.2.u ( 0 8 0 0 J J +.2.n w w 7 0 8 U t 0 D T w J +.$.2.T t e w 7 3 7 J +.{ T q.u.h.( h.d.u.f.h.u.d.k.$.f.J +.n h.q.q.z.f.h.l.q.d.u.m.D u.h.( D q q n t 2.b.k.z.v.b.x.",
"0 ( 8 0 > 2 T $.d.0 3 2 : 8 ; , 8 ( e 8 n n ' 0 c u w s c 0 D u p +.8 c +.u $.2.d.d.D h.s.4.T D t c t 0 > ; < 2 2 q t 7.q.u 0 t J +.+.w w q u 4.J t 3 ; , , t c J J u.+.J 7 w 2.t T 0 t c u n w 8 +.0 0 7 7 8 w 0 7 q 7 8 4 t n 7.0 2.8 e.J C D J w u c w c e U T #.t ' D e 0 q { T c ( c D U $.{ ( c J ( 4 u q 0 3 7 D 0 3 6 w 8 > q 8 7 1 , 0 w t 0 w t D q 7 q 2 4 c T t n { 8 4 8 8 2 3 3 > 4 e D c { D c t T c u c c c p c 0 7.e.u.J r.h.x.C +.{ z.x.x.d.' $.$.7.u.e.7.D n , D 0 t $.J u w D e U U w q.w h.k.j.u.h.2.u.p.+."
};
