/* XPM */
static char *b4961e38415948e7a21b878a988c34dbOZ8EhmIvf1dZQxFL[] = {
/* columns rows colors chars-per-pixel */
"256 256 183 2 ",
"   c #361E13",
".  c #391F13",
"X  c #3E2216",
"o  c #3F2418",
"O  c #432517",
"+  c #462817",
"@  c #482917",
"#  c #452618",
"$  c #482718",
"%  c #46291A",
"&  c #4D2C1B",
"*  c #512E1C",
"=  c #4F301F",
"-  c #54311E",
";  c #5A341E",
":  c #5F381F",
">  c #60371F",
",  c #60381F",
"<  c #4F2F20",
"1  c #502F20",
"2  c #4F3020",
"3  c #553220",
"4  c #543320",
"5  c #553320",
"6  c #543220",
"7  c #563220",
"8  c #563320",
"9  c #573320",
"0  c #563321",
"q  c #553120",
"w  c #553421",
"e  c #563420",
"r  c #573420",
"t  c #573520",
"y  c #563421",
"u  c #573421",
"i  c #573521",
"p  c #563422",
"a  c #553320",
"s  c #583320",
"d  c #583420",
"f  c #593420",
"g  c #583520",
"h  c #593520",
"j  c #583421",
"k  c #583521",
"l  c #593521",
"z  c #5A3520",
"x  c #5A3521",
"c  c #5B3521",
"v  c #593620",
"b  c #583621",
"n  c #593621",
"m  c #593721",
"M  c #5A3620",
"N  c #5B3620",
"B  c #5B3720",
"V  c #5A3621",
"C  c #5B3621",
"Z  c #5B3721",
"A  c #583422",
"S  c #583522",
"D  c #593522",
"F  c #593622",
"G  c #5A3622",
"H  c #5B3622",
"J  c #5A3722",
"K  c #5B3722",
"L  c #5A3723",
"P  c #5B3723",
"I  c #5C3620",
"U  c #5D3620",
"Y  c #5C3720",
"T  c #5D3720",
"R  c #5C3621",
"E  c #5C3721",
"W  c #5D3721",
"Q  c #5F3720",
"!  c #5C3622",
"~  c #5C3722",
"^  c #5D3722",
"/  c #5D3723",
"(  c #5A3621",
")  c #5D3820",
"_  c #5C3821",
"`  c #5D3821",
"'  c #5D3921",
"]  c #5E3820",
"[  c #5F3820",
"{  c #5E3821",
"}  c #5F3821",
"|  c #5C3822",
" . c #5D3822",
".. c #5D3922",
"X. c #5C3823",
"o. c #5D3923",
"O. c #5E3822",
"+. c #5E3922",
"@. c #5E3823",
"#. c #5E3923",
"$. c #5F3923",
"%. c #5F3A22",
"&. c #5E3A23",
"*. c #5F3A24",
"=. c #5E3922",
"-. c #603720",
";. c #603820",
":. c #613820",
">. c #603921",
",. c #613921",
"<. c #633920",
"1. c #613A21",
"2. c #623A21",
"3. c #633A21",
"4. c #603922",
"5. c #613922",
"6. c #603823",
"7. c #613A22",
"8. c #603A23",
"9. c #613A23",
"0. c #613B23",
"q. c #623A22",
"w. c #633B22",
"e. c #623A23",
"r. c #623B23",
"t. c #633B23",
"y. c #623C22",
"u. c #623C23",
"i. c #633C23",
"p. c #643C23",
"a. c #643D23",
"s. c #653D23",
"d. c #673D22",
"f. c #663D23",
"g. c #673E22",
"h. c #603924",
"j. c #603A24",
"k. c #613B24",
"l. c #603A25",
"z. c #623B24",
"x. c #633B24",
"c. c #613C24",
"v. c #623C24",
"b. c #633D24",
"n. c #623C25",
"m. c #633C25",
"M. c #643C24",
"N. c #653C24",
"B. c #643D24",
"V. c #653D24",
"C. c #643D25",
"Z. c #663D25",
"A. c #653E24",
"S. c #653E25",
"D. c #663E24",
"F. c #673E24",
"G. c #663E25",
"H. c #673E25",
"J. c #673F25",
"K. c #643D26",
"L. c #653D26",
"P. c #673F26",
"I. c #633B23",
"U. c #683F25",
"Y. c #683F25",
"T. c #674025",
"R. c #674026",
"E. c #684025",
"W. c #6A4125",
"Q. c #6B4125",
"!. c #684026",
"~. c #6A4026",
"^. c #6B4127",
"/. c #6C4227",
"(. c #6A4126",
"). c #6B4228",
"_. c #6D4328",
"`. c #714527",
"'. c #704529",
"]. c #724628",
"[. c #724629",
"{. c #754829",
"}. c #794A29",
/* pixels */
"{ k v.8 k k { k Y { { k { Y { * - + * , k B.k B.v.k { k - k 8.; & Y - & - B.* & * + & * - & - & & - - # * * k.B.Y k r < k B.k.& - - ^.k & ; k Y * k & & - ; : - : : 8.* & ; { r 8 8 { 8 v.k & & & - r & i.B.8.Y - { k k k r Y k v.v.; & - * * & - * k - & - v.8 8.- - ; Y s 8 8 k k & k - k 8.8.- - { 8.* - k k { & - k k.].U.8.r k & { B.r { 8.8.- & - & ; 8.: & & : * ; 8.- k.B.B.B.U.{ & 8.^.k k B.k { { f.k - 8.k 8.k - k { k.* 8.& # + & - ; * & f.B.8 8 - r { Y 8.- r k 8 k i.; - Y B.k r k v.k 8 4 8 { k ).{ k B.- { r { ",
"- k k.4 - k { k k 8.k { 4 k k - - & * f.{ ^.*./.B.Y { & - - r - - ; * & & f.& & - & - ; ; * - & & ; & + - 8 8.k.{ k r & k.B.B.& - ; k.k - { k 8.k { & & - - 8.- - ; : & + k B.k - 8 8.- v.r % & 4 k r 8 8.i.8.; 8 k { { k 4 r k v.i.: & - * * @ * * Y k 4 8 B.8 { - - k Y k 8 k k k - r & - 8.8.; & ; f.* - k Y - - - k B.^.^.B.; Y & { B.- k k 8.- - * & { : ; * & ; * ; 8.- { B.v.v.8.{ * { U.k { R.k { 8.f.k - 8.k 8.Y k Y v.r & { & O O & ; ; * $ 8.k k - - ; Y { Y k 8 k & r { ; * Y B.k 4 k { { { r 8 v.{ ].f.{ ^.- 8.- & ",
"Y k { - r { { Y k.{ r { r k k * - O & 8.k /.k.^.B.k.r & - - - - - { - & * B.& # & & * ; ; & ; * # : * & & - k k.8.k r & { B.k.+ - - B.8 & Y k f.- v.- * ; - 8.- - - : & + r 8.k - - 8.- { r 4 4 4 r *.8 B.{ 8.k - - Y 8.8.- k k B.k ; # - - - & - & Y k r - B.k Y - * - - - 8 k k k & - * ; 8.{ - - ; 8.& - - { 8.- Y { 8./.B.{ - 8.- v.8.k - - f.; * - & { - - - * : * : : ; k B.B.B.U.f.- 8.f.{ r k.8 k { B.{ - k k 8.k k Y { *.& Y & O # - Y Y * $ Y 8.8 - k 8 8.k k k 8 r = | 8.: - 8.{ 8 8 k Y k { - & { k _.B.{ U.k { & & ",
"{ { *.- - k { k.B.B.k v.{ { 8.8 & O & Y.v.8.r B.^.k.k - - r k * - { - - - 8.& + & + & : - * Y * # ; - & & - k B.v.k - & { ^.B.& - - { k - 8.8.f.; { - $ - ; 8.; - : 8.& + ; k - - - 8.r *.k r 8 & 8 r 4 8.{ 8.; & - Y 8.k - r Y *.{ & $ * * & * - * k Y 8 k ^.Y { - * - ; - * k k 8 & = & k { { - - { 8.- - - k k - r k B.].f.k - 8.& 8.^.k k - Y ; & - * Y ; , ; - - & ; : ; 8.B.v.B.i.8.* f.B.{ 8 { - 8.Y 8.- k i.k 8.- - Y { v.& 8.& O & & ; ; - & 8.; 4 - - ; Y 8.8.Y 8 k - - 8.8.; f.B.k k k 8.B.k & & k.k.^.; - ^.k Y - - ",
"f.k *.8 r { { { k.8.8 { { r k.- & O - 8.k Y Y /.k.{ k & - - - - - w.- - * Y & & & + * : - * 8.& + - - * & 8 Y Y k.8 4 & k._.v.& - - B.{ - v.Y 8.- 8.* & - ; w.; ; - , & - | Y - - Y B.k { Y k 4 r k r & { { v.k - 8 B.k k - - k B.{ - & ; - & & * * - * 4 - ^.k k * - - k - - 8 8 k - - r k 8.k - - ; 8.* - ; k k - 8 { { U.8.k - ; & { v.k ; - 8.* * & & ; - - * & ; * ; 8.- *.^.8.k.8.i.* 8./.{ k v.k B.{ f.; - i.k { - r k.v.| & Y & & & & ; Y - & 8.k * 4 - - k i.B.k - k 4 k v.: - 8.i.r k k { B.k & 8 v.k B.; { 8.- 8.& - ",
"; - v.k { B.k Y { { 8 *.r - 8.k & O & { k 8.k.^.k.*.k & & - - - - 8.; ; - Y # & - @ * ; * * ; & & , ; & & * k k.8.8 { - k.B.v.& * ; ^.k 8 8.{ 8.; 8.- & * * : : : - ; & = k 8.- - k { - B.{ 4 4 - k - - k.B./.k k k 8.k r 8 8 Y k.{ - & ; - & & & & s * * 8 8.k k - * - ; k - k k k & k ; ; Y { - - ; Y - - k 8.- & k k.k.B.8.Y & k & k B.k - - 8.- * * & ; - - & & - ; 8.w.{ k._.B.B.B.f.- { B.Y 8 k r Y 8.{ ; - { s 8.8 - { U.v.< k & & & & Y Y * & { { 4 4 - - { 8.{ 8 8 { r *.{ ; * 8.{ 8 8 8 { /.Y & & { r B.8.Y f.- Y & & ",
"- & B.r { ^.k - Y { { { - Y { s - X & w.v.8.k.B.8.v.- & - - ; - - ; - - - k # & * @ & - ; & ; & & : - & - * r B.{ - 8 - k B.k.% * - B.r - 8.{ 8.k v.; & * * , ; ; - ; & & { k & - ; 8.r B.{ = - 8 k k - { U.B.{ k ; 8.k k 8 8 { { k - & * * * & & & 8 k - 8 k.- k - & - k 8 8 k k { - { - k k Y - ; ; ; - ; Y 8.k & { { B.B.B.{ & k * 8.^.k k ; 8.- & * & ; ; : & & ; - : 8.{ { ^.{ k.f.^.; Y { 8.k k - B.8.8.k k { k Y k k k *.{ & 8.& & & * Y ; * & 8.{ 8 4 - - { 8.{ - 8 { 4 8.B.- & Y 8.k 8 8 { k.{ = & *.*.B.v.; f.- 8.& - ",
"; - k.- k B.k - { B.8.v.- k { - * . & f.B.8.8.v.{ { - - - k Y ; - ; * & ; 8.# # * @ * : ; * ; & * - & & & - { B.{ - 8 8 P k.k.& - - ^.k - { { 8.Y *.- & * & : - - ; f.* - r k - - - i.k ^.k.4 4 k k 8 - { 8.^.k - 8 { { k 8 * { v.{ - & - ; - & * & - k - 8 *.8 { - & * - 8 8 - 8 r - - & - Y - - - Y k - - - { { & r k B._.i.Y & - - { 8.k 8.{ 8.- - - * 8.: , - & 8.* - : ; { v.{ - { f.- 8.{ { { k k k.Y { { 8 { k { Y - Y Y k.4 f.* * & & k ; * & 8.Y 8 k r - - { k - 8 k 4 { 8.- & { /.k 8 8 | v.k & % *.k.B.i.; 8.- ; * * ",
"; - 8.- { B.k 8 k 8.v.{ r Y i.- - X & { B.8.8.^.B.Y 4 8 - r { - - 8.; * - 8.$ # - & * : - - - & * : & & * * k 8.k * k k { B.*.& * ; ^.{ 8 { k { k 8 - & - & : ; ; - Y.* - { k ; ; ; { k ^.B.k 4 8 r k - v.8.U.; - 8 8.- - k 8 k.v.k - & * * * * & * 8 k & * v.8 Y - * * k - - 8 - Y - ; - - 8.- - - Y 8.- - - k Y & k k.^./.v.{ & - - 8.8.k ; ; 8.- & - * : - - - & : * ; f.- k i.k k k f.& : v.B.{ k 8 8.Y { 8.- Y k Y k ; { B.B.8 f.& & & & : ; * # Y Y 4 8 * - - ; { 8 k k 8 { { ; & ; B.k r r { B.{ & % k { B.v.k ^.- - - ; ",
"{ k { 4 k B.k - - v.{ { k k { - * O & ; | { r B.i.*.8 - * - - - - { - & * 8.$ & * * ; 8.Y - ; & - - - & & * k 8.k & & & | B.B.& - Y _.{ r { - Y - 4 - * - * ; ; - * w.* & { k k 8 - f.{ v.B.k.- = 8 k - 8.8.8.; ; - { k { k 8 k v.- - & * * * : & - - 8 & * { - Y - & * k 8 - 8 k Y & - - - Y ; - k { 8.- - * k { - { k././.B.{ * ; * 8.B.{ Y ; ; ; & * * ; ; : * @ Y - ; f.; | v.Y { i.f.* : { B.k - - { 8.8.{ - { k s * - { U.v.- 8.* & & & ; ; * $ Y { - 8 - - k k { k k k 4 { 8.- & ; B.- k - k.B.Y - & k - *.k - ^.- ; * Y ",
"Y & v.4 k { 4 r k B.v.{ v.{ 8.* * X & { | Y k ^.U.8.- & & - - * & w.- & * { $ & * * ; ; - - - & - - * & * - 8 8.k & & & 8 k.B.& - 8.].x.k B.k k k r - & * * , * - * ; & & r Y - k Y U.v.v.{ - * & 8 k 8 B.8.k.k k - Y k k r - v.k.; - & * - - ; + & * 8 - 8 *.8 Y - & * Y k - - k 8 & - * * k 8.: k k 8.; - - Y { - k { B.B.8.{ - Y & 8.^.- k ; 8.; * - * - - : ; * 8.- ; W.: 8.^.k 8.{ 8.: 8.{ { { { 8 { B.{ k - k k k - k B.B.Y 1 k & & & & Y ; * & 8.k & - k - Y Y 8.- 8 k 4 k k * & ; ^.- k k B.{ { - % X.k { k.8 /.- k & - ",
"{ & v.*.k B.8 - k { B.{ { Y Y * * O & Y { { { ].^.{ - - - - - - * 8.- - - i.& & & - * : ; * - & - ; * & * & k { k * r - r { v.& * Y B.Y k { Y - k r - & * & : - ; - k & & Y Y - k k /.B.).v.4 * = k 8 - { 8.U.k - & - - k r - v.k.{ ; & ; * * * # & & k k k *.8 k - & - k { - - { Y - { r - Y k ; - ; f.- - - k { - k k B.`.f.{ & ; * B.i.- & k Y.; * - & - ; : ; - 8.* - Y.- { ^.{ 8.{ 8.- - | B.k.{ 8 { B.k.{ - 8.k Y k - { 8.k.8 8.& & # * Y ; & & Y Y * k - - k 8 8.- 8 B.8 k.k * & ; f.Y k r k.{ k - & k k v.*.{ `.; - & Y ",
"{ & { r k B.k r 8 k.B.B.k { k & & O # 8.8.8.{ _.^.B.- r - ; - - * ; - - - ; O # & & * { - - - * - ; & & - * - U.B.8 k & k { k.& - { B.k k { - Y Y k - * - * : ; ; * f.& + { k r k k U.{ B.k - * r 4 & = B.B.^.k - - Y k - r k { B.k & & * - - * + * & - 4 8 k.- 8 - * - ; 8.k k k k 8 { k ; ; ; - - Y Y.: - * { k & Y { v.^.v.Y & ; - `.^.k - - 8.; & ; & : ; - - - 8.* k Y.; k ^.r k 8.8.; - k ^.{ *.8 k U.B.{ 8 w.s k k - k { k.8 B.& # & & ; - & & Y k * 8 8 - Y Y { 8 8 { - Y k - & ; f.{ k k k.k r & & k | B.8.k `.Y { - ; ",
"f.- k k | 8.r 8 - { v.B.{ k ; * & X # ; { 8.- 8.B.B.- - k k ; - * { - k - { O @ & * * ; - * - & - ; * - ; - Y U.8.- - - k 8.v.& * k B.k k { - { k k - & * - 8.; : - f.* + k k { Y - B.{ B.k - - r k 4 8 k k.U.- * ; B.8.- 8 - 4 B.k - & * * * - & & & k 4 4 { - - - - ; k 8.r 4 - 8 - { { k ; ; - ; Y Y.8.- & { k - k { ^.^.f.{ & - * 8.U.{ k - 8.; & - & ; ; ; - ; 8.* : /.; - B.Y { { 8.- - k B.B.k.4 k B.8.Y k Y k k k - { v.*.4 8.& & & * ; - & & Y Y & - - - ; k { k 8 k k k ; - & - B.k Y 8 { { { & % - r B.k - f.; 8.& k ",
"8.& k 8 k k.k - k k.8.^.B.Y Y * * X & Y k k k { B.k.8 ; r 8 k ; - Y - * * 8.# & * & * * * - - & - * & - ; * Y f.k & - & k B.v.8 - { B.{ k 8.{ { 8.k - & * - , : : ; 8.- & k * - ; - B.{ U.k - & & k * r *.{ 8.- - - 8.{ Y 8 8 | { { - & * * - * & & * r 4 4 k.- - - - - Y { k - k k 8 k k ; ; - ; { 8.w.k - * k ; * k k B.v.8.; & - - { i.{ - - , : & * & - ; ; - * { - ; f.; ; B.k i.B./.: Y { v.{ { 1 { B.Y { s k s k 8 ; { { *.4 B.* - & & ; ; & & ; Y 4 k - - - k { k 8 k r k 8.& & ; f.{ *.k k.{ | - & | k r k - ^.; ; ; k ",
"{ & r k r B.8 4 *.k.k B.{ k k * * O & { v.8.B.^.B.v.- - k - - - * w.- & & k # - & & - - ; Y Y * * * * - * & 8./.8.& 8 - k k.{ 4 - k v.8.k 8.w.8.{ { - & * & , - { - 8.; & r 8 - { k 8.k ^.k - O & 8 8 k v.B.8.- - - { { k k - v.k - - & * - & - & * * - 4 k k.- - - & - Y { Y 8 Y 8.8 k - - k - - Y 8.8.; ; & k - - k Y k 8.v.; & Y ; 8.B.- - ; { ; @ * * - ; : * & 8.- ; f.- k B.k k ^.f.; ; 8.B.{ k r ^.B.Y i.k k 8 - - 8 k v.k.4 8.& & & # - ; * & - { 8 8 8 - k - k 8 8 k 8 k Y * & Y 8.k *.8 *.8.k - & { { *.^.k /.k k - k ",
"8.& 8 - k B.k 4 k 8.{ B.{ ; f.; & + & { v.8.8.B.B.k.k k - & & * - 8.- - & - # & & & ; ; Y Y - & & - & - - & { B.Y * & - k { | 4 - 8.k.B.8.B.f.{ { k - & * & - ; f.* Y * # r 8 - k r f.B./.k & & & r 8 - B.f.B.k - - { 8.Y k - 8.{ r & & - - * - & & & - r 4 k.8 - - & * k 8.Y 8 k k * - k - ; & - 8.8.f.Y - & k k - k.{ { 8.B.- + ; Y U.| - - & 8.; & - & : : : * * f.; 8.W.; - B.Y { f.w.- ; v./.k 8 8 B.B.8.8.- Y - * - r Y k.B.8 Y & & & & - ; & & { k 8 8 - 8 { ; { 8 r r - k 8.- & ; { k Y 4 v.R.k.- - { k k.B.- `.8 { r 8.",
"{ - k & - B.k r 8 k.i.B.{ - f.Y - # & k r Y { 8.v.{ 8 ; r & & * * Y - - - - # & & & ; ; ; k * & - - * - - & k 8.k 1 4 & 8 { k 4 8 U.^.k.k./.f.8.8.4 - & * & * ; f.- : & # 2 8 - k k B.f._.i.- & - k - & { B.Y.8.- - Y { k k 8 v.v.{ - & * ; * * & - * - - 8 k r 8 - * * - Y 8 k k k & r - - - & * Y f.Y.8.- & - k - 8.k.B.8.v.- + - Y /.B.- - - Y ; & ; & ; ; : - & 8.Y w.Q.- k ^.8.v.{ 8.- - { ].k.- * 8.B.8.{ - k - - - k k k.B.k B.& & & & ; ; - & 8.k 4 k - - k { Y k Y k & k { - & - B.Y k 4 B./.^.r & k k | v.- f.8 k k 8.",
"8.& - - r B.k k k ^.{ B.B.- f.; * & # 8.v.k r { Y { - 8 ; - & - * f.- ; - k # & & & * Y ; 8.- & k - & ; * # - B.Y 8 - 8 k v.{ k - f.{ { { B.{ k Y r - & & & & ; 8.- f.- & { k - - * i.B.B.{ k - r k - - k { B.8.k - { f.k 8 r { k.v.k & & - - & & * & r & 8 k 8 { - - - - k 8 & r - * 8.r k k & * ; 8.f.w.Y & k - & { k /.B.8.Y + - k ^./.k - - 8.; # * * : : ; - - 8.Y { w.- & U.{ { ; : : - { U.B.r - k B.{ k k 8.s - - - k 8.k.k B.* - & + ; ; * & 8.k 8 Y 8 - - k { 8 8 r 4 k Y * * { f.Y k.4 8.^.B.8 & k { *.k * 8.- k - v.",
"8.& - 4 r v.4 - r B.U.U.B.- Y * & & & 8.v.- k { { k r Y k & - - * U.k { k ; & * & & ; , { 8.; & { - - ; - & ; 8.k.8 & - Y v.*.8 - { B.k k 8.k { { { * & & & ; Y 8.; Y.; & k 8 k - - v.8._.B.- & & { 8 8 8 k 8.Y k - 8.B.k - k { { *.& # * - - * # & & 4 & 8 k 8 - - & & Y k 8 & { ; & 8 * - ; - - ; Y Y.8.Y - k - - { Y B.^.B.8.& Y Y B.B.r * - f.; # * * - - ; * & 8.- f.8.- k /.Y - ; ; : - Y ^.^.8.8 k 8.8.{ k { s Y - k 8.k.*.k { * ; & & - ; & & 8.k 4 8 - - r 8.v.- 8 k 4 k - & & k _.8.*.4 v.{ { - - { k.k k - U.- k k B.",
"B.& k r k k.r r k B./.k.k ; : - * & & & { ; k B.B.B.k - k & & * - B.k 8.k k & & * * - ; ; 8.Y * ; & * ; ; & Y 8.{ - % k k v.{ k - k k.k 8.B.Y Y 8.k & & * * - ; 8.- U.Y & - - - Y - v.B.U.r & & - { k - { k Y 8.k - i.8.Y k - { k r & # * - - & O & * 8 4 8 k - - ; & & k *.r & k { & k r - ; * - ; 8.8.8.Y k k 8.8 k.k k.B.B.k + ; Y v.k 8 & & 8.; & * & : : : * * ; 8 8.{ : Y /.{ { 8.w.8.- 8.B.v.r * { B.B.8.- k s k - - k { r { { & * # & - ; - * 8.{ & 8 - - - r 8.8 k { 8 k - * - 8 ].{ k 4 k.B.8.- 8 - r k | * /.k k.r B.",
"{ & - 4 { U.k { r v.B.8.{ - 8.- & & & ; { 8 k 8.v.U.k - { & & - - f.- 8.k 8.& & & & - ; : f.- & Y * & ; : & k 8.{ * & r k k.{ k - { { r Y B.8.8.8.8 * * * & - ; f.- f.; O r k k Y - B.8._.- & & - k { k k k Y 8.- k 8.{ Y k * k { { & & * * - - O & & r 4 r { 4 - ; - - k B.k & 8.; - { r - 8.- - : { 8.Y ; * k r - { k *.B.B.k & ; ; { k k * - 8.; & * & - - - - * Y - { 8.; - ^.Y { f.Y.8.k k B.k { & k B.8.Y 8 - 8 - - - 8.Y { X.k.- - & & ; ; * - f.B.4 4 - Y k ; { - 8 - 8 k ; ; * k ^.8.k 4 k.B.{ - r 8 k k k * f.Y k.r k.",
"| & - - 4 B.k 8 *.^.B.8.r - 8.* & & & { 8.r k B.8.k.k 8 k - - - - f.k k - k & & & * * ; 8.w.r - ; * & : ; & Y B.8.- % - 8 *.k 8 - Y { { Y B.k 8.8.4 & & & & - 8.f.* Y ; & r - k r - x.v.U.k & - k *.8 k { Y 8.8.; Y Y Y Y k * - { k & & * - * * O * * - 4 k k.- - ; - k k v.8 * { k 8 { r - { * - { 8.8.{ { - k - - k.8 v.{ v.{ * - k v.i.k - 8 i.: & & & * : ; ; - ; - 8.8.- - _.; - Y { ; k 8.B.k r 4 k B.{ { k 8 8 - - - k { B.*.k.* - * * ; ; * * k k.k - - Y { k k * 8 4 4 k ; * - { _.{ 8 1 B.B.{ r 4 { k.k k - ^.k k - { ",
"v.& - = r B.k 8 k U.B.{ r ; 8.; & + & - { - k B.B.{ k - - - - - ; B.k Y k 8 & & & & - Y 8.f.- * { - & ; - & k U.{ * & 8 r *.& r - ; { { k 8.- ; 8.- & & * * : w.^.- 8.- & r * - ; r 8.k.B.k & * k k 8 { 8.k 8.{ - Y Y 8.; k 8 { k k & & * - - * + * * * = k { - k Y - 8 8 { - * Y - - k - - 8.- - Y w.8.8.{ & r & - B.k B.v.v.k & k k ^.^.8 - k { : & - & * : : - : { - 8.B.: - ^.- - f.8.8.k v.^.B.Y - k i.{ { { k 8 - k k k 8.k.k k.& - & & - ; - * - k.8 r - { Y Y B.8 8 8 8 - - - * k ^.{ r & B.^.{ - & - k r k - /.k k r ^.",
"*.& - - v.^.k { 8 *.v.{ r ; 8.; * # & - k - k { k.k 8 k k & & * ; B.k k - - & * & & & - ; 8.- & ; & & ; * & k B.8.8 8 k { v.- k * k v.r Y 8.r - k 4 & * & - : 8.^.- f.- & r - - 8 k ^.^.^.r & & r 8 k k { k { { - Y { { k Y s { k k.& + - * * - # * & 8 8 k Y & - k - - - { k - B.k - 8 - - Y - ; - { f.Y ; & { k - k.k Y 8.B.Y & - k k.B.4 - { 8.f.& * * - 8.: - ; Y - B./.- & U.- - f.{ 8.k *.B.*.k - { /.8.k Y k - 8 k { { v.{ r 8.* - & & - ; : - & r 4 r Y k k Y 8.8 k r k Y - ; - 8 v.{ 8 4 B.^.B.4 & - r k k - U.k k k B.",
"{ - ; - { ^.k k k { { ^.Y ; f.; * & & - { - k.{ Y k 4 - k & & - - 8.- r k 8 & * & & & ; - 8.- * k * & : * & ; 8.{ 8 & k *.R.8 k.8 B.B.k.{ f.k k *.& O & * & & - 8.* B.- * r 8 k r k B.B.B.{ + + k { k k - k Y { k 8.8.B.k k - { { v.& & ; - * & & * & r & 8 Y - - k - k - { 8 & k.- & - - k 8.- ; - Y w.Y Y - f.k * k.r 8 k.^.{ & - k k k.k 8 8.B.8.& * * * { 8.; : 8.k U.U.: & B.8 = 8.8.{ k k B.{ k * Y ^.i.8 k - - k k 8.k Y r 8 Y - - & & ; - ; - ; { r r k k { k k s k k 8 k - ; 8 8 | 8.Y 8 ^._.v.k & - P 8 v.- B.8 8 - k ",
"k k k - k.B.k 8 k v.{ v.k - f.- * * & r { Y k.k k k 8 8 k & & - - 8.- { { { & & & * * - * 8.k 8 f.- * : * & Y B.B.8 & k 8 B.k k.- k *.k.Y { k { { 4 & & * & * { f.; f.Y * r 8 { k - 8.8.^.v.& O r k 8 Y k k 8.Y - Y { f.8.k - { { k * & - * * & # & * - & 8 X.4 k Y - * - k.8 & k - - 8 k - { - ; ; 8.w.; : - k k - k.k { { 8.- & - - Y B.| - r 8.Y & * * - ; ; * - 8.; f.^.- - v.- - ; ; { r { ^.v.| - 8.].U.{ { - 8 r - Y r k { k Y & - # & - ; ; * ; U.r k ; k k Y k s { { k k - - 8 k | { k 4 B./.v.k 8 k r k B.- 8.& Y - { ",
"B.k - & { B.k r k { *.r - ; 8.; - - & - r 8 { { k k - k k & ; - - 8.k 8.k 8.& & & * - ; ; U.; * 8.* - 8.- & { U.{ k & 8 Y B.| k.* - | Y 8.{ - Y k - & & * & - ; U.; { ; & < - r r - f.^.B.k & + - 8 8 8 Y { Y 8.8.8.f.B.8.* - 8.8.r & & ; * & & X & & - r 8 *.8 Y Y & - - { - & i.8.8 k - 8 Y - ; ; 8.f.Y Y & ; { r 8.k v.B.8.- * - r { v.k 8 8 8.8.& - & - ; ; - ; 8.- f./.{ ; B.- = - ; { { w.v.k k & k B.B.8.k - 8 - - Y { { k { 8.8 - # & ; ; ; - { ^.8 k k Y k k k.k { 4 4 Y - ; - 8 { k 8 8 B.B.B.{ 8 8 8 8 { * i.4 k 8 ^.",
"v.& Y & { v.r 4 8 v.{ { { Y 8.; - * & k k - ; k k r - k { & - - 8 8.- { k B.& & * & * ; k /.k * 8.* * : * & Y ^.{ 8 & 4 { ^.k *.8 8.B.v.8.8.- k k - & & & & ; { /.- 8.; & & & k 8 - /./.^.8 O & - { 8 Y k { k { Y k k U.{ - 8 i.{ r 4 & - * * & O * * 8 k k k.- { k - r r { r & B.{ & - r - k & - ; 8.8.Y Y & ; k - 8.8 - k.k - & k ; { { { - k 8.Y # & * ; { ; - 8./.{ /./.k - ^.- k ; ; 8.k.k | { r & k k.B.{ Y k - k - - k Y 8 r k.k ; & & ; ; ; & k v.8 8 { k k 8.x.- Y k r ; & - & 8 v.k k k B.^.R.{ 8 r k 8 r * { 4 4 - /.",
"B.- k & k ^.r 4 r B.{ 8.{ 8.f.8.- & & k { 8 - k { k.- - - & - - k 8.; k Y { & & & * ; k ; f.k - i.- - : * & ; f.{ 8 8 r k R.- r 8 8.^.Y { 8.- Y Y - & & * & ; 8.U.; { k & - & ; ; - ^././.k & & - k 4 Y r - { 8.k Y 8.^.{ - - { k k 8 & - * - * # & & k r k k - Y Y - - k 8.- & B.Y - r { ; Y & - ; { 8.Y { & k Y 8 8.8 8 { k k & Y ; 8.| k r k { { & & * ; : - - ; f.r 8.B.; * B.- - f.8.i.B.*.^.B.{ * { B.v.8.k * - 8 8 - 8 { 8 k Y 8 { & & - ; - & - k.4 8 { { k ; k.8 k 8 - { * r * r v.k k k R.].^.k 4 r { r r * { k k 8 v.",
"B.k k & { ^.k 8 r k.{ { 8.; 8.- - & & = { - { ; k k k - r & - - - 8.- 8 r k & & * - - : - { - * 8.- - 8.& & { f.B.k 8 k r v.- { & k B.{ { { k k k = & & - - ; 8.B.k 8.Y & & & B.8.- 8.^.B.r & - - k - 8 k - 8.f.{ Y 8.8.k - - { { k.8 & * - * & & - & k 8 8 k - 8 k & 8 Y k.k & { - k { k k Y & ; ; Y 8.8.8.* - 8 * Y k r B.k ; & k - k *.{ k k { 8.& * * ; ; ; * 8.B.r { B.k - U.8 & { Y 8.k.v.^.^.v.r r v.Y Y k - - k 8 k - r 8 k k 8 Y & * ; ; - & - ^.4 8 8.Y { { { k { 4 r 8.- k 8 8 v.k k k ^.v.^.k - - k 4 k & { 4 k r k ",
"^.{ Y & k B.X.k 4 k k - ; : w.; * & & r Y - k { k 8 k k { - - - ; 8.k k k { * - * * & : - Y s - i.- * , & & ; U.^.k & r k ^.4 X.& - k.{ k Y & k *.r & & * * - { B.; v.{ & * * { Y Y B.i.B.k # * r { 8 k k k { 8.k 8.f.^.k - - k.{ k.4 & * & - - & & * r = 8 { - k - & k k v.{ - v.; & - { ; Y * ; ; Y 8.w.8.& r Y - 8.{ k k.k 8 & k - k B.*.r r 8./.- * * - ; : * : B.k v.^.{ - 8.; & - - k *.k 8.8.k.4 r B.k { - k - k k k 8 k r { k - ; & & - ; - - { B.8 k 8.{ { Y 8.k k.- - k * Y - 4 k - 8 k B.^.{ 4 4 r { 4 k * 8.4 8 r k.",
"v.r k & - B.B.{ k k r - - ; 8.; * & & k.k k { { k { k k r * - - k 8.k { k { * - ; & - ; - 8.k - { * * 8.& & - { v.8 4 | *.B.& *.* - r k.k.B.& k Y & & & - & ; k U.k { { 8 8 4 Y k r ^.U.k.r # & { k.r - 8 { { 8.Y 8.{ ^.- & - { 8.B.8 - & & - - & & * - - - { - Y - & r r k.k - { ; - k Y - Y * ; ; Y w.f.8.& { k - 8.k k k.Y k - - 8 r v.r - 8 8.f.& * * ; * ; - { B.& B.B.{ ; 8.- & - Y { Y k k.k k - 8 ^.8.{ k { - Y k ; k k 4 v.{ - ; & & * - * & k B.k k v.8.Y 8.8.8 k - - - ; v.k 4 k - 8 r v._.v.r - { k r { - { 8 k r { ",
"v.k { & k /.k.k r r { & - Y : ; * & & k *.k k { Y k k - - & * ; k B.k Y - k & 8 ; - - - - { k - B.- & ; * + - B.B.k - *.*.k.% k 8 8.*.8.8.B.k { *.- & & * * 8.- 8.k v.{ - 8 & { - * f.B.U.{ & * r r * k - Y { 8.8.Y { f.Y - * k { { k 8 & * - * & & & - - - { 8 8.Y & k { { 8 & r { - { 8.8 - * - ; Y { { { & k ; ; Y k { *.Y - * - - k { k 4 8 8., @ * * - - - - 8.^.8 f._.k.8.^.r & ; Y { *.r { 8.k & 4 v.k 8.k Y - k k { 8.k 8 { { - - & - - ; - - - ^.8 k 8.{ - { k.r { k - : ; v.8 4 { 8 - k B.B.k.r - k { k Y - { r k ; *.",
"k.r k & { ^.k r 8 *.r - - ; ; - & & - v.v.r { U.k.{ Y - k & - - - 8.8.k * k & * * & - ; - 8.k 8 f.- * ; & O - /./.Y & { { { & k.8 8.k { 8.8.k k.k 8 & & - & k Y 8.8.{ { * & & Y k ; f.8.{ r & & - - & { k Y 8.Y Y ; { f.Y ; - k { r 4 - - ; - & & & & - - 8 *.8 Y Y & 8 *.B.k - { 8.r { 8.k k * - ; 8.8.Y ; & ; k k Y k k k - - & Y { { B.8 & 8 Y f.& * * ; - - - { { k B.^.8.f.f.& & ; Y 8.{ k B.B.k - { /.{ 8.Y 8 - k r k k k k *.{ - - & & - - : * - B.- k { k - ; 8.8 k 8 8 { - *.4 - { - 8 k *.v.k.- 4 v.v.8 *.k ^.k k r { ",
"R.k { * 8.U.k r r *.r k - k ; ; & & - v.k k Y B.Y - 8 - - - & k k { k k k 8.& - * & & ; * k - Y B.; * ; & O - B.U.k & k *.8 & { r { 8 k f.k k { { - & & ; & - Y `.8.B.k.& 4 8 B.Y - f.B.v.{ & - - k r k k Y Y { Y ; f.8.; k - { k r - - - - - & & & & - & - { r k k & r 4 { k * { Y - k k k k - : { Y 8.8.; & Y - k k Y k B.- - & k r k v.k - 8 Y f.+ & & - - - * Y k r 8.^.k ; f.- & ; { 8.k 8 i.v.k.4 k ].8.B.8.Y * s k Y k k - B.Y r - & & - - : * - _.r { { k - Y k.k k k k 8.- *.4 8 k r 8 k *.B.v.* 8 v.{ 4 k k B.4 - k k ",
"_.k.k & k ^.k r - { k k - ; 8.; & * * v.r r k Y 8 - k * - - - 8 ; Y 8.k - 8.* 8 * & * Y k 8.k Y B.k - : & + * B.k.- - B.{ 4 & r * ; 8 { { 8.k 8.{ - O & - & - k /.Y B.{ * & - 8.Y - /.v.B.k # * | r - i.k k - 8.Y ; w.8.k - - { { { r 8 - * - & & & & - r 8 8.s k k & 8 k k.k & { { & - { k { - - ; ; Y 8.; - k ; k { r - ^.k - * k k k U.k.r r Y 8.& - * * - , - { { 4 8.^.k Y f.- - ; 8.i.*.k B.8.{ 4 { B.8.k Y { & - Y k k { k *.k k ; * & & - - - - ^.k { 8.{ k ; k.{ { - * 8.- k.& - { r 8 4 { ^.{ 8 - *.k 4 k - { & 8 8 { ",
"].8.{ & ; i.{ r 4 k.Y ; - Y Y.- & * * k { ; k k - r k 8 k * - k - { { { k 8.k k - * & - - { k r f.- * ; & X - f.B.8 & { *.k = *.4 r r k Y Y - { k r & & - & { k f.k k k * - - { 8.k /.^.B.8 & & r k & Y Y k Y { k Y 8.8.8.- * i.{ | 4 - * - - & * - - - & 8 k.8 { k & r r *.- - B.Y - k 8.k { * ; - : 8.8.- & k k - { k k { - * - ; k r B.k k 8 8.: & & & - ; : * ; { 4 { ^.8.{ f.- * - Y ^.B.k.B.k.k 8 8 { k 8.8.{ * - k ; Y Y 8 k.Y k 8.* & * ; : - - B.k Y { k - k B.*.{ = * ; ; *.& 8 8.k 8 k B.^.{ & r r { 8 k * r 4 r k *.",
"_.v.8.& k { { 8 k { B.- { { { - * * * | k r k { * 8 k Y Y & - ; - { k k k { r { - - & ; * Y k k U.* * - & X - 8.^.8 & k.k k 4 { 8 k k r Y Y - { Y k & & Y & { { v.k { k * - - { k 8 ^.^.R.8 + & & { & - k 8.Y { Y - { 8.{ - * { 8.k r 8 * & ; & & - - - 4 r v.8 Y k - 8 v.k k 8 8.{ k r k k { * ; ; : 8.8.- & ; ; - k { k k.* & - ; - r { - k - 8.8.& & * - * : - Y k 8 Y v.{ f./.- & ; { ^.B.8.U.{ r 8 k 8.8 { 8.8.& - k - Y k r *.Y Y 8.* * & - : * - B.r { U.8 k r k.8.k.4 - ; - v.- 8 B.k k k.{ B.k.- 8 k k 8 r - k = 8 { v.",
").k.k.& - 8.8.- k { 8.; 8.: , - * & k k - k k { - - - - ; - ; ; k 8.Y 8.k { * k * * ; ; ; 8.- k { - - ; & O & 8.v.k 8 v.k *.r { 4 - k - Y 8.- Y k 8 + & k & Y Y B.k k { & & 8 B.{ k /.U.B.- & * k k - - k k k { 8.k ; 8.{ - & k v.r k r k - - & * - - k - 8 B.k k.s & 8 *.k.k 4 r i.k - { k Y - - - ; Y , ; - k - 8 k k.r v.- - - { - k { - s 8 8.Y.& * & * - : ; Y k 4 8.B.k.f./.- & { k { { { 8.B.k r k k.8 { { k & - k Y k { 8 k.k ; : * * & - : & k B.r k 8.8 ; - { k.*.4 & ; k v.8 8 i.k k { k.k.k.r 8 *.4 4 k s k & 4 - k ",
"^.k 8 & Y /.v.8 r 8.k.8.{ : : * - - k 4 & k r Y r r - - - & ; - Y f.8.{ - k - k - & ; ; k { - k 8.- ; ; & + - 8.{ k 8 v.Y 4 r P & 8 8 Y k.8.- 8.r - @ & - & 8.{ /.{ r Y & + 4 i.k * 8.B.B.r # * { k = 8 - r Y f.8.Y { 8.8.& & k k r 8 r 8 ; ; * - - - ; ; k k.k { s % & k *.r & r ; - k { ; k - { ; 8.: Y ; - ; s k { { r B.- - - Y k { ^.- - - { W.* * * - - - * 8.k 4 8.R.{ f.f.- & { 8.*.Y k 8.v.k 4 4 8.k v.{ k & - - Y k { *.v.Y Y - & * - ; ; & ; B.8 k B.k k k k.k r & 4 w.{ v.- 8 8.8.k *.8.v.{ r { *.& - k 8 { - 8 - Y ",
"^.k 8 * { /.8.- 8 - k ; ; { : * - * - | k { - 8 k 8 - k k ; - Y ; 8.; - k 8.k k ; - - ; ; { - k Y - : : & # : f.{ k 8 { *.4 4 { - k k { 8.8.& { k r & & - & { 8.U.8.; k.& & 8 B.r & f.U.B.- # * k X.* - r 8.Y 8.8.; { 8.Y * & k Y r 4 4 - * ; & & * * * - 8 B.- 8.k & - k { 4 & k k - - - k k ; { - { ; : ; - k k Y 8.8.k B.8 - - Y { 8 k.r k 8 Y 8.# & * - - - ; f.k k 8.v.{ f.: & * 8.i.B.Y k B.B.; 4 8 B.- B.{ k * Y - Y { k.8 { 8.k - & & ; ; - & - ^.r k B.k k k { k - & 8 f.8.k.& 8 k 8 8 *.{ { *.r r *.k k - * { k 4 8 k ",
"B.k k - Y `.k - 8 k k k ; f., * * & - { { k - Y k ; - - { 8 ; { - 8.Y { 8.k - r - - ; ; & 8.k ; 8.- ; ; &   - { 8.k r B.*.8 - { 8 r r Y 8.8.* k k r & & - & 8.U.U.k Y 8.- & 4 v.8 & f.v.B.k & - k k & k * { 8.8.8.{ 8.Y k * & - { k 8 8 s * : & & & & - & k { 8 { k & 4 { { - & Y 8 - - 8 8 8.; Y ; Y 8.8.Y - - k ; { r & B.- - & k - 4 B.k k * 8.U.& * & * & ; - { 8.r B.^.v.B.8.* & 8.k.{ Y k 8.B.8.8 8 v.{ 8.k - - - ; Y k k r { Y k ; & * - ; - - - B.* r ^.{ Y 8.Y Y r 4 8 f.{ { & 8 k k 8 k.8.{ r r - { *.8 - - v.{ 4 - 8 ",
"_.{ k & k ^.k - 8 k k k & - ; - - * - k.k k * { { 8.8 k { - - Y - 8.Y 8.; { * r - * & - - 8.- ; 8.; - - & O & Y k k & v.k 8 - k 8 - - k Y { & k k { - * k * U.B./.k.k 8.- & k { 8 - B.8.k.- # * r *.8 k - 8.8.8.Y k 8.8.{ * - 8.8.8 8 k 8 - : * - & & - - Y _.r { k - 8 r k 8 & k.; - k k - { ; 8.; Y Y { - * - - - Y { r ^.- & & ; k r ^.{ - * { { & - - - & - * ; k r k.^.B.U.8.- + Y B.B.8.Y 8.B.{ 8 k k k 8.{ { - - 8 Y Y { k v.Y w.& & * * ; 8.* ; B.- r B.8.k Y { k.k & - f.k { & 8 { k - - k v.{ r 8 8.k 8 4 - B.*.k k k ",
"/.{ { * ; f.k 8 { k k & & - : * - - k B.k r - k & Y r r { k k 8.; { Y { - Y 8 k 8 * & - - B.k ; 8.Y ; - & & & 8.{ k - *.k k 4 X.8 k 8 k Y 8.& 8 8 8.* & k & { { B.B.k B.8 & r { - & f.^.v.& & * - k 8 Y k 8.Y 8.8.; 8.8.8.; * { 8.k k k s - ; - - & & - - | R.k k.* 4 & { { 8 4 v.v.{ - k - 8.; 8.; ; -.Y ; - ; - - Y k r ^.* & * { { r { r 8 - 8.8.& ; - - * - * 8.- - 8.^._.^.: & & k k k k k k.8.k = k k r { k k & - - ; 8.8.8 k.{ 8.& & - - - ; * k B.- k B.{ { 8.8.k.k - * 8.{ { 4 r { * * & k { k k k v.{ 4 - - r k r | { ",
"^.k { & Y f.k - 4 Y r & & - : - - - ; v.r & * k & r - - k - k 8.Y 8.Y Y ; Y r k k * & ; - 8.- k { - - ; & O - i.k.{ 4 k.k 8 r P k Y k Y 8.B.- Y k k & * - * { r B.P.| k.s * 8 { r & { ^.k.r & * k k 8 8.- { k 8.Y Y Y Y Y - - { k.k 8 8 - ; : - + + & - * r B.k.B.- 4 - k k.r * k k { k 8 - { ; 8.; - : 8.; - ; ; - k k { { & - - Y k r v.k 8 & { 8.& - * - & * - f.r 4 8._.].^., - & Y k k.{ - B.B.8 & k | k Y k k & Y Y k 8.v.- B.x.Y - - - ; - : * k 8.4 r B.k ; { 8.k { & * w.k { & 8 { & - 4 Y v.*.r k k.Y & - 8 r 4 4 - k ",
"B.v.8.& - U.Y & - k k - - - : * - & ; 8.r - - w.k k 8 k 8.; Y 8.; ; k Y * - ; k Y & & - & { - 8.B.; ; : & X * 8.{ k - ^.| r r X.r r r k k.v.k k 8 k & * k * i.{ B.v.k k.& & 8 8.- - { B.B.{ & & k k * ; - Y Y f.w.Y 8.8.k - & k Y Y k 4 8 - - & & & * * - k k.{ ^.- r 8 *.{ r & k 8.v.k { - 8.; Y - - ; 8.- - ; k - k k - 8.- - * k - 8 { r r 4 8.{ & @ & * & - : f.r - 8._.^./.Q.* & i.k.k k k v.{ r & r r k 8.8.{ - k { Y k 8.- { B.{ ; * - ; - - * - { r { ^.k - 8.Y *.{ * & i.k.{ & - { - 4 r Y *.{ 8 P { k 4 & k B.k - { r ",
"B.*.i.4 ; k k - k 8 k * + ; ; * - - 8.B.8 - & 8.k { r k U.Y k { - ; Y { - - k k r - & * - B.k 8.^.; ; - & X & Y k Y - B.k k k P 8 - 8 8 i.{ 4 r k { & - ; & { k.k.k.| v.& & r k k - v.U.k 4 & & { k - { - { Y { 8.8./.8.8.* & { { k k r k - - * * & & - - k { *.B.8 < 4 B.k.8 * Y v.{ k 8 8 f.k 8.; ; ; Y - - ; ; ; k Y r 8.& - - { - 4 *.k k 8 8.i.& * * - & * - f.- 8 8.^.^.8.w.* & 8.{ 8 { k { k k 4 8 r 8 v.{ - - - Y k ; k.k { B.{ ; * * * - - & k B.8 { U.8.k 8.Y Y { - & Y k k * 8 k - & 4 { k *.P k.B.k 4 & k k.k.r { r ",
"/.{ B.- k { ; & r k.k r & : : - ; - 8.{ r - - 8.- k k k 8.k - Y - - ; 8.k k k { k - & * - B.k 8.f.Y - * & O - { k { 8 R.k & - k 8 & * 8 8.{ & k k 8.- * ; & Y *.k.k.*.*.* - 8 k k - f.k.k 8 & * { k 8 k - 8.Y { k Y f.Y 8.- * k Y k 8 r ; * ; * & & & - - k ^.k.^.8 = - i.| k 8 8 Y { r - - 8.- { - ; ; : Y - ; ; 8 k k 8 k & ; - 8.- 4 { r k - 8.^.* * * * & - - i.8 8 { U.).B.; - # { v.k { k { v.k 4 4 r 8 k.k * * Y Y Y Y { k v.B.8.- * * * - - & k /.k k B.8.k Y { k.8.* & 8.| { - k { k - 8 { { v.k v.k.k 8 - k *.k - { k ",
").k.i.- - f.- & - v.U.- & { ; - ; ; B.{ 8 - - k r 8.8.8.{ - ; 8.; ; ; Y - 8 k { k & - - - B.k k i.- - ; & + - 8.{ { - B.k 8 r k r - - 8 8.8.- k k ; - * k & k *.k.v.r Y 8 & P *.*.8 ^.8.B.- & * Y 4 8 k - { Y Y k k Y k { & & - k r 8 4 k - ; & # & & - k r B.k.B.8 & * B.k 8 & 8 k U.k.8 k B.k f.; ; ; Y : - ; - - k k & - & - - { Y 4 8.*.{ 8 { 8.& * * & & : - 8.- * Y B.^.^.8.; & { 8.k B.{ { 8.v.8 8 - k k.k s * Y { k k { k ^.B.8.- & * ; ; - & { /.k k k.k - k { k.{ * & B.k ; & k U.{ & k { k *.k B.v.r 8 - 8 *.{ { B.Y ",
"/.v.k 1 k f.; - 8 { 8.- & { ; * ; ; 8.v.{ - & k r 8.k - k - - { - : Y { - k - - k - & - ; ^.Y k { ; - * & X - 8.8 Y 4 ^.r 8 8 k 4 & 4 r { k.- { 8 - * & - & k k k *.k *.8 & k _.8.k ^.^.8.- & - Y 8 8 { - { k { Y { 8.8.8.& - k k.8 8 - Y - ; - * & * - r r k.Y B.- k & k.{ r 4 k k v.B.k 8 Y ; Y - - ; Y ; - ; - k Y k & Y - * * Y - - v.v.{ 8 { { & & * - * - & 8.& & { ].].^.; ; O { B.{ k.k { { k.& 8 k Y B.{ k & 8.{ Y Y k { B.U.U.: # * ; ; ; * { B.r - i.{ - 8.{ B.k & & U.{ { * k 8.Y & r Y k k k v.k.k 8 & < { *.k k k ",
"^.k i.4 Y - ; * k { r k - ; ; * ; : /.{ k - & { k Y k - 8.- - ; - - k Y - - ; - k - - - - B.k Y k ; - - & O & { - { 4 v.8 - r k 4 & 4 k B.k.k B.Y ; * * - - 8.v.k { { *.& & 4 { { - U.B.8.8 & - k 8 & { * { Y B.8.f.w.8.{ - - Y k k 8 { { - : - & & - r * - v.{ v.8 4 4 8.k k * Y { B.k - - 8.; ; - * Y : : - - k s k k - B.8 - - { 8 - ^.B.k & { { & * * * & & * i.% & Y _.]./.f.- & 8.v.{ k k k v.v.4 & k k 8.Y r - k 8.- k 8.{ B.U.^.{ & * ; ; ; * k f.k - v.x.; k Y *.k & - k k k - Y k ; - r { k *.*._.v.k 8 & 4 B.{ r k k ",
"B.r { 4 k Y - & - { { | & ; ; & ; ; /.B.- & * k - k.k - Y * ; Y - { { { - k - - k - : - - B.Y { { k ; ; & O & 8.r Y - ^.r 4 k r = - & r k.k 8 k.k ; & & - * { k.*.B.k.k 4 8 k v.k - 8.v.B.- & & Y k 4 k - 8.Y 8.Y f.U.w.8.- * - k k 8 *.{ ; w.* O & & - * r B.k.k.* 4 r v.{ k 8 k r { 8 - 8 8.; k - - ; ; ; - - - k k k k k - k ; f.{ k k.*.8 - { Y & - & & # @ & { 4 8 k B.^.^.W.- & { v.k k k 8.f.8.4 k 8 k U.k k - k Y - ; U.v.v.k./.{ * * - ; ; & ; Y 8 r f.8.k 8.k k ; & * { k k * Y w.Y * 8 Y - k { ^.U.r < - 8 k { - { k ",
"B.k 8.4 k i.8.- - { { k & { ; & ; - B.r - - & ; - { - r Y & - U.- { 8.Y Y Y ; - k - - - - Y k { { - - - & O - ; r { k ^.k 4 4 8 & - & k B.{ 4 X.8 ; & * - & k v.k.R.k *.k r { ^.k & 8.8.{ & & * { r & r & 8.Y { 8.Y 8.8.f.- & - Y k k | { k 8.- & & & - - k k.k.B.r r 4 B.{ 4 - k k { k 8 - B.- ; ; - ; : ; ; ; Y k k - 4 - - - * 8.{ { B.r r & 8.8.* * & * & * * { 8 8 k v.^.v.f.; & 8.k.k { - ; { B.k k 4 r B.Y Y & k Y - Y B.v.v.U.B.; * * ; ; ; & * B.r k ^.{ k k k k ; & * B.k.v.& s 8.k * 8 { - | k R.k 4 1 - 8 k { 8 k 8 ",
"k.r U.8 4 { k - - k { k & { - & : - B.*.8 & & k - { - k { - - f.; k Y 8.Y k - k k Y & ; - 8.Y { k - * - & + & k k 8.r ^.r = k 8 * - - v.B.B.k { k ; & * k - i.k k v.k k 4 & r ^.k - { v.{ r & & k 8 8 - - 8.8.8.8.8.Y 8.Y * & k Y k k { k - : - & * - - - r { { ^.r r 4 { k 8 - k { { k 8 k 8.- Y ; ; Y Y ; - - k k Y k 8 k - k * k k r ^.*.k - { : & * * * & : - k & - Y B._.^.f.; & 8.k.k k - Y { { 8 r 4 8 v.k r & 8.Y - Y 8.B.^./.w.Y & * - : - - : U.- r 8.Y - { k k Y * & *.k k.- k Y k & r k 8 { P B.*.P & & 8 | { - k k ",
"B.k 8.r 8.8.Y * - { k ; & f.8.- ; - ^.v.k - - 8.r 8.{ k 8.k * Y k { k k - k - r Y 8 - * - i.{ { k k - ; $ O & - - { k ^.k 4 r 8 = ; 8 k.B.{ r { k - * - k * B.{ k v.{ k 8 & r v.k - B.k.8.8 & * k k r r - Y { 8.8.8.Y Y w.* - k k 8 k k k Y w.* & * - ; & 4 v.k._.4 r { 8.r { 4 k r B.{ k k w.- ; - - ; ; ; * - k 8 8.Y r { - - - ; 8 4 ^.8.- - Y k & & * & & - * - & 4 8.B.B.^.f.; & f.k ; { 8 Y v.; - 8 4 k v.8 4 & 8.{ - k 8.B._._./.; & - * Y ; & ; f.& - { Y - 8.k *.; * { v.k.k * k Y k & { w.8.v.k _.{ k - & k v.{ k { 8 ",
"/.B.f.r v.i.{ * - { 8 k & f.; * ; & ^.k k - - B.k 8.k - { k - 8.{ 8.Y { - - - k 8.k - - * B.{ { 8.Y ; - & + & - - { k /.k r *.8 4 & 8 k.B.k - 8 8 * & * s 8 B.B.k | k k 8 & k ).r & B.8.{ & * * k k k 8 - 8.Y Y 8.8.{ { 8.& 8 k Y r k *.k k w.- & & & ; - 4 r B._.8 X.k { k *.& - r 8.{ k k 8.; ; Y - ; : - - - k ; 8.k 4 k - - - 8.& & k.{ k - Y i.& & * & & : - { 4 < k v.v.^.f.- * 8.- r k k k k 8 k 8 4 8 k.8 - - { w.- - { { B.^.^.; & - - ; - @ - { - - B.8.k 8.Y ^.{ * { B.8.{ * 8.k 8 & k.; k { & B.{ r 8 - Y ^.{ k k 8 ",
"B.{ f.k *.k ; & 4 k k k & Y : * ; * ^.k - & - i.8.8.k k k.{ k f.k ; Y { ; - & k 8.8 - & & i.k k { { Y ; * @ & - - 8.r B.*.*.B.k = & - *.B.{ - k k ; * - k 8 v.R.k.*.8 8 k & *.B.r 4 v.Y k & - - ; 4 8 r - Y s k 8.f.f.w.8.& - - k 8 Y B.k Y { & # & - Y * - | k._.4 k *.B.8 k & & k /.v.- r f.k { { - - : - - k Y ; k k 4 k - - - { = & v.k k 4 B.B.& & & & & ; - k r & s B.B.^.f.; & U.B.k - - k { k 8 k 4 8 B.r - k 8.Y - ; { 8.v.B.f.; * ; - - - & - - - 8 B.Y - { Y 8.: & { *.k { - k Y k * k ; k k 4 ^.*.r & 4 k ).v.k k Y ",
"U.k { 8 { { k - 8 *.k | & { : * : * v.k.& & - i.8.B.k k v.- - f.Y Y k 8.k - k { B.k & & k _.k - { 8.Y - & @ - - & { 8 v.*.k.v.8 8 & 4 { v.Y - k k * - ; ; * i.k.k R.{ 8 4 & *.B.8 - 8.k { & * - { 8 k k.- k Y ; 8.8.f.8.8.& - - - 8 - { Y ; 8.& & & & k * 4 k R.^.* k k k.- k 4 & - /.{ - - { ; Y { - ; { ; k ; 8.k Y k 4 k * - - Y - & | - k - 8.U.* & * * & * & Y & & s /.^.^.8.; & { k.Y { k ; k { 8 { r r k.Y k 8 { Y - - 8.{ { U.B.; * - - ; - & ; k - & { Y 8 B.{ k.- & ; { k { - { k k * k Y { B.k v.{ 8 & 4 P ).U.8 k k ",
"B.Y { 8 k k Y - - Y k | r B.: * Y - ].v.- - - 8.k 8.r { 8.8 & Y ; ; k Y k ; - { 8.k - & k ^.{ - Y 8.8.- & # & : - B.k B.r { { 8 k - 1 *.^.X.& 8 { * & ; r - { *.k { k Y k 4 4 *.k 8 { k r - - - { 8 8 k - 8.Y { { { f.8.{ - k k - - ; { Y Y , - & & * k - - k.].].8 k { B.- *.4 4 8 B.v.8 8 Y Y Y ; - : Y - - * 8.Y Y { r { - - - k 8 8 v.{ { * k f.- & & * & - - { & & k B.U.k.k * & 8.k k 8.Y ; { k r r 8 r 8.r k - 8.k - - 8.k.v.^.U.- * - - ; * - - 8.- & 8.k r { k { ; & k k Y 8.* Y k k - v.8.k B.{ _.k.k 8 4 Y { B.4 k 8 ",
"B.{ i.k k k s * 8 { { v.r B.: * ; * /.k.k - & 8.8 k.{ *.k.k 8 B.; - Y { k k & k v.r * & { ^.| - k ; Y * & # - 8.- U.k B.k k v.r r k * k v.k & k { ; & - k - *.k.k v.*.k 8 & 8 k.v.k B.{ 8 - * - Y 8 8 Y - 8.8.; - 8.f.8.8.- ; k - - k { 8.Y f.- # & & Y - r *._.{.4 r k k.- k * - 8 B.B.& 8 i.Y Y ; * - Y - - - Y 8.Y k - - * - * k 8 r B.{ k - Y f.& & & * & ; & k & & k k.B.k { & & B.k k k r { { k 8 k + 8 { - k k f.f.- Y B.B.R.^.f.; & ; & ; ; - - k - = { Y k k k v.; * { k k { - { k 8.8 v.8.Y { r B.k.k r & k v.*.8 { k ",
"B.k { r k.k.k & k k.k k.= { ; & ; & ^.B.k k - { k 8.v.k B.k & B.Y ; k 8.Y ; & - { r k & k /.{ k - - ; * & * - ; - 8.k B.{ k | 8 - k 4 r v.k & 8 k - - ; k - B.B.*.^.*.8 8 & { B.r 8 B.{ r & & & r 8 k k.8 8.8.k k Y { 8.Y & ; - k r k v.8.k 8.; & & - Y 8 k v.]._.- *.Y k * k * r 4 v.{ - k 8.k Y { - - ; * - - - k k 8 8 k - - * - 8 - v.B.8.8 8./.* * * - & * & - & & s B.v.k.k * + 8.k 8.{ k { 8.Y k k & 8 { & ; k f.{ * ; 8.k.v.].f.: & - * ; : ; - 8.k 8 { k r { k { - * { 8.{ k - f.k 8.* { Y - | 8 B.k.k r r X.{ { k { 8 ",
"{ 8.8.k B.{ k * 8 k.Y B.4 8.; & ; * B.{ - * ; 8.8.{ k { v.Y * v.8.{ Y 8.8 - - 8 ^.k & + { ^.{ ; - ; { & & & - 8.- 8.k v.| k k r & - * v.8.k & k ; * ; ; { k ^.B.k v.k 8 r - *.B.4 r B.{ 8 % & & - 8 k { k { Y Y { k { 8.Y & ; ; k 8 r v.k k 8.- & & & : - - v.{.B.- k.*.*.& k & & r B.| 4 k 8.k 8.8.k ; Y - - - k k Y k - Y - - * - 8 r B.v.{ 8 i./.& $ * * & & * k 4 4 k B.{ v.{ ; & { | { { - { 8.r *.8.4 8 { r 4 - B.; * ; Y 8.k./.f.; & * & ; ; * ; 8.; - B.8.- k k { ; & B.k.k 8.- 8.Y 8.8 k.- { { r B.k k = r *.B.{ r { 8 ",
"r { B.k v.| k * 8 k *.B.k B.8.* ; - /.8.- - - 8.8.{ 4 { i.k - k.8.8.Y { * - & { ].v.- & { B.{ k k ; Y * & & & { - 8.{ v.*.*.*.4 & - - v.Y 8 4 8 k * ; Y { k v.| 8 *.k 8 k & Y v.r 8 8.{ 8 & * * - k k k k Y Y Y 8.Y Y { ; & k - 8 - - B.k k 8.& + + & - - r v.].].r k.*.*.* k & 4 r *.*.8 k 8.k k ; ; ; 8.- ; - Y Y { - & k & * - k { r v.| { ; 8.W.& & & * * - - Y 4 8 k v.| { { * & B.8 k k - - { k v.*.= k k 8 & & 8.8.- ; f.B.*./.U.; * - - ; - - - : ; k B.8.& k.8 k : - ^.{ Y 8.- k k 8.8 ^.8.{ { k ^.{ r & 8 | ^.*.- r - ",
"v.{ { k k.k Y * 8 k.k v.8 ^.: & ; - ^.k * - 8 8.{ k.k k { 8 & { 8.{ k k - k & k ^.r - & k B.8.k Y : 8.; & & - : & { k.k.k v.v.8 & & & k k.- = r { - ; Y { r { v.4 r Y k { & *.B.r r 8.Y 8 & & * - 8 k k.r k Y k 8.k { { Y - - - 8 8 k U.Y { 8.& # # - ; & k *.{.{.{ B.*.{ & { 8 k k k.{ - 8 Y k k Y - - : * - ; { Y 8.8 & k & - s { 8.r { v.{ r 8.B.& & & - ; - & k 4 - Y k.{ { { & & i.k 8.8.- - k 8 8.k = r k r & & { 8.- - B.k.i.`.f.& & - * ; * - - k ; 8 8.k.k { Y k.- - B.k 8.{ - 8.Y k 8 B.{ k k k U.k 8 < r *.B.8.k k r ",
"B.k Y 8 B.k k * 8 k.k k.- B.8.* - - v.k r * - k { k.{ v.8.- & { 8.8.k 8.- - & r 8.k { - k v.k - k Y f.- & & * Y & { v.^.k.*.v.k 8 k & { { - 2 X.8.- & 8.Y k 8.{ - k r k k 4 k ).k.{ k.8 4 - & - k 8 { k - { Y ; { { { 8.8.- ; - 8 k k { { k { - # & ; Y - { v._.^.k *.*.k.8 { 8 - 8 v.{ & - f.k ; Y * ; k - ; - ; Y { - & { - - - - k 4 v.{ - r Y f.& & * - - ; - k { - k v.k B.8.& & B.k k k - - k - v.{ 2 k v.8 & & Y f.& * 8.B._.].B.- & * * : - - - Y ; & 8.B.8 8.k.{ - & B.k k f.- 8.{ { - k.8.8.k k 8.r 8 & r r *.{ Y { Y ",
"Y k { 8 B.v.{ * r B.k.B.k U., * - - 8.r k - - k k Y - v.k 8 - 8.U.8.{ 8.* - - 8 { { { - Y B.k - - - 8.* & & - : & 8.v.{ v.B.B.P 2 8 4 *.B.k & r Y - * Y 8.k { k.& Y 8 8 8 & k.B.{ Y { r - & * - k 8 k k.k r k k f.Y Y w.Y - Y - s s k v.Y 8 8.- & & ; k - | v.]._.8 { k v.k { & - r ^.v.& r 8.k - k - - Y - ; - - k 8.8 & k - - - * k r | 8.{ r { Y.* & & * - ; & * r 4 k 8.k ^.B.* - v.k ; k - 8 Y r B.*.& k X.- & - k f.& * Y B.k.8.f.- - * & : * - ; { - & { { - v.k k - - v.{ { i.- f.8.B.- B.Y k.{ k k.8 8 4 4 k { { & { k ",
"{ Y U.k v.{ k * r B.k.B.4 B.8.& ; - v.Y { - k ; { k k B.r 8 - { { { k 8.- - - 8 v.k k & k /.{ Y ; - ; & & * - f.& 8.*.*.k k.B.k 4 4 4 | Y r - k k ; - Y k 8 { v.r { 8 k k 4 v.k.r k { k 8 - & * k 8 k { k k k - { { 8.f.f.; k * - k r 8.k Y 8.- O & - k - k r _._.{ k k v.- k 8 & 4 B.v.- k 8.Y - Y - - Y - - - ; Y w.k & - & - - - - 8 k { k k k 8.& & & & * - & & 8 4 - Y k { { - - { k k k - k k k B.v.8 X.k.& - k Y f.& - 8.8.{ k.i.- & * * : - - 8.8.; - { k 4 { r { { k ^.k 8.Y - 8.8.B.- 8.8.k B.k k.k k r k k k.{ 4 { 8 ",
"- - f.{ { { k - - *.{ { r U.Y * - & k.k.k - - { k k ; v.v.r - B.i.8.k 8.k k 8 k B.r k - 8.B.- - r Y 8.& & - - w.- { k v.k P X.8 k { k { { 8 & 8 { ; ; ; 8.k k 8.8 k k k k 4 k.*.4 r 8.k 4 & * & - k { k.8.{ k k k : { 8.8.; 8.- 8 - 8 k.k k 8.& & & & ; * k { ^.).k k 8 *.* k r - - B.{ & r k.Y ; ; - - Y ; ; - { 8.B.Y - ; - - - ; k & v.B.4 8 ; 8.& & & * & - * * k 4 8 { k | r - - 8.8.k k - - { r B.{ & r *.- - { Y f.; k Y Y ^.B.f.{ & - & Y * - : : ; & k Y - 8.4 - ; Y B.{ { 8.- Y Y Y 4 B.Y Y 8.- r Y r 8 - k B.r - Y 8 ",
"r r Y k { r Y - 8 { k { - B.8.& - & B.k - - ; 8.{ { ; B.v.k 8 ^.B.f.k { - - & k v.- ; - B.v.r - - k k * & * - 8.; { Y { { { k 8 *.{ - B.k.8 = 4 { - - - x.k.r { r 8 r Y k = k { k k k.k 8 - & * * k { k 8 Y Y k 8.Y k Y 8.; 8.- - 8 8 v.k k ^.- # & - - - { v.^.v.r { k *.- *.k r ; B.{ & Y ^.{ k Y - ; 8.- - * k { 8.k = 8 - - - r 8 k B.B.8 r Y f.* & & * * * & & r 8 8 8.k k { : & r 8.k k - r k & { k & r { = r k Y 8.- ; { { ).^.f.- & * & : ; - ; - - & { k - 8.r k - - B.- Y 8.- { k { 4 { { k { - k k - - k { B.k k { r ",
"k - Y k k - X.8 8 *.*.{ 4 B.8.* ; * { k - ; - U.B.B.{ B.v.- - 8.8.8.8 { k - & - v.r { & U.B.k Y k k - & & - * ; & i.k.v.v.{ { 8 r 4 * k.{ k r 8 ; ; * Y 8.*.k k r r 8 Y k = { 8.k k k.Y 1 & - * - * k Y r { Y k B.8.8.8.{ - { - 8 8 k 8.k k i.- # # & - & { { ].B.k { k { 4 { k - - B.B.4 8.B.k k Y - k Y - * - k 8.8.s & k k - - k 8 r ^.B.*.4 - Y.& & $ * * - & * k 8 8 k.8 k.8.- & 8 { Y Y - - k k { k & { v.- 8 { k 8.* - Y 8.)._.f.* & & & Y - - : ; - & { Y - { 8 r - ; v.- { 8.k Y { { 8 { Y 8.8.k k 8 8 8 - B.^.k.{ { 8 ",
"- r 8.k 8.k { 8 4 *.*.{ r k.8.- ; - v.{ & - { B.f.k.k *.{ & 8 8.8.8.k k k & & 8._.| { - i.^.k k k - ; * & * * - + - k { v.{ { 8 k - & B.v.{ = 1 - * - k { { r { - r k k 8 & r { k { k.k 8 - k k - - k k Y Y k - B.8.Y { { & Y & 8 k 8 ^.*.k 8.& # & & - - v.{ _.R.*.{ k *.8 k { - & U.v.4 *.Y 8 8.{ ; - ; - - - ; { 8.8 & Y Y k - k r - | 8.r r - Y.* & & & & - & - r k k 8.r v.- * & i.8.- k ; - k r k.{ - k *.4 - r B.f.- ; Y v._.].U.& & - & Y ; * - ; - - Y { - 8.- 8 Y k v.k Y B.- k { { 4 k : Y.U.k k r 8 & k B.^.{ { { - ",
"k - 8.k.^.k k - 8 k v.{ - B.f.- ; * B.{ - - k 8.k k k { *.r 8 B.{ Y k k k - r 8.k.r - & 8.^.| - & - k * & * - ; & k k Y k { U.8 { r 8 B.^.k 4 4 - & : 8.{ k r B.- r r k r - 8 r k { k.k k 8 8 - - - { { Y 8.Y * 8.8.{ Y Y * { - k 8 8 k.{ k 8.& & & - - - 8.B._._.*.*.k v.- Y { - & ^.{ * r { r k Y k - ; & - & - 8.{ - & - - - - 8 - = { k r k { B.& & & & * - - & { k Y B.k k.{ - & B.8.- k - * k - k k - k k.& - { 8.B.& * { 8.v.B.Y.; - - & ; - - ; 8.k & - 8.8 B.k 8 r 8._.k { { s - Y k.* { { f.8.- k k 8 & k { B.r { k - ",
"k - k k.v.r { 8 8 { B.B.= 8.8.& ; - { i.& - k B.8.k - v.k.4 ; i.8.r k 8.k - - k *.w { * /.].r k - * ; * * - & ; - r { { *.k.k.k k 4 & B./.{ r 4 ; ; ; { Y { { { - 8.k - 8 r k { P *.Y k - & - - - k 8.*.r r Y - { 8.f.8.Y - { - k 8 8 { 8 { i.& # & - ; - r k R.^.*.*.k.B.8 k k.& - /.8.& k { k { Y - - ; * - & k 8.Y 8 & k - - - k r 4 { k k k 8.8.& & & & - - - & - k - B.8 k.v.Y * B.v.- k - 8 k - k | - k k & & k k 8.* - Y U.^.^.f.* * - & ; ; { w.: 8 & k k k ^.k r - 8._.- { f.- Y 8.B.- 8 : Y 8.k 8 k * & k 8.^.k r Y - ",
"- - k k 8.k { 8 4 *.v.k.& v./.; ; & v.B.8 - k B.{ Y k ].*.& - B.8.8.k Y - & & k 8.4 v.r /.^.4 8 - - Y * & * & ; & k Y k { *.k.k k 8 - i.^.8 & 1 - ; ; k { B.B.r 8 { k k k - { k.P v.Y 8 * & - 8 - - *.k 8 r Y - Y 8.8.8.k - Y & s k 8 { 4 k i.& & & & - - 4 k _.].{ B.k.^.Y Y { & r U.^.& k { k 8.; - - ; & - - k 8.8.k - 8 - - - - 8 8 ).k.k k k 8.& & & & * & - & 4 k k { r R.B.- & k.8.8 Y & - k r { { r { k 1 4 k Y { & & k B._./.f.& & & & ; : { : ; - & k k { ^.8 4 8 k v.- Y B.- Y Y v.& 8 8./.f.- r k 8 - k B.v.k r f.k ",
"r - { k k - k - 4 k v.8.4 v.f.- - * { v.& - k 8.{ *.k ^.r * - v.8.Y - - 8 * - 8.B.k v.8 /.].8 r - ; k * & & - : & - k k { { v.r k r - B.B.& 4 - - - - Y 8.B.*.| 4 k k k { - { k *.{ { k r 4 k k - - k { r k Y * 8.Y 8.8.Y ; 8.& r k - 8.8 s Y & & & ; ; - r = ^.).k.v.k k k r { = Y ^.v.& k - k 8.8.; - ; - ; & ; B.8.k & k k - - k 4 8 v.k { *.r Y * * $ * - * - & - k - 8.8 B.{ - & { 8.- ; - - k k { { - k Y < r k { f.& * { i.^.8.f.- & - & : Y : ; 8.8 & k k r ^.8 r k { k.& k 8.- k k B.- k ; Y.8.- 8 8 8 % k *.v.{ | 8.8 ",
"k - k { 8 r { - k k { { k B.U.* - - k k.& - ; U.8.*.Y ^.{ & - B.B.B.k - - - - k B.v.B.& U.^.& k ; - ; * & - & * & k { k.*.{ i.8 k { - { k.- r 8 * & - ; Y k.k k & 4 - k k * { k.Y { k k k 4 k { r s *.k { { Y - { k 8.f.Y - k * k k 8 { k r i.- & * ; ; k r 4 _._.{ v.k k k r { & - B.{ < Y { ; 8.k Y - ; * - & - 8.Y - & r - - * { 8 4 k.| 8 k r 8.& * & * : ; - - 4 k k 8.- k k - & { { - - & - - k k.Y k { { & - k k 8.& - 8.B.^.8.w.; * * & : ; ; ; ; - 4 { k k /.k k 4 { v.& 8.f.- Y k { 8 k -.w.8.; - - * & - B.^.{ Y k.k ",
"r - k k.k r Y s k k { k k B.B.* - - *.{ - ; Y f.k.k k _.v.& - 8.{ { r r 8 & k k B.k.{ & U.^.8 8 - & : & & - * - & - k k k { { & 8 8 - v.v.& r - - , ; - k { k k & 8 8 s Y & 8 k k *.Y k k r 8.k.{ k k.k Y k k k Y 8.8.8.k - Y & Y k k | r k B.- & & & Y k 8 4 ].).{ k.k k 8 - B.- - B.B.4 { Y k { k ; ; Y * ; * ; 8.Y s - - k - - k - 4 v.k.k { ; B.$ & & * : & - & r k k B.- - v.* & 8.U.Y - & - 4 - B.{ = k Y * { { - 8.- - 8.{ ^.^.f.; & & & ; ; { 8.- r r k k { U.8 r 4 { B.- { f.; ; k { r k : 8.f.- k - * = 8.v.B.k Y 8.k ",
"; - { *.k.r k 8 8 { 8.{ { { f.- ; - B.8.& - { 8.k k - ^.{ r k { k k 8 k - & - k k.4 k - 8.v.8 - - & ; & # - * 8.& 8 k.k k.v.v.- r k - ^.v.& k 8 ; : ; - k Y k { & 8 k Y k & r r r k.8 k k k k k.r 8 k k 8.{ k - 8.{ f.8.Y - { - Y k 8 { 8 k 8.& & & - { { k 8 v.^.{ *.X.r 8 - 8.- 8 _.B.& k k { 8.{ - - k - - - k w.Y 8 & k k - - k 8 4 B.v.{ r k ^.& & $ & : * ; - 8 k r { 8 v.{ - - k.U.k k * - - - B.k & k { * k { k 8.& * k 8.^.B.f.- & & & ; ; ; 8.Y - & 8 k { B.- - k 8.U.- k 8.- 8.8.{ r - ; f.f.- k k * & 8.k.{ k k { 8 ",
"- - k.*.k 8 Y - k Y { k.k.v.f.- ; * k.| & - k B.k r - f.k 8 8 k { { - k - * - k k.k r & B.8.- 8 - & ; & $ * & : - 8 { k.k.^.^.8 k v.k _.B.& r - * - - & k { k k & - r Y k - k { { *.k 8 8 k k *.& - B.8.{ k { - 8.Y 8.8.Y - f.- k k k { k Y B.& # * - - Y r { B.B.*.k X.{ 8 8 8.& - B.v.& k 8.{ f.{ ; - - - - - { B.{ 8 & - - - - k r 8 v.k.k k { ^.* & $ & - - 8.* k 8 k k.8 { { * * { U.k - & - 8 - k.Y 8 k { & r k - f.- ; Y { ^.{ 8.- & & & ; - ; w.; - & k { 8.v.4 - k k.v.- k f.k { Y { k k - Y.Y.- - 8 & & - B.{ k 8 { 8 ",
"- ; 8.k { 8 k 8 s k { B.v.v.B.; ; - r k & - { B.k Y * i.r 4 8 k k.{ k - - - - k v.8 | & B.v.& 8 - & - & & * - : & ; { v.v.^.B.4 *.k k B.{ 4 r * * - & & k { { k & 8 k k 8 4 k k k { Y k k r k k & r k.v.{ { k k { { f.8.; ; U.- s k Y k k Y 8.& & * * ; 8.{ k B.B.{ { Y r 4 r B.- k B.v.& r 8.Y B.8.- - - & - - 8.B.k 8 - - k ; - k k 8 k.{ 4 { { /.* & & * ; - ; & r k k f.- r r { * k B.s - * & - r 8.{ 8 Y Y & - { k 8.- k k 8.v.{ 8.- & & * ; ; : 8.* - & k k { B.r 4 { { v.- Y w.k Y k B.*.- ; f.f.- - - & & k v.k.- k Y 8 ",
"- k Y k r 8 k 8 k k k.^.).)./.; - - k v.- & ; U.Y r * 8.r 8 k 8.8.Y k k 8 - - k 8.8 r & `./.8 r 8 & - * & - - : & Y k v.{ B.v.k { { - { B.& 8 * * ; - - k *.v.k * - k k - & 8 8 k v.k Y r r P P 8 8 B.{ - k Y - k { f.8.; ; 8.* k k k 8.8 Y 8.* # * ; { { { k ^.v.B.{ k k 8 r ^.k - 8.U.4 k { { 8.{ * - - & - - { B.Y 8 - r Y - - k k * v.v.8 r { /.& & & * * * ; & k k k 8.& k k 8.8 B.f.k k - & - - { { k Y k & 8 { r Y & - Y { v.Y B.* & & & ; - - : * k 4 k 8 k ^.r 4 k *.{ - 8 { k { { ^.B.k { f.f.- - - - + - v.B.- r k 8 ",
"- k 8.{ - - k - 8 k { 8.v.^.U.- * - k.U.- & { /.{ { - 8.k k k B.{ k 8 Y s - k { v.k - & /.v.r k k - - * & - * ; * k { k r v.{ 4 r k & B.U.& & & * : - * k { k { * 8 { { k k r 8 { k.r k 4 { *.k.- 8 Y k k k 8.- - { { 8.; - 8.; k ; k { 8 k 8.& & & ; - - { r v.v.| X.k.k.k P B.Y ; ^.B.- k.{ 8.8.- - ; ; & - & - i.Y k - k 8.- r - 8 & v.k 4 { 8.^.& & $ & - & ; & | r ; 8.& r v.; 4 B.B.; - * * - Y { k k k Y & k ^.8 { & - Y Y { k { - * - & ; ; - : ; k k 8 8 v.8.4 r { B.| & ; { - Y k U.*.- ; w.: - - k 8 & k U.B.k k k - ",
"- k k { { k *.8 8 k 8.*.{ v.i.; * - Y B.8 - { ^.{ k - 8.k 4 k B.k { - 8 - - 8.B.v.- r & ^.k & - 8 - ; * # * * - - k 8.{ - v.{ 4 r Y - k.*.4 - & - ; : k Y k.k r & 8 Y 8.{ k Y { { 8.8 4 k r P P.k 8 8 Y { { 8.k k Y ; k Y - Y k Y Y k { - k 8.* & * : ; - { k { v.k.Y *.*.P r k.- 8 B.8.* { { { Y { Y { - * - * { B.Y k - Y { - * * 4 4 k.k 8 *.k f.& & # & ; - ; + | 8 k { & 4 { Y 8 k B.k - * & - - B.8.k 8 B.8 k.B.- { & ; Y { | { 8.- & & $ - Y * 8.; Y k r k { v.4 r r { v.k { 8.- Y { B.Y - - Y.; - - - - & k B.B.8 Y k - ",
"- 8 { B.8 - Y 8 8 8 8.{ v.*.B.- * - *.B.& & Y B.r r - 8.- - k B.Y k 8 k k k k.i.v.4 k & f.8.* - 8 & - * O * - : - - { k.k k.k.4 k k - | _.r k * * - : - k k.| - & 8 8 k k k k { { k 4 8 r k Y v.2 k k r k { B.- k { ; Y Y - ; - Y 8.{ B.k k v.* * - : ; k { { v.*.*.k.*.8 8 r r - - ^.^.- { { { 8.k ; Y k * - ; 8.f.Y 8 - - k Y r 4 4 8 ).k 8 v.; B.& & $ & - - 8.* 8 r Y Y & - v.{ 8 | 8.k ; * & - - B.B.r - k * k { & { - ; Y k v.v.8.& * * & ; ; - w.; { k 8 - { v.8 4 k B.k.= ; 8.Y ; Y k.*.* - 8.; * - ; * + ; B.Y 4 k k - ",
"- k B.B.r - k - 8 k 8.Y k { `.; - & { ^.& & Y f.r r ; /.k k k.^.{ k 8 - 8 r { v.B.- - - ^.B.- - - & ; * @ & * : - k k k - | k.8 *.8.; | v.4 - & * - ; - { { r 8 & 4 r 8 - 8 k r k k k 8 8 { { v.4 k 8 k k { 8.- ; { k Y k - ; - k Y Y f.8 X.^.- * - : ; - { k B.*.{ X.*.4 r - k - & B.^.r k.{ U.f.8.- k - & - { { 8.Y ; k - k - & k - 4 B.k k v.k 8.* & & & * & ; - { k k k & - B.f.- Y 8.k ; - & - ; B.B.- k { & 4 k.- { - - s 8.8.k.Y & * * & ; ; - 8.: 8.r 8 r k.^.4 k { ^.v.& ; { k { { v.k & : f.{ * * { - + k B.k 4 k Y k ",
"k k k.B.r k { - 4 k B.k.{ { f.; ; - r B.& & { B.8 k { `.{ Y { { k k k - 8 k Y B.B.& - 8 B.^.- - - & - & & - & , ; Y - r * k B.k k k - { { & r * * ; - - k k 8 8 - k 8 Y - r r k k { 8 { * k.k.{ 8 k Y { r { k.* k Y Y Y k - 8.- k k { B.k k i.- & - ; - - Y k _.k.k k Y k k k k.- - Y B.r k 8.^./.8.- ; - & - - k { 8.k 8 - k & & k 8 4 B.{ 8 { k 8.& $ # & * * { r k.k Y 8.& - B.8.4 k.f.Y k - - - - 8.Y 8 - { & - 8.- k - - Y { *.k.k & & & & - : - ; : k 8 8 4 { v.k k Y U.8.- { 8.; Y 8.^.Y & - : 8.; & Y * # { k.*.- { 8.Y ",
"{ ; 8.B.k 8 { 8 8 k { { R.r B.; ; * 4 k.& + { B.k 8 - /.k k k r r - 8 - k k { B.v.& r - 8.{ & & - - : * & ; ; Y.; ; k k 8 k | k k k & k k + r * * * - - Y k k 8 & - k Y - { Y Y k k 8 k 4 B.k.v.4 k v.r k 8.f.- { w.8.{ ; ; k - k k k.B.r k B.; & ; - : - { r B.k.{ { k.k Y 8 v.- - { v.8 r Y i.8.{ - Y - & - - k f.8.- r k { - & 8 8 - ^.k.- { { U.* @ # * - & { - k Y { { & 4 R.8.& { 8.Y k - - - ; k k & k { 8 8 { k k & ; Y { Y Y ; & * * & - Y ; { - ; - = 4 { _.k.{ k B.B.* k f.- k k B.k.& - : 8.- & - - X k Y *.- - { 8.",
"- - 8.{ - - *.4 8 r { k B.k B.- ; - k /.- & k 8.k r ; Y.- k k k 8 k k - - - { { { r k - 8.{ - & * - 8.- & - - , - k k Y & { r k { - & 8.k.& ; & - - - - k k { { 8 - 8 k * Y k { k k 8 8 4 ^.k.B.4 k { k k.{ k - 8.8.Y k ; ; k Y k Y B.8.8 k B.* & ; - w.; { { v.Y *.*.k k 8 k { - & { U.- 8 k 8.8.k - Y - & - - ; { 8.- - r k - * * 8 4 ^.{ r B.{ /.; & # * * * ; & r k 8.k & & X.8.4 v.B.k k ; - r - r { - - { r { v.8 ; & - Y { 8.k.k * & * & ; Y ; 8., k & 4 8 *.].k - Y k.k & ; 8.; k k v.Y & ; ; : Y * 8.- O - *.k 8 k Y Y ",
"- k B.{ - 8 k 4 4 8 k r k.B.^.; - - | B.& & Y B.- 8 ; { - k Y | - k 8 - - 4 { { k & | 8 8.f.k - 8 - { * & - - : & - 8.k & k r k k - - B.v.- k * - - - - k 8 { v.k - - Y r - - k k k - r k v.B._.r r 8.{ k.r k - k 8.; ; k ; Y ; k { k.B.8 k 8.* & - - f.{ i.8.B.k | r k.- Y Y { - & Y v.r k.k { B.; - Y - - - - Y k Y & k Y Y r & r k 4 v.r 8 B.- U.; & # * ; * ; & | k 8.8 & - | B.k B.^.- k - - - - { 8.r - k 8 k Y - { & ; 8.{ { k ; & & * & - 8.; 8.w.Y - 4 k v._.r k 8.v.r - ; 8.- k k { r & ; : ; - * { * O r { r - k s k ",
"- k 8.{ k & 8 - * r k { B.B.^.; - - r v.& & i.^.k k * 8.& k k.B.k k - ; * k v.^.{ & r k k { - - k * { * # - * : - ; { Y * { { { 8 - & Y v.* ; & - - : - k r k k & - - Y Y Y Y k 8 k 4 k r B.B._.k 8 { { { k B.- k 8.Y ; - ; { - k k { { k k B.- & - : f.; { { B.{ *.X.*.k k k { - & { { k r ; 8.^.{ - Y - & - - { ; Y - { r - r - - k & { - - | - U.- & & - ; * : - k k { Y + & ^.B.4 { B.- ; - * - k 8.B.k k k * r { 4 Y ; Y 8.{ { Y k & & * & ; { Y Y , : k 4 { ^./.8 - { { { & * 8.- ; ; 8.k * ; : : - & k - O { B.Y 8 8 k k ",
"; { { 8.- & 8 8 * k k { /.^.^.Y - - r B.- & 8.^.k * ; 8.* Y k.k.r k k - - k 8.B.k = r - { 8.* - - & k - # - - - ; - i.Y * - k Y 8 8 & { B.+ & & - - ; - 8 k r k - & - { - k 8 - s 8 * 8 4 v.v.B.r k { k v.v.B.k { Y k ; - ; Y ; Y 8.k k 8 8 8.& & : ; f.; f.i.B.{ { r *.4 k.*.^.8 - 8.{ - k k ^.U.Y - k ; - - - 8.8.{ - k r - - 8 - 8 & { - - 8.- 8.* & # - * & - - k.Y f.Y & & { f.8 B.^.- Y - & s k 8.Y - k { & r v.8 Y & ; { 8.8 k { & * * & ; 8.Y w.; - 4 & k ^.B.8 { { v.k & * { - - { { Y * : 8.; - & Y - O { v.k.* s k k ",
"r k { { * 8 r 8 8 8 ; k ^.k ^.-.- * 8 B.- & { v.& 4 ; 8.* 8.8.v.r k Y Y 8 k k.B.k.r 8 - { { & & * & - - # ; & ; ; Y f.- & 8 k k 8 Y 8 8.v.& * & - ; w.- k 8 8.Y 8 - r Y r k Y 8 - k * 8 k v.B.B.r 8 r { B.8.8.k { Y - ; - - 8.{ 8.k k Y 8 k k.- - - ; 8.- k { ^.k.k 8 X.- k Y v.k - 8.8.k 8 - /.U.8.- k Y * ; - Y Y 8.- { Y ; & 8 r k & { k - k & 8.& $ & * - & - - | k 8.k & = { { r B.B.- 8.- - k k - k r k { & - B.- ; & - 8.f.k { Y & & ; & ; { Y 8.8.- - * 8 ^.B.8 k Y 8.k - - Y k k k { k & ; w.: - & Y - O - *.8 & r k - ",
"- k 8.k - 8 r 8 8 8 k k.^.k./.w.; - r ^.& & 8.8.8 4 ; , * Y { | & r - k - r v.i.^.8 k 4 { k + - - k Y & # ; * - - ; ^.- & { - 8.{ k - { i.& * & - - f.; k k { Y - - r Y - - k k 8 - * k r ^.B.R.8 r - k k 8.B.Y i.{ - ; k k { ; k Y { Y k k i.- * ; , : ; k v.^.k.*.8 X.8 Y k k.k - B.B.| 8 8 /.B.Y - Y ; * * - k ; 8.- { k ; & - - k & *.k - k & 8.* # & * - & ; - 8 k 8.k & & v.v.k v.^.{ B.- 8 k k k { k k { * 8 B.- - & * - { 8 8.- $ & - & * 8.: w.; - k r k ^.^.8 r { 8.k & ; k - Y r ^.{ * ; Y.w.: & 8.- X *.*.k * 8 k k ",
"k Y 8.{ & - 8 8 8 8 k { U.{ /.f.: { *.U.- & 8./.- - ; , * ; k 4 - 8 8 r - k ^.B.k.- & 8 8.8.& * - - ; * & - ; ; - - 8.Y & ; k 8.| k - { { & & & - & 8.- 8 k 8 { k - k { & & k - k 8 & k k R.B.).- 4 - r 8.{ i.k { 8.- Y k k Y ; - k k.{ k Y { - & ; , - & { B.^.*.*.k k.Y k.k.B.k - { U.k 4 - B.B.8.* ; - & & - Y { 8.{ B.k k * - r k & k.v.r Y - 8.* $ & * - * Y - r k 8.8.& & R.B.k { U.{ Y - - - k k Y - r B.8 r v.& - & * k k k 8.- & & * & * 8.Y w.: - | & - B._.{ Y k 8.- & - ; k k 8 B.k & ; w.f.8.- 8.- + k B.k * 8 k k ",
"- { 8.{ + & 8 8 r k r k B.v.^.Y ; - k.v.- & B._.k - - , - Y Y k k - 8 k - Y ^.B.| 8 4 r { i.* & * - - - & - ; : - * { k * - k k - k - { { & * & - & 8.- k k k { k & - 8.8 - k 8 8 8 * | r B.v.B.8 4 ; k B.8.{ k { 8.k Y ; ; k ; k k B.Y k { { - & ; : , & k 8.8.*.B.Y k.8 { Y B.{ - { 8.k r - k.^.{ - ; - & - - k 8.{ k { k Y & - - k & 8.*.8 B.k Y - # & * - & Y & r k { Y & & _.B.8 k B.Y - - * - ; - k - 8 B.- 8 { & - & & k ; k k ; & & * & - w.8.U.w.- k r & ^.^.k k { 8.- + - k Y k k v.- * ; 8.; ; * 8.- O k R.*.* 8 k k ",
"- 8.B.k & * & 8 8 k Y k B.{ B.k - * k B.& + 8./.8 - Y : * ; s { = 8 s r & k B.B.r r 4 r - Y & & - - - ; & ; : : - - { Y - 8 - { - - & k k & & & ; * Y s k k k k r & - { k k k 8 - 8 & k k _.^.^.- k r { ^.^.{ Y B.8.- ; k * k : k Y 8.{ k *.^.- & Y ; 8.* { { { { v.k k.4 r 8 { k - 8.8.k r r 8.8.{ ; 8.- & - - Y { 8.r { r Y - * 4 { - U.k - 8.k 8.- $ & * - - 8.& - k { ; & & v.B.4 k B.k k - - k - - k - 8 { 8 8 *.- - * - { k k 8 ; & * * & - 8.{ w.: ; { 8 - ^.{.k r k.8.- & * k Y k { v.k & - : - - & { * X r v.Y * k k k ",
"- { 8.k - 8 8 8 8 - Y - { - U.8.: ; Y k.& O { B.r k - : * - k r r r r r 8 8 v.U.k.- 4 r ; { + - - - ; - & ; ; : * - { k * k { { & - & Y { & & * ; & Y - 8 k v.{ r * - 8.k - Y k Y 8 & k k ).B.B.- k 8.{ k k Y Y 8.{ - Y ; - k Y { { 8.B.k k B.- & 8.; : ; { { { k k r *.4 *.r 8.r - k 8.k k k k.B.k * Y - & & - Y Y Y - k - ; - & r { * B.{ 8 B.; 8.- $ & * - & - - r k k k & - v._.k Y /.{ { - & - k k k k Y i.s k k.- 8 - ; Y k.k k Y & & - & - 8.8.w.; - { & r ^._.k r { { ; - - k k k k { - & - 8.8.; * : - X - k.k 4 k s Y ",
"s Y B.{ & r k 8 k 8 k r k.k v.Y ; - { k.& + { ^.r 8 - ; & - - k 4 k Y 8 r r B.B.k - - { { k & * & - ; : & - ; ; & * { 8.- | { k - - & { 8.& * * ; - 8.- 4 k | { { - & 8 k - k r k r & r 4 _.v.^.r k { r { k.{ Y 8.8.- { ; - { { Y k B.B.Y k.8.& & : 8., * { { v.k 8 k v.r { k 8.k 8 k Y k r { B.B.k - ; - & & - 8.k k - B.- ; - * 4 - * k k 8 v.; Y * & # - - & - - k k { Y & - /._.8.8./.k { - * - - k Y - 8 { - - { - k & - { 8.k.r - # & - & - 8.w.f.; - k 8 r _.].Y ; 8.8.- - ; Y k { ; 8.* & - - : - * 8.- X - B.*.- 8 - Y ",
"k f.U.{ & - k k k - k { B.k B.- ; ; k 8.- + B./.8 4 - ; * ; - | 8 r Y - - k ^.^.{ - 8 - k 8.& - - * - : & - - ; & & i.Y & k k k - k * Y k & & & ; & - * s *.{ { r & - Y k - k 8 8 8 & 8 8 {.^.B.& r k 8 v.B.{ k 8.8.; s ; k 8.{ Y 8 8.B.Y *.B.* * : 8.Q.- k { ^.k { k k 4 { 8 *.Y - Y f.k k 8 v.B.{ - Y k & - - { { Y - 8.k k r 8 4 * * { k - k - ; ; $ & - ; & ; k - { 8.Y * - B.^.k.Y i.k { - & - 8 - Y - k k - k { - - & - ; { Y k - # & * & - { 8.8.: - 8.k 8 ^.].{ k x.B.- * ; { 8.k r B.- & ; - - - * : - X r P.k - 8 - k ",
"- 8.B.{ - k k k k k - k 8.k ^.- ; ; 8.{ & O 8 B.- r ; : * ; ; { 2 & k k & k _._.| - & k ; { & - - * & : & ; : - & - ^.8.& - 8 k Y 8 & k ; + & & : * ; * - r k k 8 & - 8.8 - k - 8 8 4 { | B.v.^.& - k k ^.^.k Y { 8.Y Y Y Y Y 8.Y ; k k.Y { ^.* & : : W.- { 8.8.X.k.P 8 = v.Y { k k { B.- 8 8 B.^.^.; k ; & - - 8.{ k.- k.k ; ; 4 4 8 & Y { r k & k - & & * * & ; - - { { Y - - k.B.k k B.{ Y - * 8 - 8 k - - Y k 8 k - - - * Y 8.{ k - & O - * ; 8.{ 8.w.* i.k - B.^.k 8 B.B.8 - k 8.{ { r { * & ; ; - ; - 8.- X + k.k - k s s ",
"- i.f.8 & 8 k 8 k r - 8 k k B.; ; { v.8.- + 8.i.- 4 Y , & - - k.r & k k & Y ^._.r & & *.r 8.& * * - * - & - ; - * & 8.8.- - - B.8.- + - k # & & - - : s 8 k 8 k Y - r k k * k - s 4 & *.k ^.B.^.& * k k k.B.8.k B.B.Y 8.Y ; Y { k k 8.{ k Y k.& & : : , & U.8.U.Y k k k & k *.{ k { 8.f.k 8 8 B.U.8.r k Y & - ; Y 8.8.- { { { 4 & 4 - * { 8 - k * ; - & & - & * - - - k k Y - - ^.U.8 k B.{ Y - - r - k k r s 8.k - k - - & - 8.8.k k - & # * * ; 8.8.8.8.; i.k 8 _._.k k k.{ - & k ; k k k k & # - - ; ; ; f.- O - k.r * k k k ",
"- Y { k & & - 8 k k k k B.k ^.k ; 8.k.v.- & 8.^.& & - - & - k 8.4 8 Y k - k U.^.| = & v.{ B.& & * ; * - & - ; * ; & k 8.- - r 8.{ - & - ; + & & - * { ; 8 { k k { & - Y k - - 8 k - - { { ^.k.^.- 8 i.k { B.k k 8.8.- - k k k 8.{ { B.B.k k 8.& & f.w.8.- 8.U.B.*.k 4 *.- Y { B.Y Y { 8.8 r r B.^.Y - { k & - k 8.8 k r { Y 8.r & = - * Y r & k - Y ; & * * * * ; - k k k k - - B.^.{ k /.k k & * 8 k - k Y 8 k - k r & - - - Y Y - k - # & * & - 8.{ { : - B.r 8 ].].k k Y Y 8 + - Y k Y | B.* & - : ; : - , - O - U.r & - 8 k ",
"- k 8.; - 8 r 4 *.k k Y B.8.U.k - ; { k.- & { ^.& - - - & - - Y & 4 k k - k B.B.k 4 * { k f.& * * * & - & - ; ; : & 8.w.* = k 8.k - & - k + & & - - ; * 8 k k k { - - { - - - - k - 8 | - B.8.^.- r 8.r r B.k k 8.U.k k k k Y f.k k B.v.k { { - & Y.8.f.- - 8.i.*.k 8 { 8 { *.k.k - k 8.- { { B.^.k & ; - - ; Y { k { - B.{ Y 8 r 8 k & Y Y & 8.; ; : & & * & * - ; - k k k * & { ^.v.8.].Y ; & & k k k 8.r k Y - 8 { k k & - Y k k *.- & & - * - Y { f.8.; 8.- r _./.8 - Y Y r * - - Y { { v.* * - , - - - : - O - B.k & 8 - - ",
"- k f.k & r k - k k - k B.k i.- ; { k.{ & & { U.& 8 : 8.& ; - k & 4 P { & Y U.).= - = r - 8.& - & * & ; & - ; ; - & Y : & & r k r - & - ; + + & * * ; - r 8 { { k.- k { - k - r k * * Y 8 B.k.B.& 4 { { { B.8.{ i.B.- r Y ; Y w.8.k 8.k.k 8 k - - 8.w.; - k 8.B.{ - r B.k { 8 *.k - k k ; { ; B.B.i.8 Y k & - ; { k k - k.{ { { - - - & { { - { - ; - $ & ; - & - k r k Y { * * 8.B.{ { B.{ { ; & k k k Y k k { - 8 { { k & * 8.k { k - & & * * - Y 8.U.8.; { r k ^./.- - 8.8.- * k - 8 8.k { * * - - ; : ; : & # - B.r * k k k ",
"- k w.k & - - 8 k 8 k k 8.v./.k ; ; B.Y & & r B.- 8 ; 8.* : - * & * P r & k ^.].| 4 - r - { & * * - & - & - - - ; & ; ; - & - { k 8 & - ; + & & ; : { k 8 k k k.8.- - { - - { k ; k * k 8 ^.U.B.& - k k k ^.B.{ 8.{ - k k ; Y { { - { v.k 8 v.k * , f., - ; 8.^.k - r *.8 { r v.v.Y k 8.{ k r B.B.v.* 8.Y * & - Y k r - { Y Y k & - * * Y k - k - ; * # & ; - & - ; - k ; k * & { B.{ { U.B.8.k - k ; - Y k s ; - Y { - & * & 8.Y { k - & & - * * : 8.w.: - /.Y k ^./.8 * { i.- & - k Y k k { * * ; ; ; ; - , & O & { Y & 8 Y k ",
"- k w.- & 8 Y 8 r - - - k.k `.k k 8.B.8.& O k B.& * ; f.- ; * - & 4 k { & s v._.*.8 4 { 4 B.& - & & & & & ; - ; - & - : - - - k k - & - { + & - ; , : - 4 - | { v.- 8 k ; * - k k k * 8 8 v.U.U.- r { k { 8.| Y U.8.k { k k { 8.k - { B.8 *.^.r & , w., - Y { U.k & k k 8 k.Y v.8.k 8 { 8 k k B.^.{ & Y Y - & - Y 8.8.k 8 k k k 1 & * * { ; - { { Y - & & - * * * ; r Y Y { & & k B.r { U.8.k * & { - - 8.Y k k - k r r - - - k { k 8 * # & * * * { 8.8.: : ^.{ { ^.^.8 - Y { - & ; Y k k - - & & ; ; : , ; w.* X & B.k & 8 Y k ",
"- - { - & k 8.k k - - r k.k B.Y ; Y v.*.& + 8./.= & ; Y & ; * k * 8 r { & k B.].{ r & { k ^.& * & & & - * - * - - & Y 8.- & - - r * & - 8.& & & - : ; 8 8 8 | { k - ; k - - - k k k & r 8 _./.^.8 r Y { k U.B.{ f.8.k - k k Y { - ; B.v.8 r v.- & ; : , - Y 8.i.8 - r k 8 r r k.k r - 8.k k - v.k.{ & k - - & ; 8.B.Y { { Y k.8.4 & - * *.- * B.Y - & $ + - & * - ; { { Y Y & & { B.k { ^.k.{ - * k - - 8.{ Y k - { 8 k - ; - 8.8.v.- * & & * - * 8.8.8.; - /.Y k v.U.- - k Y - - { { k k 4 ; & * * ; : ; - , & O - U.{ & - Y - ",
"- - { k * - { k k 8 8 k | r 8.8 ; { v.v.8 & k B.- - ; Y - - * - - * 4 - = k k.^.| & = | k B.# * & * & & * - ; - & & ; 8.- + - k r * & * ; * & * * : f.Y 8 4 k { { - - ; - - - - s 8 * k 4 /./.v.; r { - r B.B.{ 8.8.k.{ Y k { ; - k ^.k.8 4 ^.k & 8.8.; ; 8.i.v.- 8 - k r 8 8 v.8.- - 8.{ { - { B.8.& ; - - k - 8.{ - k { Y 8.8.k & & - k - 8 U.8.* & $ + : * * - ; k Y k k & 8 ^.B.{ 8.U.8.; - & k k 4 8.{ k ; - { k 8 - - * { 8 8.k - & & ; * - { 8.{ : - ^.{ k v.B.r & k 8.k & ; { k 8 r k & & * - ; : - , ; & & B.| & 8 k k ",
"- - 8.{ - - k r Y Y k 8 *.k { k ; { B.B.- & - { 8 - - : * ; * & & - k r - k k./.r = & k r { + & & * & & & ; ; * - & ; f.; - { Y { r & - - & & * * - 8.* - - r k { - k { - - 8 - k - - k 4 v./.B.k k r r - B.v.B.B.8.k { 8.; 8.{ - k B.B.- 4 /.{ & - : * ; ; Y B.k k k *.8 8 - { { - - 8.8.8.k { B.{ & { k k - * 8.k - Y k.k { { 4 & & - 8 k - 8.- ; - # & 8.- - & k { k ; ; & - B.B.B.i.{ k k - - { k - k k - 8.- k.Y - - - & Y { v.k - & & * * - 8.8.8.: - /.{ k 8.^.- & k 8.{ & - Y k { { ; & * & * : ; - Y.- & & *.k * 8 k 8 ",
"- k 8.k - - k r k Y 8 8 v.k B.k ; ; B.{ - & k k.- - & : * ; * & + & 8 r 8 { B.B.- - 4 k - { & 8 * & & * * ; ; * & # 8.Q.; & k { { s & - ; & # * * - : k 4 4 - r B.- k k ; ; k k k k - k k i.^._.{ 8 r k { ^.k.Y B.{ - k k ; 8.8.- k B.B.- 4 ^.; - , 8.: - - k 8.k r k r - k 8 k.k k k 8.k k k { v.k - k k ; ; - k { * k k.k Y k 4 - & - { { - 8.- ; - $ & ; - - & - { 8 ; k - - { B.8.B.{ Y k - & k k r v.k - 8.- Y Y { r - - k { { *.; & & - - ; : Y 8.; - ^.{ k 8.v.- * Y { r & ; ; k { k - & - - ; ; ; - , - # - k.k * 8 k - ",
"& ; 8.k - - Y 8 k 8 & 8 k.k B.- - { { { & & k v.& 8 - : - : - ; * - 8 k - Y U.v.4 k 8 | & Y % - * * & * - ; ; - & # ; Y.- + k 8.{ - & - ; & # * * - : k 4 r 8 k U.r k { - k - - k k * { r B.^.^.Y k 8 r { ^.{ { Y { k 8.k { 8.: - ; 8.{ k k B.Y - ; , : ; ; - v.k & k { 8 k k 8.{ - - { k { r *.U.{ 8 Y k - - - k B.k - k k k.{ 4 - - - k ; k 8.; ; - & & - * * - ; { 8 - k - - Y { k B.8.{ k - & k k r 8.k k v.- Y 8 k { k - Y Y { { - & & - ; ; { ; 8.* * 8.r { B.8.- & { { ; & k - 8 k = * & * - ; - : * : * O & B.8 * k ; k ",
"* - 8.; - k k.k k - & k { r { k ; 8.v.*.& + - v.4 r * 8.- - * ; & - - v.& k k.v.& | - Y k { # - * - & * * ; Y - & # - /.k & Y Y r - & - ; * & * - - - - 8 k | 8 U.- - 8.; ; - k k - - 8 r ^./.^.- Y k { k.B.8.{ Y k 8.{ k - 8.Y - - B.k.k 4 B.{ - ; w.w.: - k i.- - r { 8 { 8 k.B.k - k k { r v.B.r - { k - & - k B.k 8 *.{ k.{ 8 & & - - - - f.Y ; * # & ; * * & 8.k k ; k - * { *.k { { 8.k & & k 8 - { k - 8.- { - - - k k { Y 8.v.; & & - - ; Y 8.; - - /.4 r { { - & Y 8.k 8 { Y k r & - & * & ; ; 8.- : * O + k.Y - k k - ",
"* * f.{ - k B.{ k.{ 8 - { - v.k ; 8.B.Y & + - { 8 & * 8.; - - ; & & - v.- 8 B./.r r & { r { & - * - & & * - : ; & # Y `.Y & - 8 - - & * : & & * - : ; * - 8 k - v.& - 8.Y ; ; k 8 - - k 8 _._.B.- r k k B.].8.k 8.{ k Y ; k 8.k r - 8.{ r { _.8.- : 8.8.: ; k i.k 8 *.*.* k k B.B.k - ; k - 4 { B.{ r Y k - * 8 k *.8 Y { Y k k 4 & & * k - ; Y.- - & $ & ; & * & 8.Y k ; x.- - 8.{ k 8.Y 8.; 8 - k - & Y k ; 8.- { - & - - - ; { 8.*.- # & - * - { Y : - ; U.k r { { - & Y B.{ - 8.8.8.{ k - & & & : ; ; ; Y * X & *.k * 8 Y - ",
"* - 8.; - - 8.Y k.k - k k - k.k - k B.{ & + r v.k & & Y - - * & & & - 8.& k k.v.& & & v.{ B.+ ; - - * * - - { - & # ; W.Y & & - * - & - : & & ; * ; - * & r 8 - U.k k B.- ; - k s - 8 Y - ^./.8.r k - k B.`.k k i.Y - { ; - 8.8.- k B.B.8 { B.k - ; : ; ; 8.Y f.k - 4 k 8 { Y U.f.k - - 8 k k v.B.k k r - k ; k Y 8.8 k k k v.v.8 * & - Y ; - f.- * & & * : & - - { { k - Y - & { k k f.B.B.k - & k 8 - 8.Y Y B.& { k & - ; - k k v.r + # & ; - - 8.; 8.* - ].B.k B.B.- & Y { k & Y 8.k.k * ; & & - - - - ; { * O + B.{ * - k - ",
"- ; 8.k - - { k B.k & { k ; B.8 ; 8.{ k & & - ^.k 8 & k - ; * * - * k | & { { v.& r 4 B.k.B.O - * * & & * ; : - & & 8.^.Y & - * ; - & - 8.* & * & ; ; - & & r r B.* - { - ; - k k - 8 k - 8./.8.- 8 k 8 k /.k.k 8.Y - 8.8.; 8.f.k 8./.B.8 k ^.k - & 8.8.: - * ; - - 8 k - | k ^.B.k & ; k r - k ].v.k k - k k - Y i.k k k k k.v.8 & & - { ; * Y - * * $ & Y & - * { k.k - k - * k 4 8 { U.^.{ - & k r & 8.Y 8.B.* 8.8 & r k { k 8 { k + # & ; - ; 8.: ; * ; }.^.*.v.B.k - Y 8.r - k Y k.*.& ; & & - - - ; - ; & # O B.k.8 k k ; ",
"- - { k - - k k B.v.& - { - v.8 ; { *.k + & - B.k ; * : - - * & & - - { & k v.B.8 r r B.{ v.& & & & & & - ; - * & # { ^.8.& - - k - & & ; & & - & ; : - - 4 4 k B.- 8 { k - - k s - - k 8 { /.8.- - k k k B.k.{ { { k 8.8.; 8.i.k Y ^.k.8 { /.{ : * ; : : ; - Y - & r 8 k { k _.B.Y - - r k - 8 ^.v.k k - k - ; Y i.- Y k k v.{ - - + - { ; * Y ; * & & & : - & * { 8.8.- k - & k r k { { B.8.k = r k & 8.{ { /.- Y - & - Y k k k k { & # & ; ; - 8.: -.* - _.B.k.B.B.8 & k 8.k & k k Y { - & * * - ; - : - : & # + v.{ 8 k Y k ",
"- & ; ; * - k 8 8.{ - - { r B.- ; 8.{ Y + & k { k - & : - - * & + & - { - Y 8.^.k r r ).k | & - - & & * - ; ; * & O ; 8.Y + - k k - - - { * & * * Y { - * 4 k k B.- - Y k k - ; k Y k k Y 8.^.{ - r - 8.{ ^.B.{ { { k i.Y k { k - - 8.{ 8 *.].f.; - : ; - : - B.- & k - - { { B.i.k - k - r 8 { ^.{ k k - s r k Y U.8 k { k { *.4 * & - : ; & f.Y - * # & : * & * { { { k { k * { { k 8.k 8.{ k & r { - 8.Y 8.8.Y { - = - k k k { k { & # & ; ; - 8.Y ; - ; ^.k.Y k.B.r & - { r & k ; { X.& - * & ; - * : - : & O & v.{ 4 - Y k ",
"- & ; k - - { 8 *.k 4 r - k B.- ; ^.B.k.& & - B.8 - * ; : ; * & # & - { & k { B.r k r *.8 8 & * & & * * - - ; * & @ - , k # - - r - - - 8.- & * & : ; - - & k k i.& - k Y k - k k k k k 8 | `.B.k k - { 8./.k.k.U.8.k 8.k - Y { k r 8.k.8 { _.f.: - : ; - - - { k - 4 8 k 8.{ v.v.k * k k k - 8 /.{ k k k k k 8 k B.k k { k { { - & & & - k * f.; * * # & ; & * & f.v.k - k k - { k k { { Y { 8.& k Y - { Y k.8.- { r k k ; k k { r *.& & & ; - - 8.- : - ; U.{ Y Y B.8 & - { k - k k k k & k & & Y : & 8.: w.- & + B.k - k k - ",
"* - { { 8 - k k r { - k 8 k v.k ; 8.B.k.- 8 - 8.r - * : Y ; * & * & * Y - Y Y B.k 2 8 k 8 { & k - - * * - ; : ; & & , Y.Y O - * - - - & { * & & & : ; - - 8 r 8 ^.- k f.Y k - ; - k 8 r 8 { {.U.- k - r k f.8.B.f.{ 8 { k - { f.- Y k k.8 { ^.Y ; - : : - - * 8.k - - r k v.k B.^.{ - k Y k - 8 B.{ - k { k - - - { - - *.k k.B.& & & * - k * f.; * - $ & ; * - - 8.8.k - k - - k { k 8.v.k.k - 4 k { 8 { k { i.- Y k k k - - - { r *.& # & ; ; ; : - ; * ; _.B.k k k.- & - 8.{ * - k.8 k - r & - ; : * ; ; w.; & & { { - k { - ",
"- * Y k - - Y 8 { 8.- - r - { 8 - - B.{ & r r k.k Y - 8.Y ; - - - - * - ; Y k { & % & B.r { & ; - * * & - ; : * & & : Y.; # * * - * - * : + & * * : : - - { k 8 v.- - 8.{ ; - Y s - k { k Y _.8.- k - - 8 f.k.^.B.k.- Y k - { 8.- k { { 8 { ].8.; & ; : * - - Y - - 8 8 k | k ^.^.f.- 8.k r r k B.k 8 8 Y Y - & k 8.- k { k v.{ & & + * ; { - 8.- * - # & - * ; * ; 8.k - k s * Y v.k Y k 8.Y - & { k - k.Y 8./.k { k r r k k - Y k ^.& # & - ; ; Y * ; - - /.v.{ Y 8.- & - 8.k - 8 { r k 8 ; * & - - * * - : * & - v.{ 8 { 8.; ",
"- * ; ; - - k 8 B.B.k ; & - k 8 8 B.^.k & 4 4 { k Y * : Y ; - * * - ; ; - ; Y r = r r ^.*.v.- k - & & & - - : ; & O : f.; + * * - & & * ; # & - * ; ; * r k k - B.k - Y 8.k * ; k - k { k 8 U.8.k k r - Y B.k.k././.8.{ Y k k { - k B.k.{ { ^.k - & : ; * ; - Y - - k r 8 k k v.8.Y & - k 8 r r v.{ r 8 k k r - k { k { { k ^.^.8 & & * - Y * 8.* * ; # & - & - * ; 8.k - k ; - r 8 8 { - { Y k 8 k.k & { Y 8./.k B.8 - k - Y k { { _.- # & - - ; 8.- ; ; - _.{ k.k.8.8 & - Y 8 & r Y k *.k k & & * - & ; : ; & & & *.{ 8 k 8.k ",
"- - k - - - 8.k v.B.k k k - k - 8 f._.k + & 8 { k ; * ; Y - - * * * ; { - ; ; 8.& r 8 ^.*.k.& - - & & & - ; : : & O - 8.: # & - - & - & , * # * * ; ; - - r { 8 ^.r - Y { k * ; k k k k - r /.8.- ; k r Y B.k i.B.B.{ Y - k k Y * 8 { k k { _.k ; - , Y : : - ; - & | 8 - k Y *.k k & - k - k k B.v.k k 8 k k 8 k | k k.{ k k.B.- & & - - ; & Y.* & - # & - - ; & k 8.r - 8.- - ; - k { { v.{ r 4 { v.& Y k 8./.{ v.k & ; - k k 8.B.v.& # & - ; k w.- ; - - /.B.k.k.8.8 & 8 k ; - { v.{ *.k k 8 - - - & ; : : & O & k.{ 8 k k - ",
"- - k Y - - 8.k B.B.- - r & { r s 8.^.X.& & * { r { - { { ; ; - * - - - & k 8.8.& r r B.Y { & - * # & & - 8.8.; $ # * 8.Y & * * ; & & * : & & & & : : k - 4 r k U.- - { Y { * Y k k k { r k _.k.- { Y { { B.k v.B.v.- { k 8 k k & 8.B.{ k.k.^.; - * - ; ; : & k ; * & k 8 k k { { Y - { k k k { U.*.k k k Y k - k 8.8 r r - k v.- & & & - ; - Y.* & - # & - - 8.- ; Y k - Y - - k r r k.k B.8.8 4 v.{ & k k B.8.k 8.k 4 k k k k 8.{ B.& O & ; - - : ; : * k _.v.k Y B.k - r 8.k - k 8.{ *.k 4 4 & - ; - ; : : * + + | { 8 k { k ",
"- * k { - - 8.k ^.B.- k - - { 8 8 8.v.{ & & 8 v.8 - * 8.Y Y ; * & - * - & - Y v.r 8 4 v.{ { - ; & $ & * ; 8.Y - & $ - , ; & - * - & & & 8.* & & & : - ; k k r 8 ^.k - k 8.Y ; ; k k 8.{ k k ^.{ - { { k k U.B.B.B.B.{ Y Y - k { & f.U.k.v.*.^.- - - : : ; ; & { ; - = k k k ; ^.v.k * Y 8 - * 8 { 8 k k { Y k r { { - { r 8 k.B.- & # * * - & 8.& * & # & - * ; - { Y Y - { - - - - k { ; 8.r r - k k & k Y k.^.k 8.{ k v.{ k - { Y ^.& O * ; ; - { - ; * - {.v.k 8.k.k & 8 8.Y - k k.k.*.k r 4 & ; - * ; ; : * # & B.{ - - 8.; ",
"; - k 8.s - { - { 8.- 8.& - { - - 8./.{ + & - Y 8 * & ; ; 8.; - & * & - * ; { `.- - P v.{ k - 8.* & & & - Y Y ; & & - : ; + - ; Y - & & Y & * & & : ; k k { 8 - ^.k - 8.8.{ - - k 8 Y k k k B.8.- 8.k k Y /.{ v.i.k.k k.k k Y { - v.{ k k 8./.8 - & - - - ; * f.- * 8 r k { - B.8.Y - k - - & 8 k k 8 Y r k k k 8.B.k k k 8 *.k.& + # - & & * w.& * & # & - * : - 8.{ 8.k { k - k - { k k { k k 8 { k & 8 Y 8./.{ Y Y | v.{ - - k Y ^.& & - ; ; ; 8.; - * - `.k.k { 8.8 - - B.{ - { k 4 *.8 k.* & k - & - ; 8.& # & *.8 8 - k - ",
"; - Y { s - 8.k { B.8 k & k k & k { ^.X.& & - k r - & Y Y 8.; & & - ; ; - - ; B.k & 8 v.k.{ & - - & $ & - ; ; ; & & - * 8.+ - s - & & & : # & & * : ; ; 8 k r - B.k 8 B.8.Y - Y Y Y 8.- 8 8 U.v.- { 8.{ k B.Y { B.{ { B.k Y 8.Y & k i.{ k k ^.{ : & ; ; - ; & f.- - & r 8 { k B.{ k - ; - - - r - k k k Y k k k 8._.k k 8 k k.B.& # # ; * * * Y & & * & & ; * ; - ; 8 k k 8.- & { r { k k B.{ { 4 8.k.& { 8.i.^.k 8.{ k 8.k ; - k { ].& O & ; - ; 8.; ; * - /.B.k Y B.k * - B.{ - k { 8 { k { 4 - k - * - ; 8.* + + { k 8 - k - ",
"; & - 8.s - 8.k k B.- * - - { 8 k v.B.k & * - Y k - & ; ; 8.: * * ; - ; - ; - i.k r k v.*.*.* * * & & * - : ; ; & & - ; : & - - & & & & ; # & & & : - ; - r r 8 8.- - 8.Y { - Y k ; 8.8 - k B.i.- { k { Y 8.8.^.^.B.k.B.k k { 8.& Y 8.v.{ k v.k ; & - ; - ; & f.- - & k k ; { ^.^.Y ; k - - - k { k.8.8 k Y k k 8.^.8 8.Y r r 8.& # & * * - * 8.& & ; # & ; * - - ; 8 k k 8.k & 8 - 4 k k U.B.| & U.k % { v./.B.- 8.k - 8.8.Y - { { ].& X & ; ; Y 8.- ; * ; /.v.k k B.Y & & 8.{ * 8.{ k Y *.- & - k - - : - ; * & + *.k 8 - ; ; ",
"- - ; Y - - B.8 k v.r - & - k 8 k { B.k & - & { r - & - - 8.Y - * ; - : - ; ; 8.k = r v.r { - - & & # & - Y { ; & & ; 8.; & - - & & - - : & & * * : ; ; k | r r v.k - 8.k { k ; ; - 8.- - r k.8.r k r k B.U.8.B.U.k.8.Y k - k i.- f.B.k v.k ^.r : & - ; ; - & 8.; - & - Y - k k.^.{ - - - - * r B.k.k.8 k Y Y k x.k.8 { k k k.{ & & * & * - * f.& & - # & - - ; * ; r Y - { k - - - r Y { v.k.*.& k.8.& - { B.U.- Y r - | { k - i.8.^.& # * ; ; ; f.- : * ; ^.*.k k k.- & - 8.k * k.Y 4 Y P k & * r - ; - ; - & & + { { - * - - ",
"- * Y Y - - 8.s B.B.- - & k { - - { B.k & - r k.- - & - - 8.Y - - ; - : & * ; i.8 & * B.k r - - & & $ & - ; ; ; & & - : Y & - - & & - & - O & - - : : 8.Y *.*.k B.k k w.{ - - Y ; - ; - & - B.i.k Y { { 8.U.Y { B.8.k { 8.k { { - 8.i.{ v.v.^.- ; - ; - ; - & f.k ; & 4 k - { k.8.k * - - - k k { k k.4 k k k - 8./.k { k r *.*.& & * - & * - 8.& & ; & & - - * - : { { - k ; * - - { 8.Y B.8.{ 4 B.^.- Y k { /.{ Y - r k { k - { 8.B.& + * - Y ; f.* - & ; /.B.{ Y 8.k + r B.- & 8.{ k k.P 4 & 8 { ; & * - - * & & 8.{ 8 - - - ",
"; - { { ; - 8.8 *.{ 8 Y - k k - - { B.Y & r k { * - & ; - 8.Y * ; ; & & & * ; 8.r - 4 ^.*.k 8 k - - & & - Y ; ; & * - : ; & 4 - & & & - - O # * - ; ; ; 8 r r 8 { k - 8.Y - - Y - ; k - - - B.U.{ { { { B.B.8.^.B.B.{ 8.B.- ; { - Y { { { k.B.k { & ; ; ; : & ; - - & 8 Y 8.8.k.8.Y - - 8 - k r r k { k k k r r 8.^.4 r k 8 *.{ & & & * & * - w.& & * $ & & & * - 8.Y 8.- k - * - ; v.Y - B.k.k & v.^.- r k 8.{ k { Y k { 8.Y - k Y _.- & * - Y Y Y.- ; & - /._.v.k { k & - B.k * { Y 8 *.k k 4 8 { - & - - ; * * * B.Y & 8 k k ",
"k * Y { k - B.Y { k.- k & - { 4 k { k.8 & k r Y - - & k * { : ; ; ; ; * # & - f.r r Y k.k k & - - ; & & * 8.; Y * & - ; 8.* 4 8 & - ; & ; & & - ; : ; - - 8 { Y i.k k { k Y ; : k - - Y - 4 /.U.8.{ ; k 8.8.{ B.^.U.k { i.k - r r { B.B.v.k { ; { # - ; ; ; & ; - k k - Y 8.- v.8.k * - 8 8 - - k k k r k k *.4 Y B.- 4 { r { { & & & & & & * , & & * # & & & * & { { v.- ; k - { { *.k - i.v.r + k.^.- 8 r k 8.k { k.8 { B.{ 8 k k _.- O & - 8.k f.- - & - /.^.{ Y k.k - - f.{ * *.B.r k.k k - & v.; * : * ; & & - Y { 8 - r - ",
"k * k k ; - Y k k.^.k k - - Y 8 k k U.k 4 - - Y k - & ; - { { ; ; - * - & * * 8.k r k v.| k & - - - O & - 8.Y { & & * - { - k k & - & & - & * * * : * ; 8 r { 8 B.k k { ; { ; { k - k k k 8 B.f.; { k f.8.{ k._.^.B.{ B.{ - - k * 8.B.k.B.v.B.k - & ; ; ; ; & ; - - = k k 8.{ k.B.8 & ; r - - 8 { | *.k k 8.B.8 Y ^.8 k k 8 { 8.& & & & & * & : & & - # & & * - - 8.Y { * - - & 8 k { 8 - B.k r & v.*.& Y { Y f.{ 8.k.| { U.Y - k 8.^.k O & * Y k w.- * & s /.B.r k U.Y * - 8.k - k k k B.8.k 4 4 { ; - ; - ; * & & { { 8 - - ; ",
"- - Y { - - { - { k.Y { - - r - k Y U.k 4 * 8 k k - & * - Y 8.Y Y ; & * & & ; f.k & r U.*.*.8 - - - O & ; 8.Y k - & - - { - r k - * - & * # & - * ; - ; - r { - 8.k ; 8.; k - - ; k k k - - 8.B.k 8.{ 8.{ B.8.B.^.^.v.^.{ r - { - k { r { B.B.k - O ; ; ; - @ : * - - { Y Y Y { { ; - Y ; - - - v.{ *.{ k Y 8.8 Y v.8 k.4 k k.{ & + & & & - & w.& & * & & * * - ; Y k Y - - - * k { *.8 - 8.| | 8 ).k.& k Y r f.Y B.Y r { { k - k k._.- # * * ; Y B.- - & - /.^.r k B.k & 8 U.k & Y k r { *.k.4 4 r - - - - : - & & k { 8 - * - ",
"- * { { - - 8.k k v.k k & ; { 8 8 8._.Y & & 4 r k : & - - k f.k { ; & * @ & ; f.r = 8 R.*.*.= & * * # & ; 8.; Y - & & k B.8 4 Y - & - & ; O & - ; ; * ; - | { 4 B.Y k 8.Y k - ; ; Y { - - - { f.k k k k - 8.8.^././.B.B.v.r - k - 8.v.k v.*.B.r * X & ; ; - * ; & - ; k.- - k | { k ; 8.Y - - Y 8.k v.{ k 8.k 8 8.B.k { 8 8 Y { & + * * * * # 8.& * - @ & * - - - ; r r - * ; - - Y { 8 = B.v.v.8 ^.v.r 8.{ Y f.{ B.k & { { ; & ; { B.- # - * ; { U.; - & - /.*.r { B.k + k ^.8 & { B.4 k.{ k - 4 k Y * ; : : * # & - { k - - ; ",
"; * ; { - - { Y *.8.- k & Y { 8 { 8.U.P & & & Y k : & - - Y f.8.Y ; * * & - ; k { r k B.v.k 4 & & - # & : 8.: : * & - Y B.- 4 k.; & - & - + & - ; ; - ; - k k.r 8.Y k 8.{ k - { k Y 8.k - - B.8.k { Y Y Y Y { { ^.B.k.8.i.- - r k { v.8.B.k.k - - X - ; - - * Y & & - { * ; k k 8.Y - Y Y - 8 { 8.k k.{ k { k 4 { B.4 r 8 4 k k & + & * * - & 8.& * - & & - ; - & Y k k - - ; - - ; *.8 k ^.B.k - ^.R.8 Y 8.k B.k { Y - k B.Y - - k B.- O - * - : f.; - * - ^.r 4 { U.{ * - f.k - k v.k v.k k 4 4 { { k ; ; ; & & + k 8.Y r - k ",
"; * Y 8.k - Y k { { - - & 8.{ k Y k k.k & - 4 { - ; & & * Y B.8.8.- - & & - ; 8.8.r - B.k 4 k r ; - # & ; 8.{ : * & & { B.r 4 k.k & - & ; O & * ; ; - Y - | { k { k k 8.8.Y ; { - k { k - - B.8.Y 8.k k 8.Y Y { B.k.k 8.8.& k k k f.8.| k.B.{ - * # - ; - * & : & & - { - ; - k { s - ; - - - k k k.v.{ k { | 4 8 B.r - r & r 8.* & - - - - * Y.& * ; & * & - - - Y 4 k - - k - - k *.k k ^.{ k - B.{ & k.B.{ B.k Y { k k f.k - k { R.- # - * ; { f.- * - * B.| 4 { B.k & - i.{ - r { 8 v.k 8 & r B.| k ; * ; & & & { i.k - - - ",
"; - k Y ; - k - { B.{ k * { { k k k 8.8 & r { k & ; * * - k B.8.8.- - & & - : ^.k 4 8 ^.P k r - 8 - # * ; : : : * & - { { 8 * k.k & & & - + & - : ; * 8.s 4 { k { { k 8.; { - ; - ; k k - - 8.8.; B.r k { 8.Y 8.B.k.8 U.{ 8 - ; - { k.k.{ { k - - & ; ; ; ; * f.- - - k k k - r k k - - * & * k k k.v.8.Y k.v.8 - v.k r k 4 k.B.* & * - - * & Y.* * * * & * : * * 8.r Y - - k & r k k k r U.{ k 8 v.k.8 { { k 8.8 { 8.8.k.^.Y & - k ].- & - * ; { 8.- * * * k.k 8 k B.k - r { Y - k k 8 B.k.k - r v.{ k - * - & & k { r 4 k - - ",
"k * Y ; ; - { k k k.k - & { { { k r k.r & - k k - : & * * ; U.f.w.Y - * & * k B.{ r 4 ^.{ k & & k * # & ; Y ; - * & * 8.k.k 8 { - = * & - & * - - : - Y * r { k B.8.; k { { - ; - ; { { - - B.B.k 8.8.Y Y { Y B._.v.{ B.{ - * k - { k 8.{ k k ; - # - - ; * & { & - k k ; k k r k k * - * - & k 8.v.*.B.{ B.B.k k B.Y { k 4 k 8.& # & & & & & Y.& * ; - * & - & - { 4 k k Y Y * ; r k k - ^.B.k & { *.k { 8.- 8.Y k.k { { v.k - - 8.].- # - - ; { 8.; * & * { k 8 v.U.8.& - { k - k *.r { { k & k v.k.k * * ; & & - { { k 8 - k ",
"; - ; Y : ; k k k v.- ; - ^.{ r r k x.X.& - k 4 * : & * - ; f.f.f.Y * & & & - f.r k 8 v.k r k - - & # & ; ; ; - * * - { k.k 8 { k - - * * & * - ; - - Y & - *.8 8.{ { { { Y ; ; - k 8.Y { - B.B.{ f.8.{ k Y k /.].k r v.f.r - 8 8 8.Y { 8.k.{ { Y & * - ; * & , - - { - - 8.; 8 Y k - - k - & 8 { k.{ v.k k.{ 8 r B.Y k.k k k - & & - - * * * f.& & - * & & : - & { 4 8.r k Y - - k k - & ^.B.k & r k.4 k { k 8.k { k 8.k B.{ { Y { ].k # - - ; Y 8.; - & & { k 4 { U.{ & 4 { { k k { 8 i.k k & k.B.k.- ; * 8.& & - k k k - & ; ",
"- - ; ; k - { k { v.8 - - { k - *.Y v.{ & - - 8 - - & - - ; f.8.8.; - * & * - f.{ k Y ^.r k & & s - + * - 8.; ; & & - s k k 4 k.r - - & * # & ; ; * - ; * r { 8 { { 8.8.; Y ; ; ; ; ; k k - U.B.{ 8.8.8.{ 8.Y B.^.k k B.v.& - 8 - { k k.8.k.8.; ; # * - : * & : - - { ; k { - 8 { k - - ; - - k v.k.k.R.{ k.k 8 k { { k { k k - & & ; - * * & 8.& & * & * * : ; & - 8 { k k Y * & { k - r B.v.k & k { r { 8.{ B.{ 8.k.{ r f.8.- r k ].k # - - - 8.Y ; - * & 8.*.8 { B.r & 8 r { 8 Y Y Y f.{ 8 < k *.k ; k * 8.& & & r Y 8 - * k ",
"- - ; { k k k r { k.k k - 8.Y & ; { B.k.- * *.k - - O & * ; f.f.8.; - * @ & - 8.| 4 < B.r r & * k - & & - : ; Y * * - 8 { X.4 { 8.; - & - # & ; ; - - { 8 8 *.r { U.w.{ Y Y ; 8.Y Y k k - - 8.f.; { 8.{ { 8.{ { ^.k r 8.{ 8 k { k { k k R.{ { - * & * - : * & ; & & { 8.k - ; k B.8 - - - - - k k.*.B.v.Y { k & k k.Y { k.k { ; & # - * - & * f.* * ; * * & : - & Y 8 k ; - Y * - k { 8 ; v.k - & k k.| { { Y B.{ U.{ v.r 8.Y - & k ].- # * - - { Y ; * * - f.{ r { v.k & - 8.{ k { r k { k.k 8 Y B.4 - { - 8.- & - { 8.k & & k ",
"; - Y - ; k - 8 { { { { - i.8 4 k { ^.k.r 8 - r ; : & & & ; 8.U.8.; - * & * - f.{ = 4 v.k 4 k 8 * - # & ; : 8.: & & & 8 Y { 8 { 8.- - * - O * : : * * { - - k.k B.8.8.8.8.; ; 8.; ; { k - - k 8.- { 8.8.{ { k { ^.Y k.8.k.k - 8 8 Y | k B.k.{ - - # & - ; * & - & * 8.k k B.8.k 8.k - - - - * 8 k k.k.*.r { k & r *.Y k k r Y ; & & * ; * & * f.* * * * & & ; * * k 8 { k - k - - { ^.k k B.v.; & { { k k 8 k 8.k v.k { r 8.k * & k ^.Y & - ; - 8.8.* - - k { r 8 { B.r 4 k Y r k r 8 Y 8.8.Y 8 8.k 8 - - - f.- & & k { k r - - ",
"- - k ; ; ; - r k k 8.8.r 8.k k { { B.k - & r 8 & ; * & * - { f.8.; - & & * ; /.{ 2 4 v.r 4 k 8 - - # & ; Y Y : & * & r { k k B.k - - & - O - , ; - * : - 8 *.k { 8.8.8.k ; - 8.; r - { 8 r Y { - Y { B.8.8.k { ^.{ | v.B.{ - - k k { *.^.B.Y k - # & - Y - - ; & - { Y Y 8.; 8 Y ; k k - - 8 8 8.*.*.8.r k *.4 8 B.{ { *.- - ; & - - - - & & 8.* * ; * & & , - & - - { k - ; * - { B.k { ].v.; * k k k.- k k 8.k 8.k k 8 { k - & { _.- # - - ; 8.8.- * * - k k - Y v.k & r k k k 8 r ; Y { Y 8 { k.Y { ; ; , * & & 8 r k Y - - ",
"- - k ; k ; k - k k k k k B.k.k v.v.8.{ k & r 8 - ; & @ & ; { f.f.: - * # & - 8.k.r r B.4 & - 8 - - & & ; ; ; Y & & - { { { k k.- - - * * O - : * - * , k - k.{ Y B.8.{ ; : ; { ; - - k - - Y { - Y Y 8.Y { k 8.^.{ k { 8.- - - { Y 8.k.B.k.k k * # * - : ; ; : & k f.8.Y { - r k - ; * - - - * k | k v.k k.{ - P v.Y { k - k - & ; { k - * * 8.& * ; - * & , - & ; k { Y k k * - 8.k 8 k ^.v.- * - { v.k | r { k B.k { - k.Y - - { B.- # - - ; w.8.- * & & k { k *.f.k & 8 k { k k ; r { { r k 8.^.*.k.8.- 8.; & & ; r k k * 8 ",
"- - : k k ; Y - k k.k - r U.Y k { k k Y k 4 4 8 - ; * + * Y 8.f.f.Y - * & + - { v.k k *.- & = & * - & & - ; ; ; & * * { k Y 8 k k & * & * & * ; - * * : - 8 *.k.Y 8.f.f.{ f.Y { ; Y ; k & & Y w.; Y k ; Y Y k f.v.k.{ v.8.& * 8 k k { B.].B.k - * O - ; Y - ; ; & - Y 8.k { ; k k.8 - ; - - * - { { P B.X.B.v.* r v.k *.8 * 8 k & - 8.; - * * f.* * , * & * - & * { k { k Y ; * - 8.k.r k B.8.- & { 8.k.{ { k k.k B.k B.8 { { k & r _.k # - ; ; f.8.* * & * Y { k *.B.k & - { { 8 { - 8 8.v.- - v.v.{ k Y & : ; & & 8 k k k & ; ",
"- - Y { Y - - - - Y 8.k * 8.{ k { k k Y r & P 8 - ; * * * - ; f.w.Y - * & & * 8.k.& 8 k.r 4 r 8 * & & & ; : ; - * * - { *.k.r *.v.- & * * & - ; ; - * ; & & k.r k B.{ 8.Y 8.k : ; { ; - & - k 8.Y { Y Y { Y r x.^.Y k 8.k.- r 8 k 8.^.U.].B.k & - # ; - ; & - - # & * - ; { ; 8 8.k k ; - & * - k X.v.^.*.B.k.- 8 *.- k.v.8 - k * - { - * - - ^.& * , * & * - * * ; k { 8.{ k * - Y B.8 - v.{ Y * 8.8.*.r k Y 8.k ^.Y ^.k k k - 8 { ^.- # * - Y f.f.* * & * 8 k k { /.k & k { 8.k k 8 r k B.k * k B.*.k k & : - & & 8 k ; k - k ",
"- - ; 8.Y ; & - 8 k 8.k - B.Y *.k k k Y { 4 X.8 ; : & & * - ; i.f.8.; & # * * 8.8.4 r B.< & r & 8 - & & * : ; ; * - - { *.Y 4 k.{ - & * - & ; : & & - : & & B.k k B.{ 8.Y 8.k 8.k k { - - 8 { w.{ k k 8.k k 8 { ^.8.| k.8.k - 4 k { v.{ ^.{ k - & @ - - Y & * ; O * - ; r f.- 8 8.; Y { ; - * 8 { k.k { k U.{ & 4 k - { B.r k - * - Y - * - 8 Y.& - f.- * * ; & * ; Y v.k ; ; - - 8.B.4 k ^.8.; & ; k k { 8 r { 8 { 8._.{ k Y - & k ^.- O - ; Y Y.w.- * * * k k k k U.{ & - 8.8.k * - k k 8.k 8 { v.k.k k & ; ; & - - k.k Y - k ",
"; - ; 8.; - - - r k 8 { k B.k { { k k *.| - - 8 Y : & & * - ; i.f.Y ; & & * * B.8.- 8 B.r 2 & & - * & # - Y ; - & - r k.k k k { { & & & - * - , - * * , - - ^.{ 8 B.k 8.; 8.Y { ; Y k - - - 8.8.k 8.{ Y - k Y B.^.k.v.v.k k - - k k v.B._.*.k - * & ; - Y & & ; # * ; Y - f.- 4 k 8 k k k - - & 8.8.k { *.B.v.8 k { 4 k k.- r & & - - - - k - B.* - - * * & : * & ; k { k - ; - - k ^.8 r ^.k - & { { k.4 k 8 k 8 k.B._.4 Y k & & k _.8 O - ; Y f.w.; - - * - k 4 { ^.{ & & 8.8.8 - - 8 k Y k k v.*.{ k.{ * , ; & & - v.*.k & ; ",
"; ; ; { k Y Y - r Y r k { 8.r k { k { *.k 8 k - - - # & - ; k 8.f.{ - * & & * i.k & r k.= 2 = - s - # & - : ; - * - * 8.Y k Y k.k - - & - & * , - - * : * & k.k - 8.Y 8.; { k { Y ; - k - - k { k { Y 8.{ - k { { k.{ k.r - - k 8.{ 8.k._.B.8.- & & ; - ; & & : # - ; - - f.- 8 k - k Y ; - - - { v.k k.Y U.B.8 k { 8 { k.- Y - & ; ; k s - - ^.- * - * & & ; - & ; 8 { k ; Y - - Y v.k { ^.k & & k { v.{ { 8 k k k.B./.k 8.k - & k }.k O - ; ; f.8.* * - - - r 4 { /.8.- 4 { { k { k 8 k { 8 k k.v.4 k.r & 8.; & - - k r - & k ",
"- ; ; ; - k Y ; - k Y r k U.Y { r r k *.r r *.8 - - # & - - ; 8.f.Y ; * & # & f.{ & 8 k.4 2 - 4 8 - # & - : ; ; - ; 4 B.*.k k k k - & & - & & : - - & - ; r B.- r 8.{ { - Y k : Y ; ; k - - k { ; Y { w.8.k k B.B.v.{ U.k k Y 8 { 8.8.{ v.{ - & & * ; - ; * - : O * { ; - f.- k k - ; - - - 8 s B.k { B.Y 8.B.8 r v.r { k - { & & ; k k - - - B.; * ; - & & ; & & * k v.{ k k & - k ).k *._.k - & - 8.k.B.| - k 8 { B./.i.{ Y - & - ^.- & ; ; : f.8.* * - - - k k { _.k & r k k k { k - - 8.s r v.^.k Y - & w.- & ; k { 8 - & ; ",
"- ; ; ; k ; - - k 8 k k { B.k { k r k *.k 4 { 8 - - # & - - k 8.B.{ : * & & * k 8.- 8 k & r - - k ; + * * ; : - - k - k.k Y r k k - * & - & * , * - - : - ; B.k - 8.{ 8.- Y : { { k - Y 8 r k 8.- 8.8.8.{ : 8.U.U.v.r v.k 4 - & k Y 8.k k.{ - & & & - * Y - ; ; O * ; - - Y - k k - - ; ; 8 8 - B.B.B.].8.k.v.8 8 k.k k k.- r & & * - Y - - * B.Y - 8.* & & ; & & - k ^.{ k ; * 8 { B.k { B.; k & k { { v.8.k k 8 B.k.^.{ { { r & - ^.Y & - ; k f.f.* * & & - k k 8.U.8 & 8 { k Y k - Y - k k { v.B.k { - & 8.; & - k *.k 4 & - ",
"- - ; ; Y - - - k 8 k 8 k B.8 r r 8 { Y k 4 r - - & & & * - ; Y f.8.Y * * & - B.v.4 r k r 8 - * - - # # & - ; - - r 8 { Y k.{ 8 k 8 - @ * * ; f.- * * : - | /.k - B.f.8.; { { Y 8.{ k ; - k k w.k ; { 8.Y ; k B.B.k k v.k r & & k { B.{ ^.k.- & & * - - : & - ; X ; ; { 8 k - 8 - 8 - ; ; k - 8 { { { ].{ B.*.- r 8.k k { - r & & - & - - k - B.k * : * & & : * * : { v.{ ; ; - - 8.^.Y k B.8.k & k { { { ^.{ - 8 v.k.B.r k 8.- & - _.Y & - : Y 8.f.& & & & - k 8 k v.r & & k *.r 8 8 k { Y 8 k B.k.& { & * , ; & - - k.& r & - ",
"; k Y 8.Y ; Y - { k Y & - B.Y 8 8 8 4 k k 4 k - - - * & & & ; { f.Y ; - * & * 8.{ 1 8 k k 4 & 8 - - & & * : > ; - - k k Y k.k k *.- & & - * - , - - * * - & ^.k.{ U.8.{ - { Y 8.8.w.; - - - k 8.Y { Y { Y - - B.U.8.k R.k r & = { { ^.*._.v.; - * & - - ; - : ; X ; 8.k - { * 8 8 - ; - k k 8 8 k r k ^.Y k.k.8 k k 8 k.k.& - ; & Y k Y - - 8 B.8 * ; ; & & ; * ; : k B.{ s Y - - 8.^.Y r B.- - & r k k r v.r 4 8 B.v.^.4 Y Y 8 & r R.8 # - : Y 8.f.* * & & & k - { ^.k r r k.k.k { 4 { { k - 8 { ^.r k & & ; - & - - *.8 { - - ",
"- ; - { ; k Y k Y k r & Y 8.Y *.{ Y P P { - r - * ; - & & & : { U.Y ; * & # & { i.& *.*.k - & 4 - - & & * -.; ; ; - - k Y { k.k.r & & & * & * 8.* * * - k { _.k Y B.8.8.- Y { 8.8.Y - - - - { Y ; { { 8.8.s { { 8.Y { B.4 - & 4 { k B.k B.8.- - * & - - ; - Y - O : 8.8.; 8.- 4 k - k - - - - 8 k r 8 { Y Y k.8 8 v.k *.Y - { ; # - Y v.k 8 - B.8 - { ; * & ; * - - k ^.{ k Y - - k ^.- 8 B.- ; - r k k k.k.r r 8 { v.k.4 r { Y - k _.8 # - k { B.U.& & & & & - 8 *.B.8 8 * { k k { k k { { - r v.^.{ k.- - : { * - - Y 8 i.k - ",
"- ; - 8.; k Y ; Y 8 8 & k 8.8 *.B.*.{ k k 4 - - - - * # & - ; 8./.Y - - & + & k { & r r 4 4 - 8 * - * & * -.; ; - - 8 k Y k.B.8.k - & & - & ; 8.* - * - ; k ].Y 8 B.; { - 8.{ { { 8.; - & k f.B.k Y 8.w.{ Y k { { Y k.].k - - k { r B.k v.{ - - & & ; ; : * ; - # : ; ; - 8.* - k - - - k - - s k.r { v.k k.k.4 - 4 k k Y k i.- & { k { 8 8 8 ^.k - ; ; & & ; & & * ; k.{ k ; - 8 Y ^.k 4 B.- & 4 { *.k r k.P 4 8 { *.^.4 k { Y - 8.{.k & ; { Y f.f.& & & & - - 4 k v.4 - & { k k Y k Y { k - 8 v.k.r B.{ - : ; * & - *.8 { & & ",
"- - ; f.Y k { k k k k - { 8.{ k.{ k r k *.4 - k - - & # & * ; { ^.Y - & & & * Y { & 4 k 4 - k * * & & & ; : ; ; : Y k Y k 8.{ r 8.- & & ; & - ; & * - - Y - ^.k.k 8.{ k ; Y ; Y Y { 8.k - - 8.8.; { Y 8.- ; Y 8.8.8.k ^.k 8 8 - k.- { { B.{ - * * & 8.; : - ; - # - - - - 8.* 8 k - - - k - - k { r *.k.k { v.k 4 8 k r k k Y k & Y k { - 8 8 B.Y - Y ; * & Y & & * - /.v.k - - k { _.Y k 8.- & 4 k P | { B.*.- 8 8.{ ^.k k.8.k & - ].8 O - Y { B.w.* $ & & * * - *.^.k 4 4 B.*.k k Y - 8.{ 8 { k.^.{ 8.k * ; : * & - k.4 r & * ",
"- - - { Y Y { ; k k k - - 8.8 k B.v.r r k.k k 8 - - * # & - - { /.8.; * & & * k i.& & k r & 8 8 * - & & ; 8.; * - k k r 8 8.{ k { - - & - & : f.- - - - ; - ^.k.k { 8.k - Y { 8.8.k ; ; ; - 8.B.; Y Y 8.; - { { { Y 8 B.8 - - 4 { 4 { Y R.8.; - - * : ; { - ; * # ; - ; - Y & 8 4 - k - Y & - k B.B.{ { k { k 4 4 k.k Y Y - 8.- & { k Y - k 8 8.; - ; ; * & ; & & & * _.k k ; - - Y _.k 8 8.- & & r *.r k *.k.k k k.B.k.r k 8.{ * ; _.k # ; 8.8.f.8.- & * & * 8 8 Y B.8 & & { { { 8.k k 8.8.8 8 { 8.r { f.- ; 8.; ; k { r { - - ",
"- - ; k ; ; - Y Y k r & 8 8.k r B.{ k k r 8 k - & Y - * & - ; Y ^.{ ; * & * * - k & & k k 4 8 r - k - * & ; ; - * - 8 k k B.8.{ k ; & & - & - Y.; - * ; & k ^.{ 8 k f.{ - 8.Y 8.{ ; ; k - k B.f.k Y Y 8.Y k { B.{ 8.| B.r - - k v.k 8.k B.Y - & * - - - { - - - # : : ; * Y & 8 k k k Y k - * k B.*.k { k Y v.4 & k k k *.- 8.; + k { k 8 k 8 k.k - - ; & # ; * * * * ^.Y k ; - - { _.k & 8.- - & r k *.k { k r 8 B.k.B.k 8 k k - k _.k & Y 8.Y f.8.* & & & & - * *.k.8 4 4 k k k k k { 8.{ - - { v.4 Y k - 8.Y - - 8 { k B.k - ",
"- ; ; Y k Y k Y k k k - - 8.8 r k.k 8 8 r & k 8 - ; * * * ; ; k U.Y ; * & - ; { k & 8 8 k 4 8 r - - - * * ; - - k r k Y k 8.k Y k - * & * * ; ^.k * - : & ; B.r 4 8.^.8.Y 8.k { Y k k Y Y r 8.8.- - : 8.k - k 8.; k.{ k.r 4 k k k.k | { ^.8.- - - - ; - ; - - - & , ; - - Y & 4 { k { - ; - * k B.{ k.{ k - v.r & k k { k.& Y * + k k { 8 { k k - * - ; & & ; & - * - ^.v.k ; - k { ^.k * 8.; k * 8 k k k { | k k k.B.^.*.8 Y k & k B.- O ; Y Y f.{ * & & & * * & k B.8 8 r { k { k k k { Y - - v.{ 4 *.k - ; ; & - k *.k { r - ",
"- ; - { ; Y { k { 8 - - k { - { v.k k k 4 & r 8 - - & & & - - Y ^.8.; - & & - 8.8.& 4 k { r 8 r - & & + * , ; - ; k 8 k 8 8.Y k k - & & * & : i.; * * : * - | r - B.B.B.Y f.8.8.8.8.k { ; ; B.Y - { 8.8.- - - 8.k { k B.k { Y k Y & i.{ v.k.k ; * * ; - ; - - - & : - ; * Y - - { { ; ; ; * - - 8.{ { B.k - k k r { k { k * { & + k *.k.r X.8 r 8 - - ; - # - - - & - ].B.k - - Y k ^.8 - 8.- 8 & ; r X.k.*.*.k 8 k.B.^.{ r k r - { ).- O : Y { f.8.* & # & - * - { ^.8 8 - | k { 8.k k 8.- 8 k { { r k.- ; Y k & - k *.- k - - ",
"- ; - Y ; k Y k k k - - - Y k k k k *.r r 8 k - & - & & & - - ; ^.8.; * & & & - { - 4 4 r w - k 8 8 - & - 8.; ; ; r 8 Y - Y Y k r r & # - * ; 8.- - - : ; & k r 4 i.{ ^.{ f.8.{ 8.Y ; Y k k B.8.Y ; { w.; - 8.8.Y k k B.4 r Y k v.- k k B.B.Y - * * - - - - - ; & : 8.; & k & k k Y Y Y ; - * 8 { { 8.v.k - - 8 8 k k k { - k & # v.{ ^.k k k k.k - ; - * # : - & & k _.8.Y k - { r k.k - 8.k k r r r k k.v.*.8 8 B.R.v.| k ; 8 - | _.- & - { { f.8.* & & & * * 8 8.^.8 4 r | r { k Y - { ; 8 - { 8.k k - ; { k - r Y k r { - - ",
"- ; - - - - ; k k k 8 k k B.{ r r k k 8 k { { - * - * & & - ; Y U.{ ; - * - * k f.- - 4 r r & Y * - * & * : ; : k r 8 k - 8.k - - Y - & - & ; { k ; ; 8.; - { k 8 k.8.U.k k Y Y Y { Y Y Y k B.f.- - Y f.8.; 8.8.Y { 8.B.4 - r k ^.{ k 8 v.Y - - * & ; * - - * ; & 8.: - & - * k { k ; Y Y * * - k k 8.v.8.k Y * & 8 Y k k - k * & 8.{ U.8 k k k.8 8 - - * # > - & & - R.Y Y - - { Y B.s - ; - r - k.r *.r k *.8 8 v.B.^.4 k k - - r B.- & : 8.8.B.f.; * * & * & 8 k { r r - 4 4 - r Y - { ; r k B.^.r k & ; ; k { 8.Y k.- 8.8 - ",
"- ; - ; - ; Y - & 8 k.{ { k.Y { k r Y 8 B.{ 8 - * - - * & - - Y B.8.- - * * & { { - 4 r v.k - k - Y * & & ; ; ; { k r - - B.{ 8 k k & & & & 8.8.8.; - ; * r { k k 8.B.8.k k k 8.8.k { 8.{ { ^.8.& - { 8.; ; 8.{ k Y { B.k 8 r { 8.k { k k.k.- ; & & - - ; - * * & : - - & ; & k | k - ; : & * 8 { k Y k.Y * k k & - 8 8.- k 8.& & B.v.^.r 8 8 { 8 - - - - & - & & & * U.{ Y - - 8.8./.- & : - - & v.B.v.*.k { 4 r B.^.^.k.{ 8.k * { ^.- & 8.8.8.f.f.- & * & * & * k { k k - k - 8 { 8 & r { { { 8.^.k { - ; ; f.{ k k k.8 B.k - ",
"; ; - - - Y k ; * k Y k k { k k.v.r k 8 *.k r * * ; ; & & - ; ; f.8.* - * & & k k & r k B.- 4 k - k & & & : : 8.Y - - Y s i.8.k Y Y & & * & { B.^.- & ; & - { k k 8.8.{ - ; ; 8.B.8.{ { { k ^.B.- - { { ; { 8.Y k X.k.B.r r { r *.k *.8 k.8.- - & & - ; ; ; ; - # - : - * - - { k k k ; k * * 8 k - { k.Y * Y Y - 8 k k.- - 8.& & 8.{ B.- 8 8 k - 4 & - - $ - & - * ; ^.{ { - - Y k B.8 & : & - & k k.k k k k - k _.v.B.{ v.k.k k { U.- # : Y 8.f.w.- & & & * & 8 { v.k - 8 k - Y Y k - k { k { k 8.*.k.8 - k 8.{ - 8 k r ^.r - ",
"- ; - - ; Y Y k - 8 8 - k Y *.v.B.r k 8 | k 8 - * k ; & * - ; ; f.8.- : * # & k k - k { { = - r & - * - * ; - ; k & k Y k B.8.k { { - & - * ; f.^.- & * ; 8.{ k k 8.f.Y - B.8.{ w.w.{ ; k 8 U.B.- ; { { - k 8.8.4 k B.{ 8 r { k { k k.Y - ; - & & & ; ; ; ; : * # : - - * - - k.{ 8 ; { Y - - ; k r k B.k & k - & & - Y ; - { * & k r v.- 8 8 k 4 - & ; ; & ; * ; ; Y _.i.Y ; - 8.8.k.k * Y & r & *.P *.{ k.Y r k R.k.*.r { { r k 8.B.k # ; Y 8.Y.w.; & & & * & s 8.8.8 4 r - - Y { k - ; k - k { v.*.k.r k - k k k k { r ^.k - ",
"& - - k Y 8.8.k - k 8 - k Y { v.B.r k r k { Y 8 * k * & * * ; k f.8.- ; & & & ; { * k - k k 4 k * - - - - : & - k - ; k k B.8.8 - 8.- & ; - 8.B.f.& & - - { { 4 4 { 8.8.- f.8.Y 8.{ ; Y Y 8 B.8.- - { k - ; 8.Y - k k.{ 4 - k k { r | { k k - - * - - ; - k - * # - * ; & * & r k k - w.8.- 8 - { r k v.k & - k - - r k k - { - & B.{ { 4 k 8 { k 8 - 8.; & - * * * k ^.k 8.- - 8.8.^.k & ; - r - *.4 { { B.B.r 8 { k.k { *.k.k & { k.- # ; { w.f.f.; & & * * & - { 8.& & 8 k r 8.U.{ - ; { * r { v.*.k.k ; - { k v.{ 8.k B.- & ",
"- - - k ; 8.Y k r k 8 - - k Y R.v.& 8 8 v.k r * & k * & * - ; Y f.8.& - & & & - { - r - k 4 8 k - k & & * : - - k - ; k 8 8.k k 8 { * & - ; { { i.- * - & k v.{ - B.i.8.k 8.Y Y { Y 8.Y r k ^.B.& & ; ; k Y B.{ - Y v.v.2 4 k k k.4 k.8.{ k - : * - ; ; ; ; - - $ - : - & * - 8 8 - - k { - - s { - { Y { - - - - - { { ; - { - & ^.k k 4 r k { k k - ; ; # & * ; * - B.k k - - 8.B.^.k & Y & - r ^.{ { v.B.k.k r *.{ k.k k.k.k & 8.B.- # : 8.f.f.8.- & & - ; * * k Y 8 & 8 k k k.i.k - k ; - r k { k.k.- & - i.{ k 8 { r B.r & ",
"- - - - ; 8.k ; r k k r r Y Y v.v.8 k 8 k.{ k * - - - * * ; - ; w.Y & ; & & & - k - - k | 4 - k * - & & & : ; ; { & 8 s 8 B.{ k - k & $ - * f.f.v.& - & + 8.B.*.8 B.f.v.s { { 8.f.8.{ Y Y { ^.8.& - ; Y { k { 8.k { k.B.- - k k B.r | 8.k.{ - - & * - ; - ; - * # ; : - & - - k { k - ; 8.- * 8 k k { *.k * ; ; & - k.{ k ; ; - & R.k k.& k k k 8 r & - - # * - - * ; B.8.8 - - k B.B.k & ; & 4 - R.{ r k k.{ k k v.B._.*.k.k.Y 8 | B.- & ; { f.U.8.- & & & ; & - ; { 8 & 4 * 8 8.k.k - 8.{ r k k { *.*.- ; k v.k { 8 { k ^.k - ",
"* - * - Y { 8.; - k k { - k { B.8.- v.k R.{ k * - k - - & - - ; 8.Y & - & * - - - & - 8 | | 4 k 8 & & & & : - Y r & 8 k k Y 8.Y k 8.* # - - f.B.v.- - * * k { k { B.8.Y - ; 8.{ w.8.{ { Y r 8.8.- { 8.Y k Y w.8.k k { { 4 r k.k v.k k.k { k - - # $ ; ; ; ; ; - & : - - & - - k v.k & { 8.* - r k k k.B.8 & ; k - & Y { k ; - - - ^.r { 4 k 8 { 8 k * k ; & * & - & - ^.| Y - - { 8.B.8 & Y - - & B.k { { | r - k { v.v.*.k r k - { ^.k & { 8.f.^.f.; * & & - & - 8.{ - & & < k { B.Y & { { { k k { v.Y - { { ^.{ { k { k B.k * ",
"* - - ; ; 8.8.k & k k { k k Y B.U.k k.8 k.k k - s - * * & - ; ; 8.k & & & & & : 8.& 4 4 r k 4 { 4 - ; & & ; * - 8 - - Y Y B.Y k 8 k & & ; - 8.B.v.k Y ; & 8.{ r k 8.8.8.k { { ; 8.{ Y Y k - B.8.- k k ; ; ; 8.8.k - Y k 4 k Y *.B.- v.8 - k & - $ & * : ; ; ; ; & , , - * - & k k 8 - { Y & * 8 - k *.k.k & 8.; - & k { { * - & * ^.k k 4 k - { k k 8 8 - & - - ; * - _.k { * ; { Y ^.8 & { & r 8 ^.{ { B.*.k - k | B.*.{ *.Y { - k v.- & : 8.f.U.f.; & & - ; & * 8.- & & 4 8 k 8.U.8.& r k { k { { 8.k.Y 8.k k.*.*.k B.{ *.8 & ",
"& ; - ; ; f.8.Y - 8 k r k { { B.B.k *.4 v.k.Y - 8 Y ; & + - - Y { - & & & & @ : k & - 8 k k & k * - ; * * - * - 4 & - 8.{ f.f.8 4 s * * : & 8.8.{ k - ; & { k.r 8 { 8.B.k f.8.; f.8.8.Y Y k B.8.k k k ; ; ; 8.8.8 k k.k & r k 8.^.{ v.r - 8 - ; $ * - : ; - ; - & : : * - - - - { k ; k Y * - - k r { k.Y & : ; & ; k Y { * { * & { r k 4 8 8 | r 8 4 - - & - - : - - ^.8 Y - ; 8.8.8.k & 8.& & - v.k { B.8.{ k *.v._.k.k k k { r k *.- & ; { i.B.8.k & - * - * k { 8 & & 8 8 8 k.^.k.- - ; r k { B.v.k.k k ; { v.B.r | k.B.k & ",
"* ; - ; ; { 8.- - - 8 k - k k v./.8 k * k.{ k & & - ; - & - - ; Y - & & & & # - - * r k ).{ 8 { - & - * & ; - ; k & & Y Y ^.B.8 r ; & - ; - { { v.k - & & f.i.k - B.B.8.* 8.{ Y 8.f.8.Y { r B.i.k Y 8.; Y ; 8.8.k k k.v.- 4 k.k.v.k | k & - - - & - - : 8.; - - & ; - - * & * k { 8 - k Y & * - k r k k.k & - - * - Y 8.8.- ; & & *.k k * 8 - { k k & - - & ; - ; ; Y ^.k { - - 8.B.B.8 & { & & 4 k r B.k.v.k r Y v.).k 8 k k k - B./.k & ; 8.f.^.f.Y - - * ; & 8 k.k & & 8 r r k B.Y & k - 8 k k { { *.k ; - { { v.4 - r i.v.& ",
"- - - - ; { { Y - - r k k k k { ^.r k 8 v.k 8 - & - ; * & * - ; k - & & & & + & - - 8 8 B.B.{ { 8 ; & * & - & k Y - & k k f.k.8 k k & * : 8.f.k.k.k - & & U.v.k - k.i.k - 8.Y k 8.{ 8.k Y { B.8.- ; 8.; ; Y k Y - Y 8.v.& 8 { B.^.- k k - * & ; + - Y : 8.; - * & : ; ; * # - ; k - - Y Y * - 8 - k v.B.Y & - - - & ; ^.8.Y ; & & { k.*.4 k r r { { 4 4 r & ; ; ; * - v.= k - - f.B.B.k & 8.& k r ^.r v.{ { 8.4 k v.^.k 8 k r k 8 B.^.- $ ; 8.f.^.f.{ - - - - & 8 v.8 & & 8 r - { 8.{ - r - r k { k { k Y - k { k.r r r 4 v.{ & ",
"- - - - ; 8.8.k - 8 8 k Y { k k.B.r { 8 v.- k 8 - k - & & & - ; ; * & * & - @ - ; - k r v.*.k k * ; & & & ; - Y r & * Y Y /.8.8 4 s & & ; ; B.B.k.{ ; - * { { r 8 B./.Y * Y Y ; 8.8.8.k Y 8.U.{ & ; Y ; k k { Y - k { B.r r k { B.r r 8 & & ; 8.& - - ; : : ; - * ; - - & & * ; v.- * k Y - - k k k 8.{ k + - ; - ; k U.f.{ ; & & k k k - { k 4 { { & k & & ; ; * * - /.8 Y Y - { 8.B.k & 8.- k k { k { *.8 r - Y B._.*.- 8 k { 8 { ^.- & - Y f./.U.Y * * ; * & k { k & & 1 4 - { B.{ - k - k k { { { k k k r v.k r Y k | B.{ * ",
"* k - Y Y 8.Y k - 8 - - k 8.k k 8.8 k 8 k { k 8 ; ; ; & & & - - ; * & & & - & - - - Y r B.k 4 Y * k * & & ; * 8 & & * Y Y U.8.8 8 ; & * : ; { { k.r - - & ; B.k k U.i.{ - 8.8.{ f.f.Y Y k Y B.8.- - ; ; - k 8.{ k k 8.B.8 4 k B._.r Y ; 4 - Y 8.& * * - : : ; - * ; - * & & * ; { k - Y { - s 8 k 8 i.k k & ; ; - - { 8.{ ; Y & & k *.8 & k.k r r k 4 r - & - - - * Y ^.r 8.k - : { ^.{ * ; & r k k.k *.v.r { 4 Y *.v.*.4 k 8 Y - k B.- & ; Y f./.Y.Y * & - * & Y B.k & * 4 k k B.k.Y - k r - - v.{ k 8 k - - k k.k k { *.B.Y & ",
"& ; - ; ; 8.8.Y & 8 4 r - { Y *.{ 4 r - k k.k 8 k 8 Y & # & - - ; * & * & * * ; ; s k - { *.k Y * - & - & - & k & = - 8.8.B.B.k 4 - # * : ; Y U.^.r 8 & & k v.8 k B.B.k - 8.Y { Y.8.Y 8.Y ; 8.8.- - 8.- - k w.Y k 8.U.*.* - k 8._.8 r k k k ; { & & * - ; ; ; & * : - & * & - - 4 8.8 ; 8.; k - 8 8 k.k 8 & : ; - - w.B.{ k k & & r v.v.& 8 k { k { 4 4 * & - - ; * ; _.k k - - 8.8.U.*.* { & - k v.k k B.{ k r *.r k { 8 { 4 k k k U.8 & : 8.8./.^.; - * - * & { i.k & & 8 8 k k.i.8.& - ; - r { { { r ; * - 8 v.{ k { k B.{ & ",
"& ; - - - 8.8.Y k - 8 k - { { v./.- k 8 k k k.k k & * - + & ; - ; - & & & & & : ; - k r k.k.k { - * & * & - & - 8 8 - 8.{ U.B.8 & - # * , ; B.v.^.4 8 * & { { k 4 { B.8.& Y Y ; w.U.U.Y Y Y 8.{ & - 8.- ; Y 8.8.Y Y B.B.* 4 Y { /.r { { r * * ; # & * - : - - * * - - & * * & * | Y ; - Y - - 8 8 - *.k 4 & - - k ; 8.f.B.8.i.& & 8 { k.- Y r 8 { k * 4 & & - - ; * - ^.k { - - Y v.U.s & B.- { k R.k k i.8.| 8 k k B.{ k Y 8 { { v.B.* # ; 8.8./.^.8.- - - ; * *.8.- & & 4 4 - k B.B.k r 8 r k Y { k.X.k - - k { *.{ v.r k { * ",
"* k - ; ; 8.{ k - 8 8 8.{ k.4 v.B.k k 8 *.*.B.Y & * - - & & ; ; ; * @ & * - & - - & * 8 { { r { 8 - & * # * * k 4 - - Y Y U.x.8 4 - & * ; k k B.B.- - - & 8.- 8 = { ^.k & Y 8.Y 8.^.U.{ 8.8.B.{ - ; w.- - Y 8.Y - k k v.4 8 k { _.{ B.8.* & - ; # & - ; Y ; - - * ; - * & * & ; v.Y k k Y k 8 8 - - { k 4 & & * - - { 8.i.8.- & & r { k - k k k 8.8.- 4 & & ; - ; ; - v.k ; - - f.B.v.k & Y * k { ^.{ k.B.k 8 = Y { ^.{ - k k v.k 8.k.8 & ; 8.8._./.8.- - : - * k r - & & 4 r k { v.{ r r ; { { B.r { k f.k 4 k { 8.k.k = { { - ",
"- - - - ; 8.{ Y - 8 r { 8.{ r Y i.{ k 4 _.k.B.r 8 k Y & * * ; - ; - & & * - & ; - - * - { r r k * k & * # * - { 4 - - Y 8.B.8.8 4 - & ; ; k { v.v.- k - & f.8.- & { /.8.& 8.Y - 8.f.8.Y { Y 8.Y & ; f.; Y Y 8.{ - { x.8.- - { B.].= k { 8 - - : # - & - : ; - ; - : - * & - - - k.{ k s k - 8 - - r k Y k & & & - - ; 8.Y Y ; & & 8 B.v.8 { 8 r Y 8.& k & - ; - - * - v.- k - - k B.k.*.& k & *.{ v.r k v.k.k - 8 r ^.k & 8 8 { r { 8.k & ; 8.f.`./.8.- - ; - * *.k - & & & 4 8 k B.{ k - - { v.B.| k 8 v.Y 8 *.B.B.{ { r B.k - ",
"* * - & : Y.Y - - - k k { Y 8 k.B.k k.1 { 4 { r - { Y - & & ; ; ; * & & & * & - * - - - k k r k * r & - & - * { r 8 k 8.8./.B.k 4 * # - - 8.^.k.*.r - * & 8.{ 8 & k U.{ & 8.{ k 8.{ Y Y k { B.{ - ; { ; Y ; Y 8.k 8.B.B.4 - k B.^.- { Y r - - ; & - * ; : - - - & : - * * * * & { k - 8 Y - - - - - r k 8 & - * - - k U.Y k ; & & 4 k *.& k k k { k 8 | 8 - Y ; ; - - B.r ; ; - k k.B.r & k & k Y B.{ k ^.8.{ - - - B.k & - k B.{ | v.8 & ; 8.f.`./.8.; - : 8.* *.^.k * + 4 4 - B.U.k - & - 8 Y B.r *.8 8.k - 8 r k { { k ^.i.& ",
"- - - - ; f.8.; & - - k { k 8 k.^.{ *.4 8.r { = - k f.; & & Y ; ; - - & * & - - & * Y 8 k 8.8 8 & - & * & * - k.4 - - 8.8.U.k.k & - # * ; k ^.^.B.k & * * ; { s 8 8.B.{ & ; Y : 8.8.k Y k Y 8.Y - k 8.- - : { Y - { 8.B.Y k { k.^.- { k r ; - * # - * ; ; ; - & & ; * * - - ; - { k k - 8.- 8 k - 8 { Y k & - * - - U.v.k k k & & 8 k.r 4 k k 8.8.{ k { - & - - - * - B.; ; - - Y Y { { * { - r { *.{ k.v.{ - & 8 - v.Y - k 8 k.k k B.- & - : f.`./.8.- - > 8.- *.v.r * & 8 4 4 B.^.{ = & - - { { k { k i.{ r k { Y 8 - r ^.^.* ",
"& - - - Y f.f.Y - 8 k { 8.- k { B.Y 4 8 B.8 8 4 * & Y - * - : Y : * - & & - & - & * k k r k - 8 - 8 ; ; $ - - B.8 - - 8.w.B.k.8 8 - & ; Y k v.B.B.- ; * * : { - - { ^.{ & Y Y : 8.8.Y Y k Y 8.k - 8.8.- - Y f.{ - - k v.k k k.8.B.k k.8.- - ; ; & * * - : , ; & * - * * - - - - k.Y ; - Y - - - - k k *.*.& - & - k f.U.k k 8.& % r *.k 8 { 8 k 8.v.4 8 - - - - * - - ^.r { k ; k i.U.Y * { - { { 8.{ i.v.k & - - k { k - ; 8 k.k k B.k & - { f.{./.8.- - ; - & k k.- & & 4 4 k v./.v.8 - k Y k.*.k *.8 8.; - k *.8 8 8 & { v.& ",
"& - ; - : 8.8.k ; 8 Y 8.8.Y k k.B.- 4 r v.r k k 8 - ; - * * ; ; - * & & & - & ; & - Y k { k k k & k - - & & * Y r r - 8.w./.B.4 & & O : 8.{ v.{ *.& - - * { Y - r Y { k - i.{ ; f.{ { Y Y 8.B.8.* ; { * ; 8.U.8.; k B.8.8 r k k.8.k B.{ & & : : & * - - - ; ; - & ; ; * - & & - B.{ k ; Y k - - - k 8 { k & - * - - { ^.{ { k & % r k k 8 B.k 8 v.Y & 8 - - ; - * * * 8.- k ; ; ; i.^.r * { * 4 v.^.8.{ k k - & 8 { k k - 8 - k.k { 8.- & - 8.U.{./.Y.; ; ; ; * *.v.8 & & 8 8 k { B.{ 8 r k i.k.v.{ { k { - - { { 8 k { r k.{ & ",
"* - ; ; ; w.B.k - & Y ; { k k ^.^.k k - { k *.{ Y ; : ; * - ; - - & & * ; - & : & - 8 k k k 8 - * ; & - & - & k = - - Y 8./.B.s & * & ; : v.k.8.k.- & - & : { * & { 8.8.& Y { Y 8.8.8.; Y 8.{ Y * Y { - - : 8.Y - k 8.B.r - 8 i.i.r v.k.- & ; - # * * ; - - - * & : - & & & 8 - k.{ k k 8.k 8 - - k k k k & - - k * ; v.k k - & & 8 k.v.k k.r - Y k & 8 k Y ; ; - - * v.r { - - ; B.8.k - i.& k B.B.{ r v.k - - - i.{ 8 & - k k.k { { * & * Y U.`.`.f.: ; ; ; & *.v.k 4 & 8 k k { ^.8.r & - Y { { { R.Y { { 8 { { 8 k.v.{ B.v.- ",
"- k k - k 8.f.Y - - r k { 8 r B._.{ r - v.r k.k k k { - & * - * - * ; * - - - Y & & - k r B.k k & ; - - & - - k & & k Y 8././.k & * & ; Y k.v.k.v.8 = - * - k - & k.^.8.& k Y ; 8.{ 8.k k { { 8.- { { ; ; Y 8.Y - k { B.k - 8 { 8.r k { ; & - - # * & - - ; - & & ; * & & * 8 8 v.k k k Y - - - - k *.k k - : - B.- ; k.{ { *.& & k { k - k - r | k - 8 { k ; k & & - k.- { Y Y { 8.B.*.- Y * k U.v.8.k 8.{ { * - B.8.Y & - 8 { Y v.k.- & * 8.^.{.`.f.; - ; ; & { { k s & k k k k B.B.k - 8 r { { 8 v.k B.{ = k k k Y { { B.k.- ",
"- k - k ; { w.k - & - v.8.k k 8.v.k k k B.v.k.8 r - Y - & ; - * - # - - & r - : & - * - { ^.k { & k ; - & * * k = - Y { 8.^.U.8 & * & - 8.8 v.B.{ 4 r ; * - k - - v.B.{ * Y Y - 8.8.: Y Y Y 8.8.* - { ; - { 8.k - k { { k k k 8.^.r { { ; * - - & - * * * ; - & & Y - & - & k 4 { Y k - k * - - - k Y k k * - & 8.* k v.*.k.8.& & k k.B.| *.r 8 8.k 4 4 - k - - & & & 8.k k k ; { B.B.{ * - * r B.v.^.8.f.8.- - - { { { - - - v.k { B.; & ; 8.^.].`.f.; ; ; ; - *.*.r 4 * 8 k k k v.B.- & & { 8.k.k v.8 i.k k Y v.k.k r k k { & ",
"- - - ; ; 8.U.k * - 8 { { - - ^.U.8.*.k._.B.{ k 8 8 ; ; & * ; - * O & & & - ; ; # * k k { { 8 k & - & - & - * Y - - k Y x./.B.r 4 * & : 8.r k.B.8.& & - + - { - r 8.f.{ & { Y ; { 8.Y Y k Y k { - Y 8.- - { { Y - 8.B.{ 8 k - 8.^.B.8.k - * * * & - * - - : - & & Y ; & - & 8.4 B.8.Y - k - ; k - 8 { { 8 * - & 8.- r B.k *.k.* & 4 k k.r { k k { k 4 4 k r - - * * * ^.{ - - k { 8.{ k - - - r U./.^.k ^.Y - * Y { { k r ; - k r 8.{ - & - 8.^.{.`.U.Y ; ; ; - k v.- 4 & - k { r ^.B.* - - k { - 4 B.X.B.8.k.v.^.{ k r r { k.- ",
"- - - Y Y f.^.{ * 8 k 8.k 8 8 B.B.k k k { k r k - r 8.k & * * - & + - - 8 - - - # & - ; ; { 8 k & ; - & $ & & k.k r k Y B.].^.8 & * & ; Y k *.v.{ - & & # * { - k { U.8.- Y ; - Y w.8.Y Y 8.{ ; * 8.{ - - 8.w.k - Y { i.k r r 8.^.v.{ { ; & ; - # * * - - : : - * ; - & * & r & k.k.{ Y Y - - - r k { { r - - & Y k 8.B.k *.k & & 4 k.B.k k 8 - r k 8 k { - - Y - - - { { k - Y { k { { - ; - 4 B.B.8.- 8.Y - - Y { k 8 - 8 - { ; i.v.- & - 8.^.{.{.B.{ Y - - & Y v.8 8 & 8 { i.{ /.^.k & k v.*.k r { *.k k k k { - k k k k.v.- ",
"k ; 8.8.8.U.U.{ - 8 8 8.Y - 8 k.B.k k r k.*.r k - k 8.- * - - - & # - 8 8 k ; ; + * * - k { 8 8 * ; - * & & - { - & - { 8.^.U.8 4 * * ; k v.k.{ { 4 - - & & - - k { U.{ * - ; - { f.f.Y ; Y ; - & Y 8.- - 8.Y ; - k B.8.8 - k Y B.k.B.f.i.* , : & * * ; & ; - - * ; ; & & * *.4 *.Y k k Y - - k - k - k k - ; * 8.k { B.{ v.k & & 4 k.B.k k - - k.k & 4 k k - ; - * - { { k - { k { B.k - { & & { U.B.; { { - & - 8.| k - - * 8.4 B.; ; * & 8.^.`.{.U.{ Y - ; * *.*.k k - Y k.B.v._.).k - - { k.{ r { k { k 8 k *.- k 8 r B.v.8 ",
"k k ; ; { f./.Y - - r Y 8.8 4 | /.B.k { v.| r r - k 8.& - - - * * & { & - k r ; & & - - ; { - k * 8.{ * $ & * { - - ; k 8.B.B.k & & - : k P { { Y & & - & * Y - - k Y k - ; ; ; 8.8.8.Y Y Y - ; & - w.; - { 8.k - - { { r - k { U.U.B.8.w.- : : & & - ; - ; - & * ; - O & & { 4 k k { ; Y - - & & k r 8 k 8 ; * Y k k v.k.{ k & & - v.B.{ v.{ - B.B.- & r { - ; @ & * B.k ; - ; k { 8.k & ; & - v.B.U.Y { k - * k ^.k { - - * 8.- B.{ ; * & 8.^.{.{.^.8.Y - 8.- k { k *.8 8 k { *.].B.r & 8 { v.{ r r k ^.{ k Y { 8 k - r v.k - ",
"; - ; ; { f./.8.& - 4 { Y - k { ^.i.k k *.v.{ k 8 - { & * - - * * & 8.& & r k ; & ; - ; Y ^.8 - & ; Y ; & & & v.8 k k k 8.U.B.r & & ; , Y k k { k 8 - - & * 8.- - { { - - - { Y f.i.; ; Y Y k - & - 8.; - 8.f.Y - Y k { k - k 8.U.v.B.Y : * - - # & - - & ; - * & ; ; # & & k & k k { - ; - - - & - - 8 k * * & f.k 8.^.B.k.k & & & k /.k { { k v.Y = & r r - : & * - B.8.* & - ; k B.{ - k - r B.v.B.Y { { - * { B.k { - - - B.{ v.k ; & * 8.^.{.{./.8.: ; 8.8 k R.4 k & - k { *.].^.k & 4 k k.k k k { i.8.k k { k k ; - B.k - ",
"k - k k { 8.U.8.r - 8 { Y - { v.8.v.k r B.*.k k 4 & Y & * 8.; - * & ; r & k { Y & - * k { v.- k & - 8.- $ + & 8.- - k Y 8.^.k.8 & - - 8.Y - r Y r 8 - ; * - : * & { k k & ; k ; Y 8.{ Y k Y k - & ; ; - - w.8.- - 8 k { k - r 8.v.{ ^.Y k * : * & & - - & ; ; & * 8.- # & & r & r { { ; ; - k - - - r r 8 4 ; - B.k 8.B.{ k.{ * & & r U.r k.{ 4 { k - 8 4 - 8 ; * & & B.{ - - ; k 8.Y { - ; * - v.{ /.8.i.f.& & - { k 8.k 8 & v.k { { k & * 8./.{.`./.8.Y ; f.8 *.v.4 Y - - *.k.Y ^.B.k - - k k.k *.B.k { i.r Y { k k k - Y Y & ",
"k - k Y Y 8.f.{ - - r k ; - { B.^.8.r r { P r k r * k - & - - - - + - r & k { Y & - * k k { & { - k { - & & & Y 8 - k k x.{.B.& - - * : k k Y k.8 8 & - * - : - & - 8.k - - : ; ; 8.f.Y s k { ; & Y { - - 8.w.; - - { { k 4 k B.^.k B.B.: & , * & & ; ; * * - & - Y * # - & k & { k Y k ; ; - - & & { k r 4 * * i.k Y 8.| *.- * & r *.B.{ ^.{ k k k 4 r r k * ; - * & { k * - ; k 8.{ k - - & & 8.B.B.k k B.k - 8 8.; Y r ; * v.| { { - * - , ^.{.{.`.8.Y ; k Y k.k.8 { - 8 { v.Y B.B.k - 8 k { 8 k B.*.8.{ 4 k k 8 k { k k | - ",
"8 - k ; ; { ^.; - - Y k { 4 - B.v.{ = r B.r r 8 8 k ; - * * & & & & { k 4 k *.{ & ; - - k { 8 { & - Y - # & & 4 8 - k k w.].B.8 & & * : k r { k.{ k * * & & : k - k k k - - Y { ; { U.8.k ; 8.k & { : - - 8.8.; - Y { { 8 - k 8.{ k | ^.w.* , * $ $ ; ; & : ; * - ; * & 8 k | & { k { Y - 8 - - - k k 8 k 8 - * { k { k.v.{ k & & r v.B.r k.X.4 k k - 8 { r - Y & * - ^.{ - - ; - 8.{ k * - & 8 ^.B.8.Y k 8.- - - Y - Y r - & { k B.{ - * ; 8.^.{.`.`.8.; : 8.k v.^.8 k & - { k 8 ^.B.k - r { { r 8 k.{ *.k - Y k - - k k Y k - ",
"- * Y ; k w./.{ - & k k.8.8 4 B.^.i.- Y 8.r 4 k 8 - 8.- * - * - & & Y r & k r Y & : * 8.Y { 8 k & - - * & & & r - 8 - Y 8./.k.- + & * ; ; { k k k - & - & & - - k r Y { - - k ; ; 8.f.8.k { f.8.* Y { - - 8.8.- & Y { { k - 8 { k v.{ f.8.; : - # # - - & ; 8.; * ; - & k 8 k.- *.Y Y ; - - k - - { { k k 4 * & f.k k k.{ *.8 * & 4 *.{ | *.8 & 8 r r { { k - ; & & * U./.r * ; & k { { * * & 8 { { /.Y 8.f.- - k 8.- Y Y k & { k.^.8.k * * Y W.{.{.{.{ ; , f.k x.^.8 { & * 8.{ k ].^.k & 8 v.B.| = *.{ B.k r k k & k { - 8.{ k ",
"- & ; ; Y { /.8.; r Y 8.Y 8 8 k.f.f.k k { r 8 k - ; { - - ; - - ; & 8.8 4 r r k & ; - k k { - 8 & & ; & & & & k k - - { B.^.{ & + + - - ; { r k - 8 - * & & - - k k { { k Y 8.Y { { 8.Y Y Y Y - * Y ; & - 8.f.; * k { 8.{ k k { k { { { ; ; 8.; & & ; ; & : ; ; * - : & r 4 { 4 { { 8.- - - - 8 - - { { k 4 * & i.Y { k.{ { r < & 8 { k.8.*.8 & - k & *.{ r - - & & - ^.{ - ; - & 8.Y Y * & - r i.i.`.8.Y B.- - k f.k k r - & { k.^.k * * * 8.^.{.].{.8.; : i.r B.^.k k & & { B.k ].^.Y 8 8 R.B.k 4 { { B.8.k k k * k r r k k - ",
"; - k 8.{ 8./.{ { k v.B.Y * 4 B.B.{ 8 8.k.- & & - - 8.; - ; - * - & { 8 k 8 r k & ; - - Y f.- k - & ; & & & & r k r k { 8._.8.4 & & ; - k *.r Y k k k & & @ * - - 8 Y k ; k 8.Y - { Y Y Y ; 8.- & Y ; - * w.Y.- & ; k k { - Y k.k.{ v.f.: ; 8.- & & ; : & ; ; - - * ; & 4 2 Y r k { B.{ - * & - - - { k.B.8 * & v.Y { *.k.*.*.& & - r B.i.8.8 r { 8 % k r k - - - & * 8.8.Y { - - 8.k k & & & r ^.^.`.k - Y * - 8 B.Y 8 - - & k | v.k.- & & { /.{.].{.8.; : B.8 *.^.r { & * v.^.{ /.^.{ k { ^.B.k = { k.8.| k { k & & r 8 { k k ",
"Y & ; k k 8.U.Y k ; B.k.8.& 4 v.B.{ 8 B.B.Y & - 8 - 8.- ; ; * & & & k.r 8 r | k & - & k - ^.k r * & - * & - - 8 k k ; { 8.^.w.8 & * ; ; - { k Y - k r & & & * * - k 8.k & ; k ; ; 8.8.Y Y - k & & 8.8.; - 8.f.- - ; ; k Y - Y /.k.{ B.Y.w.- : - & + ; ; @ * : : - * & & 4 - { 8 k *.B.k k * - - r - r { v.8 & & 8.Y k *.v.*.k 8 & 8 k B.8.k.- 8 k 8 = k k { - ; * & & 8.k - Y - * - Y - & & & k f.^.^.; - Y & - - U.- 8 - 8 & r k v.B.; & - 8./.{.].}.w.: 8.^.k k ^.Y B.& & { *.k ^.^.k - k R._.8 & | k.{ { k *.{ - - { k k k k ",
"k * ; - - Y 8.{ ; k { { { - 8 v.^.B.r /._.{ 4 8 8 ; 8.& - ; - & & & k 8 r r *.{ & - * 8.& f.- - & & { - * - - 8 k k ; 8.8.B.{ r & & { ; - *.{ *.8 - k + & * * - k { { k - ; ; - k Y 8.{ Y - k k & 8.{ - - 8.f.; - Y Y { { & k B.v.Y { 8.w.& ; * & @ - ; @ - - - ; : : - * 8 8.- k Y B.k * - k 8 & k { k k.4 - * k k { *.X.v.*.s & - k B.v.v.8 - r 8 & k { k - ; & & * f.k & ; - - - k k & & & k B./.B.{ - Y - - - B.- k k Y # - - Y 8.- & - 8./.{.].{.f.Y 8.^.k k v.k B.& & k - r v.B.k r 8 k.B.8 8 k k.v.v.*.k.B.- 8 { 8.Y k k ",
"8.r k - - Y w.{ - - { 8.Y & - { ^.B.r B.v.{ k k 8 - - - * ; - * * * { r - r k { & ; * 8.; B.- k & & f.- * & & k 8 { - Y w.B.x.8 & * : - 8 | k k - - & - - * : ; - 8 k 8.k Y Y - ; Y k Y Y k k * & k ; ; - w.f.; - k k k 8.k Y { 8.v.*.B., & * - & & , ; + ; ; * ; ; 8.& - - k 8 k { U.Y * - ; 4 & k { k k.k & & { { k Y { { k.k % & 8 B.{ *.- - 8 k & r { { - { - & * U.{ & ; ; ; ; - k & & & r B.`.B.Y ; { - - - B.- Y - k + k ; k k & # * Y /.`.].{.w.; 8./.{ { B.Y _.8 - k k 8 B.^.8 4 k B.v.- - k X.B.*.{ { { r r 8.{ - k k ",
"k.- - k Y k { Y & - 8.{ 8.- 8 B./.U.& k { k - 4 8 { { ; - ; * * - r k.k - | k Y & ; & Y 8.^.- & & & ; - & + 4 k - { ; 8.8.^.k.- + & ; - 8 B.{ { k - & & & * ; ; k 8 { Y - ; 8.{ - Y { Y k Y { 8 & ; : - - 8.Y.Y - k 8.8.8.k k { Y { Y ^.w.- & * & # : ; # - ; & ; ; ; 8 r r k & - k B.{ - - s 8 & ; { k { k - * B.k.- r k k { 8 & & r R.k { 8 8 8 k - r *.8.- k - & & /.{ & k ; - k - k & & & { 8.B./.{ - { & - - f.- k - 8 & k - { Y * # & : /.`.].{.f.w.f._.*.{ ^.{ ^.8 & ; B.8 k.B.4 4 k v.B.r - { B.B.{ 8 k k * - k 8.Y { k ",
"8 & k ; ; k f.8.{ ; B.{ Y - k k.U.f.r 8.k.& & - 8 k ; & : ; & & * - { r 8 r r k # - * ; ; U.- - & & { & & & & k 8.8.Y 8.B.].B.r & & ; - k k.k k k k & & & & - - k r k Y 8 k Y k - Y { Y Y -.8.Y & k Y - - w.w.Y & - 8.{ { k k { 8.8.{ B.: - & * @ # : ; & - ; ; ; ; ; - 4 4 { & - *.U.{ - - ; - & k k { *.8 8 & { { 8.v.r r k s % 2 k B.k.k r 4 - r k 8.{ { - Y - & - f.8.& ; ; ; Y ; 8 & & - k B.B./.Y * { & - ; /.r k 4 r & k r v.{ - # & 8./.{.].{.w.w.Y.^.k X.B.k k.& & ; { 8 B.B.Y k *.B.v.8 r { k.B.*.k k r & 8 k k.8 - - ",
"k - k Y k Y f.Y k 8.v.k.Y k k B.{ Y 4 { | k & - 8 { - & ; : & & & 4 | r 8 | { { O - - k - ^.- - * - Y * & & & 8 k { - 8.{ /.8.| O & ; - k | k k 8 k 8 - & & - - ; k r k ; - ; k Y 8.Y 8.8.Y f.k * ; k - ; 8.8.; * - k k k 8 k 8.{ k k./.: - & & & # : ; - : : : ; ; k 4 - 8 8.- - { B.Y - - k 8 r Y r k k.- - * k 8.k k r | Y k & < k v.*.k - & 8 k r k.k k * ; - & - Y.k * ; - - ; Y { & & & r i.U./.8.- 8.- - - f.8.Y { { & k { B.8.* $ * 8./.{.`.{.f.8.8.^.k *./.k { - & { Y 8 B.B.k k { B.v.k r k.{ *.{ k 8 { - - Y B.k - - ",
"k - k ; - - 8.8.Y 8.B.8.{ 8 k B.B.i.& { B.{ - & 8 { - & ; : - * & 8 k 8 k B.k Y O - * ; ; /.Y - * & Y * & & 8 k { v.; k Y /.k.8 o & ; - k k { k k k k - + & * - ; r { Y k - - - ; k k { 8.- k - & Y Y ; ; 8.8.- & - { k Y 8 k Y k r k B.- & - & & & : : & : : > ; ; { k 4 k r * k k B.k & & k - k k { { k.k k * { 8.{ k r v.Y Y & < r k.k.v.4 1 * k k r k k - { ; * * : Y & - ; - - k ; & # * { U.^.U.{ - { - * - B.{ { v.k & - k 8.8.; & & 8./.{.].{.f.: { /.{ k B.*.R.- * k k & *.B.k { k.B.v.k r *.v.k.| r { { 8 * k f.k 8 k ",
"{ - k ; - - f.Y k k ^.k.8.- * k.Y ^.& B.i.{ - - 8 Y - & ; 8.& - & & k r r k 4 - + ; & { { `.Y & * & ; * * - 8 k 8.8.- k 8.U.k.r O * ; & k | { 8 k k 8 & & * & - ; r k { 8 k k ; Y k ; k Y - { - & { f.Y Y w.8.; - ; 8.{ { 8 Y k - r k U.; * - * & & > : & ; ; ; - - 8.k 8 8 k - k k U.8.& - 8 8 8 k { 8 *.{ k - Y Y k.8 r *.8 P & - k *.{ k.4 - & 8 - k = & 8 { - * * , { & ; - - ; - k & + & { U./.f.f.- { - - - B.k k r s & - { { 8.* $ * 8.^.{.].{.w.: 8.].Y { B.k B.* * ; k & k.B.r r k.B.B.8 & k { B.{ k *.v.- 8 B.k.8 - k ",
"r * k - - s f.8.Y k B.k Y & - { 8.Y.8 ^.k.k r ; 4 - { & : 8.& & - 8 { - 4 r r k & ; * f.Y ^.{ & & - ; * & - 8 { k { k k 8.^.{ r O & : & k { Y k Y { - & # & * - ; 4 r { - 8 Y k k -.k k Y k k * * 8.f.Y Y 8.8.- * ; Y 8.8.- s - k 8 { ^.: & - - & & Y - & - ; * ; ; { { 8 k 8.- k k ^.i.& - k 8 k Y 4 8 B.k r * B.{ { k 8 k r P * - k v.{ *.- * * k * { r - k 8.- & & , f.& { - * - Y ; & # - { 8.{ `.B.- i.; - - B.; Y 8 r & { ; k k * + & 8.^.`.`.}.f.8.8.v.Y v.B.k v.* & ; * & B.B.k k { k.k.* 4 k { v.v.{ *.{ - Y *.8.k r r ",
"k 8 { - - k 8.k k 8.B.k.8.- r v.{ 8.- ^.k & - 8 * { : * : , & & - = v.8 k { r r & ; - 8.- B.Y * * - - & * & r r { { Y k { ^.Y k # * : & k r { k r k - - + & - - - r r Y k k { - - 8.k Y Y - k 8 - 8.8.Y ; 8.Y.; - k k 8.8.8 - k r - { i.; * * ; $ $ ; - * ; - - 8.: Y 8 & - { 8 r k B.i.& - Y 8 & k k k B.*.k - B.8.v.*.k 4 k k & & r B.B.{ & & & 8 8 r k.; ; { - & & : Y & k - - - Y k & + - { 8.f.^.Y.& 8.; - k f.- Y k Y * - k k Y - # & 8.^.].`.{.f.8.8.{ *.B.8.k 8.- - ; r & B.8.8 { k.B.B.4 4 k.{ k.{ k *.8 - k k { k k k ",
"k k i.{ - Y 8.k k 8.{ { { k k { k ; - 8.k & - k * ; ; - - : * * 4 & *.8 k k.r - & ; * - - U.k & & - - * & - 8 8.f.U.Y { 8.].{ k # & { - k 8 k - - k & - & * * - k - r k k k Y k { k.Y { k - k - * Y 8.; ; 8.f.Y - ; Y w.8.8 8 { k - 8.f.- - & - # + , - @ * ; ; - - - 4 8 8 B.8 8 k 8.{ & - 8.- & ; k k { { { - { B.B.*.k r *.{ & & r { k B.4 4 - k r { { k - Y - & & /.8.O - ; - ; k k & + + k 8.B././.- f.& - k B.k k { { & & ; k k * & & 8.^.{.`.{.8.: 8.^.k k.v.Y v.- k f.; * B.{ 8 k.k { v.k r { k P k k k k & Y k k k k k ",
"{ k k Y - k B.Y { B.B.k { k k v.k 8.& { - - - 4 8 Y Y - - ; * - k - { - k k 4 Y + * & k - /.B.& + & ; - & & 4 Y 8.i.k 8.U._.{ k O & : - k k k k k 8 & & & * * - - - - k r k k k k 8.k k Y - k 8 & ; ; ; ; 8.8.: * - Y { 8.k Y 8.{ 8.B./.: ; - - # & : - & ; : * - - - r * k Y 8 { k ^.- & ; 8.- & { B.k { k k - *.B.8.r k 8 *.Y 1 4 k { k.B.r 8 & Y - k k.- 8 - * $ * /.B.& ; - & - - - $ O - 8.U.B.f.B.- w.- - Y Y ; k r k & k ; k - & # & 8./.`.`.{.8.: { B.B.U.^.{ B.8 - 8.; & B.k.r k.v.*.{ Y k { { *.*.8 k = 8 k 8.8.k k k.",
"8.- - ; - ; B.{ r { B.k 8.8 8 i.k 8.- { 8.k - 8 - k k & - : & - k r { - k k 4 8 # - & ; - U.B.* * * ; & & & - r { 8.; Y f.].k - X & : * 8 k 8.k k | - - & * & * ; 8 k k & k 8.k - k - Y k - Y - & { Y k k 8.w.k & - f.f.B.k k i.{ Y { /.; ; * - # & : : & : , ; - - { r - k k - k k U.r - k { - * - k.k Y 4 { k U.B.B.4 4 = Y { 8 8 P k.B.k 4 4 8 k & 8 8.& k ; - & * f.8.& - * - ; Y ; & & - 8.f.B.f.w.& B.k - - 8.k Y r Y & - - * Y & # - f./.`.`.`.8.: 8.^.k.^.^.Y ^.8 - - k & i.B.k k { { B.r 8 { { *.v.8 *.{ - - { 8.8 8 { ",
"{ - - - - s B.k - 8.^.k 8.r { B.{ f.- { v.r - & - Y k O - ; * - 8 r { 8 { 8.k - + & * ; - i.B.k * & - * & & 4 k 8.8.k 8.B.].k.- X * 8.- r k 8.8 Y k 8 & & * * - Y - r k r r Y 8 - k Y 8.Y k Y * & Y Y ; 8.8.8.; - - { 8.8.8 r { k 8 v.U.- - - - & # - : - : : - : Y { { - 4 k * k Y U.- & k 8.k 8 r { k k k { ; B.^.v.k 4 - k Y 1 < r v.B.r & 8 - 8 8 Y k k k - * & * Y.Y + k - - - ; { * & - i.i.f.^.U.- 8.- - k Y 8 k 4 k & & - k ; & & * 8./.`.`./.: - : B.v.B.B.{ B.8 & - - & B.v.r k B.{ B.8 { B.B.v.v.8 k.k k 8 k { k - k ",
"Y - - 8 - Y ^.Y k B.{ k { k k *.8 f.- k B.k - - - k { & - , - ; r r v.8 *.{ k 8 O - * 8.; 8.8.- * & ; * * * = k 8.8.Y B.U._.Y & # * , & k k 8.8 Y k 4 + & - & ; k - - k k k k k - Y k Y k k 8.- & Y k ; 8.8.f.; - Y Y ; Y 8 k k k k v.B.- * ; - # # : : & - ; * ; Y { k & & { * k 8 8.- & - 8.k 8 k 8.8.*.k B.- v.8.k Y - & k k & & 8 { { { 4 k 4 k Y Y { 8 - - - + & Q.B.- - - & - Y - & O - { 8.^.f.^.- Y k - k { - Y - k - & - k - & + - f./.].]./.8.; Y 8.{ _.^.k./.- - ; * & ^.U.k { k.k *.k k { k { B.- 8.{ 4 k { { k 8 { ",
"8.- - - * k B.Y k k.B.{ k - - k r Y ; { 8.k 8 r - - ; & : : - - 4 & v.8 Y r r k X ; * - : f.f.- & & - - * & 8 Y B.w.Y 8.B.].{ - # - - & { k k 8 Y 8 8 & & - & * ; 8 r { { k { { - Y k 8.s - Y - & k 8.- Y w.f.- - k k k Y ; k k 8.k *.^.- * { - # $ : ; - ; ; : ; { k r * & k - k 8 v.k & - { k - 8 k k k 8 8.8 { { k { 4 - P r * & 8 { v.{ = 8 r { k { i.k Y - - & & f.8.+ - - & & ; - & + - f.B.f.f.U.- w.& & Y B.k k k 8.8 - - Y ; * & * f./.{.{./.Y 8.w.U.{ ^.B.{ _.- & ; & & f.i.k { v.{ 8.8 - k k k k.r { k.8 k { k r r { ",
"8.- - k & ; 8.; 8 { 8.{ k - - *.- ; - r v.{ - ; - k k & ; : - k - - k.- k { 8 k & ; & ; k `.U.; & * - * & & - { 8.8.- { B./.Y - O * : k *.k - 8 Y 8 4 & & - & * - - - k.{ k 8.k - Y k 8.k - k k * k k - Y 8.B.; - Y k k Y k { { { k { 8.- * ; - # @ : 8.& - ; - : 8.v.{ * - 8.- 4 r B.8.+ - { 8 - k 8.k *.k { 8 k 8.B.Y r 4 P k.4 - 8 *.k { & 8 r k 4 Y B.8.Y ; * & & : 8.& ; ; - - - * & O - k 8.B.^./.- f.* & Y { ; k 8.v.* - ; Y ; & & & i./.`.{./.8.8.w.v.k.^.^.Y ^.4 - { & & i.k 8 k { { i.4 - k k k k - k.{ - Y 8.Y k 4 k ",
"k - ; - & k 8.k ; 8.8.k k * r ^.k Y k B.B.k r - * - - * , : & - r r 8.- Y { 8 8 & : & : ^.`.i.* & * - * & & - Y { { ; k 8./.k - # - : * r k k - k k & * & - * ; - k k r { k 8.{ - Y k { k - r r & ; k - Y Y w.- * k k { k 8 Y { { k k 8.& * - * # & ; : & - - - 8.B.k.k.k k B.- 8 k ^.k & - { r r r Y r r r k.k 8.8.B.k.k k k *.4 - 8 v.B.k.- 8 - r - k k.k k - & * & , 8.& ; 8.; - - * & O - { 8.f.^.U.- 8.k & k k - k { { & & k { ; & & & 8.^.{.{./.8.- 8.k.{ B.^.B.^.= 8 r & & 8.Y k *.*.k v.- 4 k.B.Y k.k B.{ 8 k { k r r B.",
"{ - k - & Y { k k f.^.r r * r v.8 Y - k B.f.k { - - ; & f.: ; - 8 k { - { k.{ - X : @ - i.U.8.* * - & & & - k Y { 8.k { U.].{ * O - : - r - Y k r r 4 & & - & - - - k *.{ k k Y k k Y Y k 8 k * * k k - ; 8.w.{ - - - Y Y k k { { k *.8.* ; ; - O & - ; - - ; - 8.8.v.k 8 8 8.8 8 8 ^.k & - w.r - k { k 8 4 v.k U.{ v.r r 8 k 8 4 & - *.{ { - 8 - Y k { { { k * * * * Y.- & ; : * * - & & O ; { Y ^././.- { - - ; ; - Y i.v.4 & - Y - * & & 8.^.{.}./.8.- Y ^.k.B.^.8._.& 4 r + * 8.Y r k.^.Y k * 8 { { { *.- v.B.- 8.{ k - - B.",
"{ r r - * Y w.k k B.^.8 { k r v.- 8.- ; k 8.- { 8 - ; + ; ; ; r r - k - Y { - 8 X ; * ; f.w.8.& & * - * & & 8 ; { 8.Y f./.^.k - X - f.k k - 8.8 k - 4 - & - & * * - k { k k k k Y Y k k s - Y k & - Y - ; 8.w.Y ; { k Y k k Y i.{ k *.8.& - : ; O & ; : - ; : * , B.v.k - - { - r 8 B.Y & ; ^.r - Y { r k 8 B.{ 8.{ | 8 r 4 k { 8 & 8 *.v.r & r - k & k k { k - - & * Y.- & ; - & & ; - * + - 8.f.^./.`.; { * * k k * Y 8.8.& & - - - & & * 8.^.{.{.U.8.- 8.B.{ ]./.B./.4 8 ; & * ^.k k *.^.k { 8 k { *.{ *.- k v.4 { B.k 8 8 k.",
"B.k - - * k f.Y ; 8./.k k k r k.- : - { k Y k { k - k + - : k r 8 k { - 8.i.4 4 + - * - { 8.: - & * & * & & - k { B.{ Y /./.k - O * 8.- k k { - 8 - 4 & & - & & & - 8 k r k 8.8.k k - k s - k 8 & ; ; - ; 8.8.- - k k 8.8.Y 8.B.U.k.*.8.* - - - O # > : * ; - & { k.B.{ - k i.- - - { Y - Y B.{ r { k k { 8 R.{ 8.k.k k r & *.B.4 & r ^.k.r 4 8 & k - 8 k - k - ; * * 8.- & - ; & & ; Y - & ; k { 8.f./.- f.- & Y k - k { B.- & - - & & & * 8.^.].{.f.: - Y.^.v.^./.B._.r 8 r & * f.k.k { B.{ Y 8 k 8.k k.P 4 *.| k 8.8.Y 8 8 { ",
"{ { ; & - k 8.k k B.^.k k { k *.8 ; - i.k { Y k - - - & - ; - - 4 ; Y - Y k 8 4 & - & & - U.Y - & & - & & - * - 8.{ - 8.^.].{ k & : W.- 8 r { - k - 4 - & - & & & - - { k 8 8.8.k s - k 8 - r k - k { - Y { f.; - ; k { Y { k 8.B.r r B.- - - ; # # ; ; - ; ; ; : ^.^.{ k 8 { - k 4 8.8 - 8.f.{ - k k { { r /.{ 8.8.*.r 8 r k.k.& - - B.v.k - * - k 8 - 8 | 8.- - & - , k - - - & * Y Y * O ; { 8.8.8.U.- 8.& & ; Y Y Y { k.- - Y k - & & & 8.f.].`.f.Y - Y 8.{ /.v.8.B.r { r & * w.Y k *.).{ { k k.k Y { *.8 *.k.k 8.Y Y - k 8.",
"{ 8.k * - k 8.k { { Y k { k k { - Y ; k 8.{ k - ; ; k * ; ; Y 8 r - k - { k 8 - & - + & ; /.f.* * & - * & & & k f.8.k ; B._.8 * O - 8.- 8 r k 8 8.k.4 & $ - & * & - k *.{ k { Y - Y 8.8.8 - { k - k { - Y { U.Y - - ; 8.{ ; Y { 8.r - Y.& - : ; & $ - ; & ; 8.; 8.B.{ k k k { r k - 8.k * ; B.k k 8 k k k 8 R.{ f.U.^.r 8 4 r B.r 8 8 8.^.{ - - & k - - r k k & - & - ; ; - ; - + ; k - * # ; - { 8.8.f.; 8.* & k k Y 8.k { Y k f.{ - + & & 8.B.`./.f.{ * Y k k /.k.U.^.r { 4 - - 8.; k *.v.k B.k k r { k *.4 v.8.k k Y { 8 k { ",
"{ k - * - Y { k 8.k { 8 k k 8 k * - - k ; Y k k k - ; & , ; k r 8 k Y * 8.; 8 8 # - + & ; U.8.- - - - * * 8 * Y { 8.- - B._.r & O & : = 4 8 Y k Y r 4 & + - * - & ; { v.{ 8 { 8.- k Y k 8 - Y 8 & - Y ; { f.U.; - k 8 ; Y 8 8.k Y k 8.8.* - - * # & - ; & ; U.: i.B.k k k k 8.k k 8 k.- & { B.Y k 8 k v.r 4 R.8.f.8.{ k & - k ^.*.k 8 v.B.8.- r 8 k 4 - k { - & - & * : - - - ; & ; k ; * & - Y B.f.f.^.k f.- * - ; ; k - 8.r - Y { - + # & 8.f.].^.f.Y - Y k.{ _.v.B.^.8 k r & - : Y { k.8.r k 8 8 k k r { 4 { k.k { 8.Y k r k.",
"U.8.- - - k { k 8.8.B.8 k k k { * ; k { k { Y { k ; ; & ; { { 8 & k 8.- k.8.8 8 # * & & ; Y.f.- & & & & & 8 & k B.{ 8 ; B.^.k - O * 8.8 & & Y k k - 2 - & - - ; - ; - { | r { 8.- k k k - - k - & & - - ; w.w.; - k k ; k r Y - k { { 8.& - - & # & ; { - - { : Y ).B.{ Y { U.k k 8 k.- - Y ^.- - k { { r 4 *.k.{ { k k 4 4 B.v.k 4 4 k.k.{ r k 8 r - k - { k - ; & & w.- - - ; - k 8.{ & # & { ^.B.8.U.- 8.- * k k - 8 k 8.- & - ; * & & & 8.f.`.^.8.Y : 8.*.Y i.k.B._.Y r 4 = - - ; Y v.^.r k - { { k k v.r k.k.k 8.8.Y 8 k 8.",
"B.B.- & - k 8.k i.U.B.& k k - B.- ; k 8.; Y 8 { k - : & * 8.8.& & { B.8 8.k - - O * & & 8.f.U.; & & & & & 8 8 k 8.{ - k ^.{.Y - O * 8.- & - Y ; { - - & & - - ; - ; - *.{ r 8.8.- s k 8.r & r k & - k - ; 8.8.; - k ; 8.{ k k k 8.k - : & - ; & & & - ; * - { : B.B.r 8.{ : 8.k r 8 B.- - B.^.k - { k | 8 8 { 8.{ 8.k.k 8 8 k { & 4 k v.k k 8 k - k r r k r k * * & * : - - - - - Y Y - & O ; { U.{ f.{.; f.- & Y k - k - { - - ; - - & & & 8.f.].U.w.{ : k k k B.k.8./.{ { = & - ; ; k U./.8 r 8 k k k.k 8.k v.B.k { B.k k k B.",
"v.k.- * - { 8.- { B.Y 8 r k k v.- ; - ; ; f.k i.; ; { * - 8.k & & Y U.8 Y k 8 * + ; & & : : 8.- & & - * & - 8 k { k.r k ^.].k * # - ; - 8 - { Y k - & * & - * Y - * - k 8.k 8.8.; - r 8.- * k k - - k - ; 8.8.- - Y - { k k k k k.k k ; + - - * & & - ; & 8.- : f.{ r { Y ; 8.k 8 8 /.k r B./.{ - k 8.k r 8 _.k.k k - k 4 - { k 8 k k B.{ 8 & - & k k { { k k & * & * : - - * ; - ; 8.{ & & { f.8.{ f.U.Y f.* & - ; ; ; - 8.8 8 | * * O # & 8.f.{.^.8.: - - { { ^.^.{ B.*.k 4 & Y ^.- - B.k.8 r 8 { k 8.k { 8 { B.k v.v.Y k { { ",
"r { - - - { { - Y f.k - r k 8 *.& ; * - - 8.8.k 8 - - & * ; k & - k 8.- Y k r * + ; * & 8.Y.Y.; - - - & & - * - { 8.k r B.^.- - # ; 8.- 8 r 8.k k & 4 * & * - { - * & k k k 8.8.- - { { - 8 k k & k Y - - 8.w.; - k - { ; k k { B.k r - & - - * # & ; f.- f.; - { { 8.f.Y ; { k r & B.k k f.{ Y - - k.{ k r R.B.Y k 8 { k r 8.{ r { k ^.v.r = - - k.k 8 k v.k - * * - : * - * ; - 8.8.{ & + Y k i.{ 8.f.Y { - & - - - k 8 ^.k - - - - & & # : 8.{.Y., : ; { v.{ ^.B.B.k.8 k 4 - Y f.- - *.B.- 8 8 r r k k { & k v.*.k.k k 8 k { ",
"r B.- & - { Y - Y B.Y & k k k | * - * : ; { { k k - - * & - r & & 8.8.- 8.v.k 8 * 8.& & , f.8.& & - & & & & & k Y 8.Y r ^.].k - + * f.- & - 8.Y { & & * & * ; ; - & - *.4 - f.i.- r 8.k * - k r & - k - Y 8.8.; k k - k { ; Y ; { = { 8.- ; - * # & ; : - { ; ; { v.{ B.B.k k ; 8 & B.- k f.B.Y - - k B.{ k _.k.{ k.{ B.4 8 { k 8 k.k k.{ *.4 8 4 k.8 8 4 k Y * * * ; : * - & ; - 8.8.Y * + k { 8.k 8.^.; 8.- & - k - s - k 8 - { - & * * & 8.f.{.U.8.; - Y k.{ B.8.8.k.k k & & Y 8.- - k._.& k 8 | k k 8 { 8 k.v.*.{ k Y 8 k k ",
"k { - * k Y { 8 U.B.8.= k 8 k r - - - : ; 8.{ { - - ; - * k k.- & { 8.* 8.k.r - & ; & # ; 8.{ & & & & & & 1 k { k 8.{ k B.].- - & * U.r & & k k k - & - & * - ; * * - Y r 4 { 8.- - Y k - - s 8 + * Y * Y 8.8.k k 8.- 8.8.8.8.{ { k | ; * - - - & & - ; + { { : B.B.8.B.8.; Y 8 k 4 { - r U.U.{ - k { i.k 8 ^.k.8.{ r *.- r k v.k P 4 { R.k 4 r 8 { 4 8 - { Y - * & - ; ; 8 & ; - 8.8.8.& O ; { B.{ 8.^.k 8.; & - Y k k - k 4 - v.- * & & & { 8.{.U.8.Y ; k k.k B.B.8.B.8 P < k Y i.- { v./.8 k 8 { 8 r k { 8 k.U.k.k.Y k k 8.v.",
"r B.8 - - k 8.- 8.B.8.4 r k k k * ; ; , - 8.k.8.k - 8.- * ; k.- - k 8.- 8.{ 8 - & - & & : 8.- * * & & & * 1 k k 8.{ r r B._.k - & * : k * & k k Y - & * & * - : - - - { 8 - 8.8.- - r k - - - - & & k 8 8.8.8.Y k { - Y k Y k Y 8.{ *.; & - ; * $ & ; f.& w.{ ; B.^.Y B.f.Y 8.s k 4 { 8 * { ^.Y - 8 8.^.- 8 B.k.{ k r r 4 k v.B.r r 4 *.B.k 4 r - k k - r k.Y - * & ; - - Y - ; - 8.8.{ & & k B.U.k.8.U.{ f.- & - ; - k { 8.* k { - * @ & & 8.8.{.f.Y : - Y { 8 v.U.x.B.k k - & - 8.- ; *._.r 8 8 *.r k k { k *.B.v.B.i.k k 8.{ ",
"r B.- & - k 8.- 8.B.k & 4 8 r { 8 - - 8.- ^.B.B.- k ; * * - k - k { { & k k 4 * + - * * 8.w.; & & * & & * 8 k k Y Y Y - ^.).k & & - 8.- - - - 8.{ k & - * & - ; & * - k - - B.f.* - k 8 - * - 8 - - 8.k 8.8.8.; ; ; ; 8.{ { k k { ; k.; + ; : & & & Y 8.- { { ; { B.8.B.{ k { Y - 8 k.- & { U.8.k - k B.- - i.v.8.{ k k 4 r { B.r *.r B.v.{ 4 4 k Y k 8 r v.8 & * * ; : k k & - - 8.{ { & & Y { B.{ w.U.; 8.; & ; - ; Y - B.r 8 { - & & # + w.f.`.B.Y ; - ; *.k 8.8.8.{ k k & & 8 8.; k k.R.- 4 * k 8 k.k { k *.).B.U.8.{ k k - ",
"k U.- & - k 8.Y /.B.k 4 r k | *.& - & 8.- f.8.8.k Y k - & - { & r Y 8.- 8.Y 4 & + - & & ; { , - & & - & & * - k { { k - B.].k & & * k - & - k 8.8.r r * * - ; ; & - - { & - 8.8.& * k 8 - - k k & - { ; 8.8.{ ; * ; - f.8.{ k Y k - - - & ; - * * & Y U.; f.w.8.^.k.k 8.Y k { Y k & { & = 8.B.Y - - { i.- - { k.v.{ { | 4 r { k 4 k.8 v.^.k - 2 4 k.8 r k k.r - - * - - s k - - & f.B.i.& & f.i.^.k Y 8.k Y ; * ; - k Y - { r r ^.* & & + & 8.f.`.B.8.; * ; *.8 i.B.B.8.Y k & & - { Y 8.U.B.- ; 8 *.{ k - r k *.U.v.v.8.k.Y { k ",
"v.B.- & - k 8.Y ^.^.k 4 k 8 k.v.& - ; 8.- Y k f.k k { & & - k & ; 8.8.8 8.{ 4 & O - & * : f.Y.* & & - * & 8 r k 8.{ r - ^.{.; & & & 8.k & 8 k 8.k k & & & - - ; * - - k r - { { * - 8.Y & 8 Y r & - k - 8.Y 8.k & Y k Y Y k r Y { - r - & ; - - & & k Y k 8.Y.8.v.k Y 8.8.- Y Y r - { - - 8.B.Y k - { B.8 8 v.{ 8.{ r k r k | { 8 k 4 v.^.| - < 8 { r 8 k { - - * & - * k k - ; * { Y k & & f.U.v.{ 8.U.i.Y - & ; k Y k & 8.k r 8.& & & & & 8.8.`.Y.8.; & - { - { 8.U.^.{ k 4 & - 8.k 8.B.R.4 k 8 { { { - { k *.B.k B.8.Y k.k k ",
"k B.- - k { Y k U.U.8 & - - { ^.& - - : * Y B.f.- Y { & & 8 k & - f.f.k 8.k 4 & & - & & ; : , & & & ; - & * 8 k { { { r ^.].; & & * i.k 8 - r 8.{ { & & & * - 8.- & & k k 8 8.{ - k k - - - Y k - - - - 8.w.w.; - k k { k k - Y { r 4 ; - Y & & & & ; - - { Y 8.k.B.{ 8.{ k { k r 4 { r k f.B.{ - - { 8.- * ^.v.k { k k.- 4 k Y 4 k 8 *.B.{ 4 & - k k 8 4 { * & & & - : ; Y 8 k k 8.8.8.& & 8.B.8.k { U.{ { - & - - k k & 8.k { B.& + # & & 8.i.`.U.Y ; * - | 8 8.v.B.k.P k 4 8 Y { - { B.B.& 8 - r B.{ - { k r k.k.^.k Y *.k 4 ",
"- { k * k 8.Y - B.8.8 & 4 r k.^.- * * ; - 8.B.B.k Y k & & 8 { & ; ; i.k 8.8 & & & - & & ; : , & * - ; & * * = k 8.Y { 8 U._.- & & & ^.- & - ; k k k 4 * & * - : * * & 8 - 8 8.Y & 8 k - 8 - - r & - { k Y U.f.8.k { k k k Y k { k 8 8 - & - * & & & k Y - 8.8.{ v.k.k f.Y ; 8.8.k 8 *.k - i.i.8.; k k { r - ^.B.k r *.B.8 - { *.& *.8 v.^.Y 4 - 8 *.k 8 r k 8 & & $ - : { { k k - { { B.- * k { v.r Y f.8.{ - & - - - k ; v.k k B.- & + & & 8.8./.f.Y ; ; k k 8 Y B.B.k.8 k r - { { - k v.k.& 8 4 k B.v.r k 8 k B.B.B.8.{ k.k k ",
"8 { k & k { Y * f.B.k = & r { B.- & - 8.; { B.8.8 Y Y & & k B.8 r ; { - 8.- 4 & + * & & 8.; : * - & & & & & k k { k k r v.U.- & & & 8.& - - k { { { r ; & * - ; * * & 8 r 8 { k * - { - r 8 k k - - ; - { f.w.; ; 8.k 8.Y Y - { { k k - & : : & * & ; { ; f.k - ^.k.; { Y k 8.Y - * k.k - { i.Y k k { k - r ^.B.k.8 k { r k *.*.4 r k k.B.k { r 8 - k 8 r k.s - * & : - - k k k - 8.k k.- * i.k { k k U.U.{ - - ; - k k k { k * B.- - * * * { 8./.f.Y ; - Y k.r - 8.B.{ 8 k 4 & 8.f.* - k.^.r - - k { v.- k k k.B.B.B.k k k.r 8 ",
"8 B.k & ; Y k - 8./.{ & 4 r k v.* & * 8.; 8.B.B.k k r - & { B.* k Y { - 8.B.8 + & * & & : , : - * - & & & - k Y { k 8.k ^.^.- - & * /.k & - k Y k r 8 - * & - ; - - - k r 8 { { * - { ; 8 8 k k - - - - 8.f.w.; - ; k k Y k - { { r 8 - * : ; & & & ; 8.& k { k ^.k.k Y Y k { k - 8 { 8 - { B.k ; - 8.8.& - k.k.k.- k { k k k 8.4 8 8 k.B.{ k 4 r k Y { 8.v.8 & * & : - - { 8 - * k r k * + i.v.B.8.8.B.{ k - - - - Y { k 8.k k ^.- - & & & : f.^.f.; ; - ; v.8 k k k.{ k *.& & k Y - - B._.8 4 8 8 Y { 4 8 r B.^.^.B.Y Y r { r ",
"r ^.k & k { { - k B.k & 4 8 *.^.8 - - ; * { 8.B.k 8 { - + | B.- ; 8.8.- k k.r & & - & * : ; : & ; & - & & * r k k k { r R.].- - & & /.4 - - - k r - 4 - * * * ; * & * k r k 8.8.- 8 k r 8 8 Y r & - k k 8.B.8.; - Y k - { v.k Y { 4 r * & * ; * * & Y { & k { k R.B.8.{ { - Y { r 4 k 8 - 8.U.{ - k B.8.& & { k.*.r *.k.v.{ 8.v.- k - v.B.{ P 8 r Y 8 r | r 8 & * & ; - ; { 8 - - { k { * # { i.k.k Y { 8.Y - - - - Y k - k.k { /.k - - & & ; 8.^.f.; - ; Y { & k k { { Y *.& 2 { 8.- & k.R.r - * k B.B.k k 8 k B.k.i.8.Y { { *.",
"k 8.k & - k 8 - Y ^.Y & 8 k *.*.- & - : * Y k B.Y Y { & O | 8.- - { k - k { k & & - * & : : : & * & - + & 8 r Y k k 8 & k./.k - - * /.{ & 8 - k k - k k * - - - * * & - 4 k 8.Y - k B.k 8 8 k k & & k - B.U.{ k - k - k v.{ - { { - 8 - & - ; ; & & Y - & r { Y /.B.8 k 8.k k Y k 4 k 4 - - 8.f.Y k 8.8.- - k { k.k *.*.{ k { v.k { 4 *.).k v.- 8 { k r { k - & * & ; - ; B.{ { - Y k v.- * f.B.{ k { 8.{ Y ; - - - { Y & { *.{ B.* & & # & Y 8./.w.- ; - - r k r 8.8.B.r Y & & k k * - v._.- 8 8 { k { 8 k k s k.k.{ B.Y v.8 r ",
"k k 8.8 ; k 8 - 8.f.{ = k k X.*.- * & : - Y 8./.8.k k & O r *.- - 8.k - k B.Y & @ - & & ; ; - * - - - + & 4 8 k k k k - *.^.Y ; * * U.r 4 - s - ; - 8 * & * - - * * + & - k B.Y - Y ^.Y 8 8 r r & - k k 8.U.8.; - - - r Y { * 8.{ r { ; - ; : & & $ ; ; k { ; k v.{ k { 8.{ k k k - { r - k f.B.Y ; { 8.& & 8.{ v.| 8 k *.k *.k.- v.4 v.B.8 4 r { { r k r k - & - * 8.- - v.k k r { { k.* * 8.{ r { B.8.{ { k - - - { Y k { *.k B.- - & + & 8.8.^.8.- - ; - { - k { 8.B.8 k k - { r & - 8.U.r k 8 { k { k r k { k.B.^.R.{ *.r k ",
"r - { - - Y k - { v.{ 8 4 k k k - - & -.- 8.{ ].B.8.8.8 O { k.- r ; k ; k B.8 & # * & & : ; : * - - * O & & 8 { 8.{ v.& { B.; - - * f.4 - - - - k r - ; * * - - - * & & & { 8.{ - k ^.k k - r r - & & - B.^.w.Y - - - r Y k k { 8.r - - - ; ; & & & - k k { 8.Y v.{ { k Y { 8.8.r - { { k { 8.8.; - 8.B.& & { v.| r k k { { { { & { 8 _.B.- 4 2 Y Y k Y r { 8 & & * > - - { k k k Y { { * * ; 8.k.k B.8.k 8.{ - - { Y Y k k Y k ^.8 ; # O & Y 8.^.Y ; - - - r - k 8.8.{ 8 k k & Y k * * B.B.{ - 8 { k k r r k { B.v.^._.k.v.{ | ",
"v.v.k * - k k - k i.{ 8 8 8 4 { - & & : - B.k ^.{ 8.v.& % { k.- - k ; k ; 8.* & # * & & - * : * * - - & * - k f.U.k.k 4 v.B.k & * & U.= & - * k k k - - * ; ; ; * * * - & k B.8.- k B.- k - s r - * & - 8./.B.k & { Y { r k k k k.8 - - & ; ; * * & s - - r { k { { 8.8.k 8.8.8.- = { k { B.{ 8.- - { U.k & r B.k - k { { { | *.8 { 4 )._.{ { & k k k *.k k k + & * : * : B.k - k { Y k.& & k v.{ { U.8.Y 8.{ - - k { Y k k Y { ^.- ; + # & : { Y.Y - - ; - k 8 8 { 8.8.8.k - 4 8 k * & { ^.k 8 8 r r { - 8 4 { /.Y B.B.{ ^.r { ",
"v.k.k & - k k - { v.Y r r 8 r { - & * ; * k k { k.k.v.- & k.^.k k k ; - 8 U.- & * * & # * * ; & & - & - - 8 Y 8.{ *.k & k./.{ ; - * w.4 & - - ; k k r - - ; ; ; - ; & - % { { { - - B.- k 4 8 k - 8 - s { B.8.- & { { { 8.k - k { k - ; - - ; & & & Y k - - { r k Y i.8.{ Y : Y - & { k k 8.{ 8.Y k f.8.- - k 8.{ r 4 k B.{ { { 4 k - k B.{ k - *.k.k r 8 k k & * * > ; - { { - - Y 8.B.k * 8.{ k { B.Y k { k - - - 8.k.k k *.k v.* ; & & & : Y U.Y & - - - r - k Y 8.8.{ k = - k { & * 8.R.k r 8 - k 8.- 8 8 k { { { v.k.B.k r ",
"| 8.Y - - Y k - B.B.k r r k 8 { k & - , - { *.R.*.X.B.4 & k B.- - Y - - 8 ^.k * & & & # - * : * & * - & & 4 8.U.{ 8 8.& *./.Y ; - & B.8 & - Y { Y { r - - - ; - - - & 8 8 { { k k k k.& k - k & = - - k U.`.8.- * - ; 8.{ Y - { k 8 - * - - - & * & Y - - k { - k Y k k Y ; 8.8.8 r { r 8 { 8.8.k k f.8.& * k k.k 4 - k k k { { 4 { 8 { B.- r 4 k { 4 r r - k & & & : - - ; k Y k 8.{ _.8.- 8.f.k r B.{ 8.Y k k 8 - k k & 8 k { ^.& ; & + & - k U.Y & * : Y k - k { 8.k k k r & k Y & - ^.B.r k r r k { 8 r k *.*.B.v.v.{ B.k k ",
"| k k - - { k - B.B.8 r 8 - k { - * - , ; B.v._.B.{ B.4 + k 8.* - Y - - * { - & & * & & : - : & & - * & & 4 k.B.v.Y k - k.B.k ; - & { k - - { k k v.k - * * - * : * & - & | { k ; Y v.- k - 8 - & - - k U.`.8.- & k k k.v.k - { k - & - ; ; * & * & Y - k 8 8.k { k - k { { 8.{ 4 4 k k ; k Y Y ; { U.; & 8 k 8.k r k { r k k.k - k.k B.{ - k & { k 8 k k Y k & & & : - ; 8.{ 8 8 Y k./.k & 8.B.Y r v.8.U.{ Y { - - Y k - { Y Y /.* - & O & - k U.: & - ; { r - k 8.Y k r 8 - & k Y * - ^.k.8 8 - - { { - Y Y k.^.^.B./.*.R.k 4 ",
"{ B.k & - Y k 8 k v.k r 4 = v.^.k * - ; - v.k ^.k.Y B.- + r 8.- - - - ; - { 4 & & & & & : & - & & ; - & & & { 8.{ { Y & k B.k - ; * B.k k 8.{ { k r 8 * * * * ; ; - & & O r 8.k - Y U.r { 8 4 4 & - & & f.{.B.Y - k k k 8.Y k 8.{ k - - ; ; * * - & k * - - k Y { { k - k ; Y 8.- 4 8 - - k k k - Y B.f.- * r Y { - k k.{ { { 8 - { Y /.v.8 | & Y k r k.8 k - & & & , : 8.8.k { Y k.x.B.k & ; ^.8.8 { { i.k { k - ; Y ; - k Y *._.8 ; # X & ; { U.: * ; - k r - k 8.8.{ { k - % k { - & i.B.k 8 & k B.B.r k k k U.B.k.R.k B.{ *.",
"{ v.v.& * k Y k { U.8 8 k 4 *.^.Y & * 8.- 8.r v.*.Y B.4 & k k - - Y - - - i.8 + & & & & ; - - & & - * & & & r B.{ Y { - | ^.k k ; * B.- - k Y Y k k 4 * * - & - ; ; & & & k B.- 8 8 B.r Y 8 k 8 - k - - 8./.B.{ - k k { { k k { 8.k { * - ; - + - & Y - & - ; k B.k Y - ; ; k { - 4 r k - { k { - ; B.8.k - r { 8 - k { ^.{ { { & { k /._.- r - k k 4 Y k { Y & * & ; { : { k r { 8.w.v.- & ; B.Y { { Y { { { - ; Y 8.k & k k Y ^.8 8.& O & - 8.B.; * : ; k { - - k 8.X.Y k 4 % r 8.- - U.B.k k 4 r B.B.k 8 k { v.{ *.*.*.B.k 4 ",
"k r { & - Y - - 8./.Y { k * k { - & - Y.; { 8 v.{ k *.4 + k 8.- & 8.; ; k B.8 & & & & * ; - ; & * - - & & - k k.k.k.k - k./.8.; k * U.- & k k ; - k.- & * * - - - ; - - & 8.B.k * 8 B.- { r k 8 & k - - Y ^.8.k - k k 8.Y 8 Y { { Y - & * - ; @ & & ; - & - ; Y v.k ; - Y ; k k - & 8 k - { { 8.- - 8.8.- r k { - & r { ^.B.{ v.8 8.k B./.; r - 8.8 & k { Y - & & & Y ; , k k k { B.k.{ - * k i.k { B.{ - k 8.- 8 8.{ 8.& k k.{ U.4 ; & & & - ; f.- * : ; k k - - Y B.v.s 8 8 & k k * * U._.{ k 4 r { k & k *.B.B.k k.v.k v.r P ",
"v.{ B.- - k - - { U.v.k 8 8 4 { ; & - ; ; { r ^.k.{ ^.- & 8 8.- & 8.; k - 8.8 & * & & * : * : - & - - & & 4 Y k.B.{ - * k.R.8.k ; & B.& & k k Y Y 8.- * * - - * - ; - ; & r 8.- - k B.- { 8 8 4 - k k & 8.^.{ k - - k.k.8.k - Y { 8 - & - ; ; & & # Y - - - k k k k - - Y - ; k - r - - & 8 { { - - 8.8.- - 8.{ { = k r B.U.B.8.- k.Y B.8.r - & 8.8 8 Y - { k & & & - - : - { B.k.k.{ B.k & k B.k { B.{ { Y 8.k - Y 8.x.8 r k k k.8 - $ # & * : f.; & : ; - - - * k { B.k k { & k k & * f.{.*.8 8 8 k Y - { r *.B.{ k.R.k ).k | ",
"k.*.v.= - k k Y k B.{ k 8 - r k - * - ; - 8.r B.B.B.B.& & k 8.- * Y - 8.k /.k & & & & * - - : & & - - & * 8 k { k.k 4 - { ^.{ ; ; & 8.& - Y { 8.k { - * ; - - * - - ; - + k B.Y s k v.4 *.4 4 4 - k { - f.U.Y Y - k { { { k - Y { r & & - - ; * & & ; - - * { k { s - - Y Y k k - 8 r k - ; 8.f.; - 8.Y & - k 8.{ k k k { B.8.| - 8.8 i.{ - & & Y 4 8 - - Y - & * & - & - - Y v.k.B.B.^.f.* 8.f.k - B.k k Y B.k - k Y k k - v.k { 8 Y & O # - Y 8.- * 8.8.8 - - r Y Y 8.k k r & k k ; - i._.{ 8 8 - { k 4 { 8 k B.{ | B.k._.r k ",
"r r | - - { k k v.U.*.r & * k 8 & * ; 8.; k.r U.v.k.B.& & k f.- - Y ; - 8 /.s # & & & & : * ; & & - * & * 8 X.k.8.Y 8 & r B.8.- k * { & & Y k 8.k k - * * - - - - - * * # { 8.Y 8 Y B.4 *.4 - k 8 k r - U./.B.k * k k k v.k - r B.k * * - - - & + & Y r - - B.r { - ; ; Y k s Y 8 - k { & - 8.8.; k 8.- & - k { - & k - i.k.8.v.k k 8 v.{ k k - 8.8 8 8 - - - & * & - & ; ; k { v.k.{ B.i.& { 8.- - B.; k Y 8.k - - Y { - 8 k k ^.8 8.& # & ; 8.8.- & : Y Y & * k 8.{ k k 8 8 & k { - - /._.{ - - r { k - *.*.k.^.k k.B.*.).r & ",
"{ k | & - k k r 8.^.*.k - - k Y - & - : k { k ^.v.X.{ & & { 8.- - { ; - - B.- + & & & - 8.* : * & ; - & & 8 Y B.{ { r & r B.k - k & 8.& & k - { k { & & * - : ; ; * * & & r 8.- - k k.4 *.k r r k k k k ^.^.f.k * k k r { k k k k.8 & & - - ; & * & { - - - i.8 { k k ; k ; - Y - 4 k k - - 8.f.- k U.; * k Y { & - k k ^.8.8.i.8 { - /.^.- k - Y - * r & - : - * * - & - Y k { B.{ Y ^.Y & Y ^.k 8 8.k r k i.k k k Y Y r 4 k v._.8 8.$ + & ; Y 8.- & ; w.{ - & { 8.8.8.k 8 8 & 8 k - * ^.].{ 8 - 8 8.k - k k *.B.k 8.^.k k.r r ",
"k r v.8 - k Y k Y B.{ r = 8 { Y - O - ; - k.k _.^.k v.r & k 8.- - Y ; - - { * & & # & * ; & ; & & - * & & 8 8 v.8.r *.& k.B.r - - & B.& & - - ; - v.- * - : w.; : ; - & % { Y - - { B.- *.8 8 8 8 r k k ^./.i.k & k r k k { Y { *.k * & ; - - * * & : - 8 k { 8 8.k ; - ; ; 8 { r 8 k - & k 8.Y.k - 8.k & - - { r - { { ^.B.v.{ & Y * U./.& ; ; ; r - { - - : * & * - - ; 8.r k { { *./.i.* { ^.{ - B.{ k { 8.k k 8.k Y k Y { B.B.* 8.# O & - Y 8.; & - ; r 8 k - { 8.k.k - k 4 r { ; & B._.k - 4 r k.k & - k k ^.k { /.Y v.{ | ",
"{ k v.r k { k { { 8.k *.8 k { { - + & ; ; { k B.B.*.k & & Y k - - Y - & - { * & * & @ * - & - * & - * & & k Y k.8.8.v.- B.^.{ ; - * U.& * { - ; - r & & - ; ; * ; - : + & k 8.; - { ^.k { r 4 & 8 k r - 8.B.B.k - { { k { k k { *.*.& & : * - & * & k r - - { r k k - - - ; s Y k 8 - - & ; 8.U.k * ; { & - ; U.Y & r { | B.^.8.- Y - 8.B.- ; 8.i.k - ; ; - ; ; * * - * , 8.k 4 B.B.*.^.i.* { { - 4 v.k 8.8.B.- - k k 8.Y k Y k.k.& 8.& O # * Y Y ; * - ; k 4 k 8 8.{ k ; 8 | - *.{ ; - 8.v.{ 8 8 k B.Y 8 = r k v.{ k R.Y Y - & ",
"- { B.8 8 k k r { 8.k B.8 r { k - & - : - B.*.B.*.k k & & k ; - - ; - - ; v.& & & & & * & & Y - & ; * & & - Y B.{ k r * k._.B.k Y * /.k & k Y Y ; | & & ; - - * * - : & - k 8.Y s { 8.& k.*.4 & 8 k k r 8.B.f.k * k k { { k { { B.| - & : - * @ * & k 8 & - 8.8 { - ; - ; - 8 k - - & & - Y 8.^.; * { Y & k Y 8.k & k { { B.B.{ - k - { U.k k Y 8.- * - - - ; ; - * - * : w.k { { 8.{ B.8.* - f.Y r v.k 8.8.U.- ; Y Y 8.k ; k { k.& { & # + * ; Y - & ; Y k 8 8 Y 8.{ - Y k { 4 r { ; - f.8.8.8 r k B.k - 8 { r ^.f.k B.8 { & + ",
"k { R.4 k k Y k { { { k - 8 k k - & - ; ; B.{ B.| { k - & r f.- * ; - k s ^.& # & & * * * * : * & ; - & & - { B.k.k 8 & Y B.B.r k & k.4 & - k { - { & & - - ; * ; ; ; & & k v.k 8 k 8.4 k.{ 8 & 4 8 8 = B./.B.Y - { 8.k v.8 Y Y B.r & & Y * * & & & k - 4 * f.8 8.; - & - ; - r - k r 8 - ; { Y.Y - 8.8.& k ; Y { & { { ^.^.i.k - k * v.^.- k - 8.- & ; * ; - * * & ; & ; 8.k B.8.Y k.v.; * : ^.k - B.8 { 8.^.{ 8 k Y Y - Y { 8.k.* { & X O * Y Y - & 8.f.s 8 - - 8.{ k k k Y 4 k 8.; * 8.B.k * r 8 v.{ 8 r k r ^.v.k B.8 B.- - ",
"{ r k - k.Y - k { 8.{ k r k k * ; + * : Y v.{ B.*.*.k - & k 8.; & Y - * - ^.& # * & & & * & - & + ; ; & * * 8./.k.*.P & { ^.k.- ; * ^.k & - ; 8.* k & & - - ; - - - ; + + - { - - k 8.r { k & = & r 8 & 8.^.B.Y k k 8.f.8.8 { { ^.{ - & ; * & & & & - & * * v.k B.- - ; k ; - 8 k k - 4 - { 8.8.- - 8.Y & ; k { r - - { ^./.8.k 8 Y & v.^.& ; ; k - & - * - 8.- - & ; * ; : - { ^.B.B.B.8.* { f.k - ^.k 8 k U.k - { Y 8.& 8 { Y *.* B.& O O * Y ; - & { f.k r - ; 8.8.8.k 8 8 r k.{ - - 8.B.k * 8 k { k r r k k B.w.- B.8 8.- { "
};
