/* XPM */
static char * scope_transparent_xpm[] = {
"30 30 2 1",
" 	c none",
".	c #0CF041",
"             ....             ",
"             ....             ",
"             ....             ",
"             ....             ",
"             ....             ",
"             ....             ",
"             ....             ",
"             ....             ",
"             ....             ",
"                              ",
"                              ",
"                              ",
"                              ",
".........             ........",
".........             ........",
".........             ........",
".........             ........",
"                              ",
"                              ",
"                              ",
"                              ",
"             ....             ",
"             ....             ",
"             ....             ",
"             ....             ",
"             ....             ",
"             ....             ",
"             ....             ",
"             ....             ",
"             ....             "};
