/* XPM */
static char * pacman_dying9_xpm[] = {
"32 32 2 1",
" 	c none",
".	c #FFF100",
"                                ",
"                                ",
"                                ",
"                                ",
"                                ",
"                                ",
"                                ",
"                                ",
"                                ",
"                                ",
"               ..               ",
"               ..               ",
"               ..               ",
"               ..               ",
"             .....              ",
"             .....              ",
"             .....              ",
"             .....              ",
"             .....              ",
"            ........            ",
"           ..........           ",
"             ..  .              ",
"             ..  .              ",
"                                ",
"                                ",
"                                ",
"                                ",
"                                ",
"                                ",
"                                ",
"                                ",
"                                "};
