/* XPM */
static char * pacman_dying4_xpm[] = {
"32 32 2 1",
" 	c none",
".	c #FFF100",
"                                ",
"                                ",
"                                ",
"                                ",
"                                ",
"                                ",
"                                ",
"                                ",
"                                ",
"                                ",
"                                ",
"                                ",
"                                ",
"                                ",
"   .......            .......   ",
"   ..........................   ",
"   ..........................   ",
"   ..........................   ",
"   ..........................   ",
"    ........................    ",
"    ........................    ",
"        .......  .......        ",
"                                ",
"                                ",
"                                ",
"                                ",
"                                ",
"                                ",
"                                ",
"                                ",
"                                ",
"                                "};
