/* XPM */
static char * pacman_woosh_xpm[] = {
"32 32 2 1",
" 	c none",
".	c #FFF100",
"                                ",
"                                ",
"                                ",
"                                ",
"                                ",
"                                ",
"                                ",
"           ..     ...           ",
"           ..     ...           ",
"        ..   ..  .              ",
"          .           ..        ",
"          .           ..        ",
"                     .          ",
"                     .          ",
"      ....                      ",
"      ....                      ",
"                      ....      ",
"          .                     ",
"          .                     ",
"          .                     ",
"        ..           .          ",
"             ..  .    ..        ",
"             ..  .    ..        ",
"           ..     ...           ",
"            .      .            ",
"                                ",
"                                ",
"                                ",
"                                ",
"                                ",
"                                ",
"                                "};
